boundlessjs/public/luts/bleach_bypass.cube
TITLE "bleach_bypass"
LUT_3D_SIZE 5
0.00000 0.00000 0.00000
0.05962 0.00000 0.00000
0.24104 0.00000 0.00000
0.42245 0.00000 0.00000
0.60387 0.02787 0.02787
0.00408 0.14808 0.00408
0.18549 0.18549 0.04149
0.36691 0.22291 0.07891
0.54833 0.26033 0.11633
0.72975 0.29775 0.15375
0.12995 0.41795 0.12995
0.31137 0.45537 0.16737
0.49279 0.49279 0.20479
0.67420 0.53020 0.24220
0.85562 0.56762 0.27962
0.25583 0.68783 0.25583
0.43724 0.72524 0.29324
0.61866 0.76266 0.33066
0.80008 0.80008 0.36808
0.98150 0.83750 0.40550
0.38170 0.95770 0.38170
0.56312 0.99512 0.41912
0.74454 1.00000 0.45654
0.92595 1.00000 0.49395
1.00000 1.00000 0.53137
0.00000 0.00000 0.03491
0.07232 0.00000 0.07232
0.25374 0.00000 0.10974
0.43516 0.00316 0.14716
0.61658 0.04058 0.18458
0.01678 0.16078 0.16078
0.19820 0.19820 0.19820
0.37962 0.23562 0.23562
0.56104 0.27304 0.27304
0.74245 0.31045 0.31045
0.14266 0.43066 0.28666
0.32408 0.46808 0.32408
0.50549 0.50549 0.36149
0.68691 0.54291 0.39891
0.86833 0.58033 0.43633
0.26853 0.70053 0.41253
0.44995 0.73795 0.44995
0.63137 0.77537 0.48737
0.81279 0.81279 0.52479
0.99420 0.85020 0.56220
0.39441 0.97041 0.53841
0.57583 1.00000 0.57583
0.75724 1.00000 0.61324
0.93866 1.00000 0.65066
1.00000 1.00000 0.68808
0.00000 0.00000 0.19161
0.08503 0.00000 0.22903
0.26645 0.00000 0.26645
0.44787 0.01587 0.30387
0.62928 0.05328 0.34128
0.02949 0.17349 0.31749
0.21091 0.21091 0.35491
0.39232 0.24832 0.39232
0.57374 0.28574 0.42974
0.75516 0.32316 0.46716
0.15536 0.44336 0.44336
0.33678 0.48078 0.48078
0.51820 0.51820 0.51820
0.69962 0.55562 0.55562
0.88104 0.59304 0.59304
0.28124 0.71324 0.56924
0.46266 0.75066 0.60666
0.64408 0.78808 0.64408
0.82549 0.82549 0.68149
1.00000 0.86291 0.71891
0.40712 0.98312 0.69512
0.58853 1.00000 0.73253
0.76995 1.00000 0.76995
0.95137 1.00000 0.80737
1.00000 1.00000 0.84479
0.00000 0.00000 0.34832
0.09774 0.00000 0.38574
0.27916 0.00000 0.42316
0.46057 0.02857 0.46057
0.64199 0.06599 0.49799
0.04220 0.18620 0.47420
0.22361 0.22361 0.51161
0.40503 0.26103 0.54903
0.58645 0.29845 0.58645
0.76787 0.33587 0.62387
0.16807 0.45607 0.60007
0.34949 0.49349 0.63749
0.53091 0.53091 0.67491
0.71232 0.56832 0.71232
0.89374 0.60574 0.74974
0.29395 0.72595 0.72595
0.47536 0.76336 0.76336
0.65678 0.80078 0.80078
0.83820 0.83820 0.83820
1.00000 0.87562 0.87562
0.41982 0.99582 0.85182
0.60124 1.00000 0.88924
0.78266 1.00000 0.92666
0.96408 1.00000 0.96408
1.00000 1.00000 1.00000
0.00000 0.00000 0.50503
0.11045 0.00000 0.54245
0.29186 0.00386 0.57986
0.47328 0.04128 0.61728
0.65470 0.07870 0.65470
0.05490 0.19890 0.63090
0.23632 0.23632 0.66832
0.41774 0.27374 0.70574
0.59916 0.31116 0.74316
0.78057 0.34857 0.78057
0.18078 0.46878 0.75678
0.36220 0.50620 0.79420
0.54361 0.54361 0.83161
0.72503 0.58103 0.86903
0.90645 0.61845 0.90645
0.30665 0.73865 0.88265
0.48807 0.77607 0.92007
0.66949 0.81349 0.95749
0.85091 0.85091 0.99491
1.00000 0.88832 1.00000
0.43253 1.00000 1.00000
0.61395 1.00000 1.00000
0.79536 1.00000 1.00000
0.97678 1.00000 1.00000
1.00000 1.00000 1.00000
