boundlessjs/public/luts/bleach_bypass.cube
TITLE "bleach_bypass"
LUT_3D_SIZE 9
0.00000 0.00000 0.00000
0.00000 0.00000 0.00000
0.05962 0.00000 0.00000
0.15033 0.00000 0.00000
0.24104 0.00000 0.00000
0.33174 0.00000 0.00000
0.42245 0.00000 0.00000
0.51316 0.00916 0.00916
0.60387 0.02787 0.02787
0.00000 0.01314 0.00000
0.03185 0.03185 0.00000
0.12256 0.05056 0.00000
0.21326 0.06926 0.00000
0.30397 0.08797 0.01597
0.39468 0.10668 0.03468
0.48539 0.12539 0.05339
0.57610 0.14410 0.07210
0.66681 0.16281 0.09081
0.00408 0.14808 0.00408
0.09478 0.16678 0.02278
0.18549 0.18549 0.04149
0.27620 0.20420 0.06020
0.36691 0.22291 0.07891
0.45762 0.24162 0.09762
0.54833 0.26033 0.11633
0.63904 0.27904 0.13504
0.72975 0.29775 0.15375
0.06701 0.28301 0.06701
0.15772 0.30172 0.08572
0.24843 0.32043 0.10443
0.33914 0.33914 0.12314
0.42985 0.35785 0.14185
0.52056 0.37656 0.16056
0.61127 0.39527 0.17927
0.70197 0.41397 0.19797
0.79268 0.43268 0.21668
0.12995 0.41795 0.12995
0.22066 0.43666 0.14866
0.31137 0.45537 0.16737
0.40208 0.47408 0.18608
0.49279 0.49279 0.20479
0.58349 0.51149 0.22349
0.67420 0.53020 0.24220
0.76491 0.54891 0.26091
0.85562 0.56762 0.27962
0.19289 0.55289 0.19289
0.28360 0.57160 0.21160
0.37431 0.59031 0.23031
0.46501 0.60901 0.24901
0.55572 0.62772 0.26772
0.64643 0.64643 0.28643
0.73714 0.66514 0.30514
0.82785 0.68385 0.32385
0.91856 0.70256 0.34256
0.25583 0.68783 0.25583
0.34653 0.70653 0.27453
0.43724 0.72524 0.29324
0.52795 0.74395 0.31195
0.61866 0.76266 0.33066
0.70937 0.78137 0.34937
0.80008 0.80008 0.36808
0.89079 0.81879 0.38679
0.98150 0.83750 0.40550
0.31876 0.82276 0.31876
0.40947 0.84147 0.33747
0.50018 0.86018 0.35618
0.59089 0.87889 0.37489
0.68160 0.89760 0.39360
0.77231 0.91631 0.41231
0.86302 0.93502 0.43102
0.95372 0.95372 0.44972
1.00000 0.97243 0.46843
0.38170 0.95770 0.38170
0.47241 0.97641 0.40041
0.56312 0.99512 0.41912
0.65383 1.00000 0.43783
0.74454 1.00000 0.45654
0.83524 1.00000 0.47524
0.92595 1.00000 0.49395
1.00000 1.00000 0.51266
1.00000 1.00000 0.53137
0.00000 0.00000 0.00000
0.00000 0.00000 0.00000
0.06597 0.00000 0.00000
0.15668 0.00000 0.01268
0.24739 0.00000 0.03139
0.33810 0.00000 0.05010
0.42881 0.00000 0.06881
0.51952 0.01552 0.08752
0.61022 0.03422 0.10622
0.00000 0.01949 0.01949
0.03820 0.03820 0.03820
0.12891 0.05691 0.05691
0.21962 0.07562 0.07562
0.31033 0.09433 0.09433
0.40104 0.11304 0.11304
0.49174 0.13174 0.13174
0.58245 0.15045 0.15045
0.67316 0.16916 0.16916
0.01043 0.15443 0.08243
0.10114 0.17314 0.10114
0.19185 0.19185 0.11985
0.28256 0.21056 0.13856
0.37326 0.22926 0.15726
0.46397 0.24797 0.17597
0.55468 0.26668 0.19468
0.64539 0.28539 0.21339
0.73610 0.30410 0.23210
0.07337 0.28937 0.14537
0.16408 0.30808 0.16408
0.25478 0.32678 0.18278
0.34549 0.34549 0.20149
0.43620 0.36420 0.22020
0.52691 0.38291 0.23891
0.61762 0.40162 0.25762
0.70833 0.42033 0.27633
0.79904 0.43904 0.29504
0.13630 0.42430 0.20830
0.22701 0.44301 0.22701
0.31772 0.46172 0.24572
0.40843 0.48043 0.26443
0.49914 0.49914 0.28314
0.58985 0.51785 0.30185
0.68056 0.53656 0.32056
0.77127 0.55527 0.33927
0.86197 0.57397 0.35797
0.19924 0.55924 0.27124
0.28995 0.57795 0.28995
0.38066 0.59666 0.30866
0.47137 0.61537 0.32737
0.56208 0.63408 0.34608
0.65279 0.65279 0.36479
0.74349 0.67149 0.38349
0.83420 0.69020 0.40220
0.92491 0.70891 0.42091
0.26218 0.69418 0.33418
0.35289 0.71289 0.35289
0.44360 0.73160 0.37160
0.53431 0.75031 0.39031
0.62501 0.76901 0.40901
0.71572 0.78772 0.42772
0.80643 0.80643 0.44643
0.89714 0.82514 0.46514
0.98785 0.84385 0.48385
0.32512 0.82912 0.39712
0.41583 0.84783 0.41583
0.50653 0.86653 0.43453
0.59724 0.88524 0.45324
0.68795 0.90395 0.47195
0.77866 0.92266 0.49066
0.86937 0.94137 0.50937
0.96008 0.96008 0.52808
1.00000 0.97879 0.54679
0.38805 0.96405 0.46005
0.47876 0.98276 0.47876
0.56947 1.00000 0.49747
0.66018 1.00000 0.51618
0.75089 1.00000 0.53489
0.84160 1.00000 0.55360
0.93231 1.00000 0.57231
1.00000 1.00000 0.59102
1.00000 1.00000 0.60972
0.00000 0.00000 0.03491
0.00000 0.00000 0.05362
0.07232 0.00000 0.07232
0.16303 0.00000 0.09103
0.25374 0.00000 0.10974
0.34445 0.00000 0.12845
0.43516 0.00316 0.14716
0.52587 0.02187 0.16587
0.61658 0.04058 0.18458
0.00000 0.02584 0.09784
0.04455 0.04455 0.11655
0.13526 0.06326 0.13526
0.22597 0.08197 0.15397
0.31668 0.10068 0.17268
0.40739 0.11939 0.19139
0.49810 0.13810 0.21010
0.58881 0.15681 0.22881
0.67952 0.17552 0.24752
0.01678 0.16078 0.16078
0.10749 0.17949 0.17949
0.19820 0.19820 0.19820
0.28891 0.21691 0.21691
0.37962 0.23562 0.23562
0.47033 0.25433 0.25433
0.56104 0.27304 0.27304
0.65174 0.29174 0.29174
0.74245 0.31045 0.31045
0.07972 0.29572 0.22372
0.17043 0.31443 0.24243
0.26114 0.33314 0.26114
0.35185 0.35185 0.27985
0.44256 0.37056 0.29856
0.53326 0.38926 0.31726
0.62397 0.40797 0.33597
0.71468 0.42668 0.35468
0.80539 0.44539 0.37339
0.14266 0.43066 0.28666
0.23337 0.44937 0.30537
0.32408 0.46808 0.32408
0.41478 0.48678 0.34278
0.50549 0.50549 0.36149
0.59620 0.52420 0.38020
0.68691 0.54291 0.39891
0.77762 0.56162 0.41762
0.86833 0.58033 0.43633
0.20560 0.56560 0.34960
0.29630 0.58430 0.36830
0.38701 0.60301 0.38701
0.47772 0.62172 0.40572
0.56843 0.64043 0.42443
0.65914 0.65914 0.44314
0.74985 0.67785 0.46185
0.84056 0.69656 0.48056
0.93127 0.71527 0.49927
0.26853 0.70053 0.41253
0.35924 0.71924 0.43124
0.44995 0.73795 0.44995
0.54066 0.75666 0.46866
0.63137 0.77537 0.48737
0.72208 0.79408 0.50608
0.81279 0.81279 0.52479
0.90349 0.83149 0.54349
0.99420 0.85020 0.56220
0.33147 0.83547 0.47547
0.42218 0.85418 0.49418
0.51289 0.87289 0.51289
0.60360 0.89160 0.53160
0.69431 0.91031 0.55031
0.78501 0.92901 0.56901
0.87572 0.94772 0.58772
0.96643 0.96643 0.60643
1.00000 0.98514 0.62514
0.39441 0.97041 0.53841
0.48512 0.98912 0.55712
0.57583 1.00000 0.57583
0.66653 1.00000 0.59453
0.75724 1.00000 0.61324
0.84795 1.00000 0.63195
0.93866 1.00000 0.65066
1.00000 1.00000 0.66937
1.00000 1.00000 0.68808
0.00000 0.00000 0.11326
0.00000 0.00000 0.13197
0.07868 0.00000 0.15068
0.16939 0.00000 0.16939
0.26010 0.00000 0.18810
0.35080 0.00000 0.20680
0.44151 0.00951 0.22551
0.53222 0.02822 0.24422
0.62293 0.04693 0.26293
0.00000 0.03220 0.17620
0.05091 0.05091 0.19491
0.14162 0.06962 0.21362
0.23232 0.08832 0.23232
0.32303 0.10703 0.25103
0.41374 0.12574 0.26974
0.50445 0.14445 0.28845
0.59516 0.16316 0.30716
0.68587 0.18187 0.32587
0.02314 0.16714 0.23914
0.11384 0.18584 0.25784
0.20455 0.20455 0.27655
0.29526 0.22326 0.29526
0.38597 0.24197 0.31397
0.47668 0.26068 0.33268
0.56739 0.27939 0.35139
0.65810 0.29810 0.37010
0.74881 0.31681 0.38881
0.08607 0.30207 0.30207
0.17678 0.32078 0.32078
0.26749 0.33949 0.33949
0.35820 0.35820 0.35820
0.44891 0.37691 0.37691
0.53962 0.39562 0.39562
0.63033 0.41433 0.41433
0.72104 0.43304 0.43304
0.81174 0.45174 0.45174
0.14901 0.43701 0.36501
0.23972 0.45572 0.38372
0.33043 0.47443 0.40243
0.42114 0.49314 0.42114
0.51185 0.51185 0.43985
0.60256 0.53056 0.45856
0.69326 0.54926 0.47726
0.78397 0.56797 0.49597
0.87468 0.58668 0.51468
0.21195 0.57195 0.42795
0.30266 0.59066 0.44666
0.39337 0.60937 0.46537
0.48408 0.62808 0.48408
0.57478 0.64678 0.50278
0.66549 0.66549 0.52149
0.75620 0.68420 0.54020
0.84691 0.70291 0.55891
0.93762 0.72162 0.57762
0.27489 0.70689 0.49089
0.36560 0.72560 0.50960
0.45630 0.74430 0.52830
0.54701 0.76301 0.54701
0.63772 0.78172 0.56572
0.72843 0.80043 0.58443
0.81914 0.81914 0.60314
0.90985 0.83785 0.62185
1.00000 0.85656 0.64056
0.33782 0.84182 0.55382
0.42853 0.86053 0.57253
0.51924 0.87924 0.59124
0.60995 0.89795 0.60995
0.70066 0.91666 0.62866
0.79137 0.93537 0.64737
0.88208 0.95408 0.66608
0.97279 0.97279 0.68479
1.00000 0.99149 0.70349
0.40076 0.97676 0.61676
0.49147 0.99547 0.63547
0.58218 1.00000 0.65418
0.67289 1.00000 0.67289
0.76360 1.00000 0.69160
0.85431 1.00000 0.71031
0.94501 1.00000 0.72901
1.00000 1.00000 0.74772
1.00000 1.00000 0.76643
0.00000 0.00000 0.19161
0.00000 0.00000 0.21032
0.08503 0.00000 0.22903
0.17574 0.00000 0.24774
0.26645 0.00000 0.26645
0.35716 0.00000 0.28516
0.44787 0.01587 0.30387
0.53858 0.03458 0.32258
0.62928 0.05328 0.34128
0.00000 0.03855 0.25455
0.05726 0.05726 0.27326
0.14797 0.07597 0.29197
0.23868 0.09468 0.31068
0.32939 0.11339 0.32939
0.42010 0.13210 0.34810
0.51080 0.15080 0.36680
0.60151 0.16951 0.38551
0.69222 0.18822 0.40422
0.02949 0.17349 0.31749
0.12020 0.19220 0.33620
0.21091 0.21091 0.35491
0.30162 0.22962 0.37362
0.39232 0.24832 0.39232
0.48303 0.26703 0.41103
0.57374 0.28574 0.42974
0.66445 0.30445 0.44845
0.75516 0.32316 0.46716
0.09243 0.30843 0.38043
0.18314 0.32714 0.39914
0.27384 0.34584 0.41784
0.36455 0.36455 0.43655
0.45526 0.38326 0.45526
0.54597 0.40197 0.47397
0.63668 0.42068 0.49268
0.72739 0.43939 0.51139
0.81810 0.45810 0.53010
0.15536 0.44336 0.44336
0.24607 0.46207 0.46207
0.33678 0.48078 0.48078
0.42749 0.49949 0.49949
0.51820 0.51820 0.51820
0.60891 0.53691 0.53691
0.69962 0.55562 0.55562
0.79033 0.57433 0.57433
0.88104 0.59304 0.59304
0.21830 0.57830 0.50630
0.30901 0.59701 0.52501
0.39972 0.61572 0.54372
0.49043 0.63443 0.56243
0.58114 0.65314 0.58114
0.67185 0.67185 0.59985
0.76256 0.69056 0.61856
0.85326 0.70926 0.63726
0.94397 0.72797 0.65597
0.28124 0.71324 0.56924
0.37195 0.73195 0.58795
0.46266 0.75066 0.60666
0.55337 0.76937 0.62537
0.64408 0.78808 0.64408
0.73478 0.80678 0.66278
0.82549 0.82549 0.68149
0.91620 0.84420 0.70020
1.00000 0.86291 0.71891
0.34418 0.84818 0.63218
0.43489 0.86689 0.65089
0.52560 0.88560 0.66960
0.61630 0.90430 0.68830
0.70701 0.92301 0.70701
0.79772 0.94172 0.72572
0.88843 0.96043 0.74443
0.97914 0.97914 0.76314
1.00000 0.99785 0.78185
0.40712 0.98312 0.69512
0.49782 1.00000 0.71382
0.58853 1.00000 0.73253
0.67924 1.00000 0.75124
0.76995 1.00000 0.76995
0.86066 1.00000 0.78866
0.95137 1.00000 0.80737
1.00000 1.00000 0.82608
1.00000 1.00000 0.84479
0.00000 0.00000 0.26997
0.00068 0.00000 0.28868
0.09139 0.00000 0.30739
0.18209 0.00000 0.32609
0.27280 0.00000 0.34480
0.36351 0.00351 0.36351
0.45422 0.02222 0.38222
0.54493 0.04093 0.40093
0.63564 0.05964 0.41964
0.00000 0.04491 0.33291
0.06361 0.06361 0.35161
0.15432 0.08232 0.37032
0.24503 0.10103 0.38903
0.33574 0.11974 0.40774
0.42645 0.13845 0.42645
0.51716 0.15716 0.44516
0.60787 0.17587 0.46387
0.69858 0.19458 0.48258
0.03584 0.17984 0.39584
0.12655 0.19855 0.41455
0.21726 0.21726 0.43326
0.30797 0.23597 0.45197
0.39868 0.25468 0.47068
0.48939 0.27339 0.48939
0.58010 0.29210 0.50810
0.67080 0.31080 0.52680
0.76151 0.32951 0.54551
0.09878 0.31478 0.45878
0.18949 0.33349 0.47749
0.28020 0.35220 0.49620
0.37091 0.37091 0.51491
0.46162 0.38962 0.53362
0.55232 0.40832 0.55232
0.64303 0.42703 0.57103
0.73374 0.44574 0.58974
0.82445 0.46445 0.60845
0.16172 0.44972 0.52172
0.25243 0.46843 0.54043
0.34314 0.48714 0.55914
0.43384 0.50584 0.57784
0.52455 0.52455 0.59655
0.61526 0.54326 0.61526
0.70597 0.56197 0.63397
0.79668 0.58068 0.65268
0.88739 0.59939 0.67139
0.22466 0.58466 0.58466
0.31536 0.60336 0.60336
0.40607 0.62207 0.62207
0.49678 0.64078 0.64078
0.58749 0.65949 0.65949
0.67820 0.67820 0.67820
0.76891 0.69691 0.69691
0.85962 0.71562 0.71562
0.95033 0.73433 0.73433
0.28759 0.71959 0.64759
0.37830 0.73830 0.66630
0.46901 0.75701 0.68501
0.55972 0.77572 0.70372
0.65043 0.79443 0.72243
0.74114 0.81314 0.74114
0.83185 0.83185 0.75985
0.92256 0.85056 0.77856
1.00000 0.86926 0.79726
0.35053 0.85453 0.71053
0.44124 0.87324 0.72924
0.53195 0.89195 0.74795
0.62266 0.91066 0.76666
0.71337 0.92937 0.78537
0.80408 0.94808 0.80408
0.89478 0.96678 0.82278
0.98549 0.98549 0.84149
1.00000 1.00000 0.86020
0.41347 0.98947 0.77347
0.50418 1.00000 0.79218
0.59489 1.00000 0.81089
0.68560 1.00000 0.82960
0.77630 1.00000 0.84830
0.86701 1.00000 0.86701
0.95772 1.00000 0.88572
1.00000 1.00000 0.90443
1.00000 1.00000 0.92314
0.00000 0.00000 0.34832
0.00703 0.00000 0.36703
0.09774 0.00000 0.38574
0.18845 0.00000 0.40445
0.27916 0.00000 0.42316
0.36987 0.00987 0.44187
0.46057 0.02857 0.46057
0.55128 0.04728 0.47928
0.64199 0.06599 0.49799
0.00000 0.05126 0.41126
0.06997 0.06997 0.42997
0.16068 0.08868 0.44868
0.25139 0.10739 0.46739
0.34209 0.12609 0.48609
0.43280 0.14480 0.50480
0.52351 0.16351 0.52351
0.61422 0.18222 0.54222
0.70493 0.20093 0.56093
0.04220 0.18620 0.47420
0.13291 0.20491 0.49291
0.22361 0.22361 0.51161
0.31432 0.24232 0.53032
0.40503 0.26103 0.54903
0.49574 0.27974 0.56774
0.58645 0.29845 0.58645
0.67716 0.31716 0.60516
0.76787 0.33587 0.62387
0.10513 0.32113 0.53713
0.19584 0.33984 0.55584
0.28655 0.35855 0.57455
0.37726 0.37726 0.59326
0.46797 0.39597 0.61197
0.55868 0.41468 0.63068
0.64939 0.43339 0.64939
0.74010 0.45210 0.66810
0.83080 0.47080 0.68680
0.16807 0.45607 0.60007
0.25878 0.47478 0.61878
0.34949 0.49349 0.63749
0.44020 0.51220 0.65620
0.53091 0.53091 0.67491
0.62162 0.54962 0.69362
0.71232 0.56832 0.71232
0.80303 0.58703 0.73103
0.89374 0.60574 0.74974
0.23101 0.59101 0.66301
0.32172 0.60972 0.68172
0.41243 0.62843 0.70043
0.50314 0.64714 0.71914
0.59384 0.66584 0.73784
0.68455 0.68455 0.75655
0.77526 0.70326 0.77526
0.86597 0.72197 0.79397
0.95668 0.74068 0.81268
0.29395 0.72595 0.72595
0.38466 0.74466 0.74466
0.47536 0.76336 0.76336
0.56607 0.78207 0.78207
0.65678 0.80078 0.80078
0.74749 0.81949 0.81949
0.83820 0.83820 0.83820
0.92891 0.85691 0.85691
1.00000 0.87562 0.87562
0.35688 0.86088 0.78888
0.44759 0.87959 0.80759
0.53830 0.89830 0.82630
0.62901 0.91701 0.84501
0.71972 0.93572 0.86372
0.81043 0.95443 0.88243
0.90114 0.97314 0.90114
0.99185 0.99185 0.91985
1.00000 1.00000 0.93856
0.41982 0.99582 0.85182
0.51053 1.00000 0.87053
0.60124 1.00000 0.88924
0.69195 1.00000 0.90795
0.78266 1.00000 0.92666
0.87337 1.00000 0.94537
0.96408 1.00000 0.96408
1.00000 1.00000 0.98278
1.00000 1.00000 1.00000
0.00000 0.00000 0.42668
0.01338 0.00000 0.44538
0.10409 0.00000 0.46409
0.19480 0.00000 0.48280
0.28551 0.00000 0.50151
0.37622 0.01622 0.52022
0.46693 0.03493 0.53893
0.55764 0.05364 0.55764
0.64835 0.07235 0.57635
0.00000 0.05761 0.48961
0.07632 0.07632 0.50832
0.16703 0.09503 0.52703
0.25774 0.11374 0.54574
0.34845 0.13245 0.56445
0.43916 0.15116 0.58316
0.52987 0.16987 0.60187
0.62057 0.18857 0.62057
0.71128 0.20728 0.63928
0.04855 0.19255 0.55255
0.13926 0.21126 0.57126
0.22997 0.22997 0.58997
0.32068 0.24868 0.60868
0.41139 0.26739 0.62739
0.50209 0.28609 0.64609
0.59280 0.30480 0.66480
0.68351 0.32351 0.68351
0.77422 0.34222 0.70222
0.11149 0.32749 0.61549
0.20220 0.34620 0.63420
0.29291 0.36491 0.65291
0.38361 0.38361 0.67161
0.47432 0.40232 0.69032
0.56503 0.42103 0.70903
0.65574 0.43974 0.72774
0.74645 0.45845 0.74645
0.83716 0.47716 0.76516
0.17443 0.46243 0.67843
0.26513 0.48113 0.69713
0.35584 0.49984 0.71584
0.44655 0.51855 0.73455
0.53726 0.53726 0.75326
0.62797 0.55597 0.77197
0.71868 0.57468 0.79068
0.80939 0.59339 0.80939
0.90010 0.61210 0.82810
0.23736 0.59736 0.74136
0.32807 0.61607 0.76007
0.41878 0.63478 0.77878
0.50949 0.65349 0.79749
0.60020 0.67220 0.81620
0.69091 0.69091 0.83491
0.78162 0.70962 0.85362
0.87232 0.72832 0.87232
0.96303 0.74703 0.89103
0.30030 0.73230 0.80430
0.39101 0.75101 0.82301
0.48172 0.76972 0.84172
0.57243 0.78843 0.86043
0.66314 0.80714 0.87914
0.75384 0.82584 0.89784
0.84455 0.84455 0.91655
0.93526 0.86326 0.93526
1.00000 0.88197 0.95397
0.36324 0.86724 0.86724
0.45395 0.88595 0.88595
0.54466 0.90466 0.90466
0.63536 0.92336 0.92336
0.72607 0.94207 0.94207
0.81678 0.96078 0.96078
0.90749 0.97949 0.97949
0.99820 0.99820 0.99820
1.00000 1.00000 1.00000
0.42618 1.00000 0.93018
0.51688 1.00000 0.94888
0.60759 1.00000 0.96759
0.69830 1.00000 0.98630
0.78901 1.00000 1.00000
0.87972 1.00000 1.00000
0.97043 1.00000 1.00000
1.00000 1.00000 1.00000
1.00000 1.00000 1.00000
0.00000 0.00000 0.50503
0.01974 0.00000 0.52374
0.11045 0.00000 0.54245
0.20116 0.00000 0.56116
0.29186 0.00386 0.57986
0.38257 0.02257 0.59857
0.47328 0.04128 0.61728
0.56399 0.05999 0.63599
0.65470 0.07870 0.65470
0.00000 0.06397 0.56797
0.08268 0.08268 0.58668
0.17338 0.10138 0.60538
0.26409 0.12009 0.62409
0.35480 0.13880 0.64280
0.44551 0.15751 0.66151
0.53622 0.17622 0.68022
0.62693 0.19493 0.69893
0.71764 0.21364 0.71764
0.05490 0.19890 0.63090
0.14561 0.21761 0.64961
0.23632 0.23632 0.66832
0.32703 0.25503 0.68703
0.41774 0.27374 0.70574
0.50845 0.29245 0.72445
0.59916 0.31116 0.74316
0.68987 0.32987 0.76187
0.78057 0.34857 0.78057
0.11784 0.33384 0.69384
0.20855 0.35255 0.71255
0.29926 0.37126 0.73126
0.38997 0.38997 0.74997
0.48068 0.40868 0.76868
0.57139 0.42739 0.78739
0.66209 0.44609 0.80609
0.75280 0.46480 0.82480
0.84351 0.48351 0.84351
0.18078 0.46878 0.75678
0.27149 0.48749 0.77549
0.36220 0.50620 0.79420
0.45291 0.52491 0.81291
0.54361 0.54361 0.83161
0.63432 0.56232 0.85032
0.72503 0.58103 0.86903
0.81574 0.59974 0.88774
0.90645 0.61845 0.90645
0.24372 0.60372 0.81972
0.33443 0.62243 0.83843
0.42513 0.64113 0.85713
0.51584 0.65984 0.87584
0.60655 0.67855 0.89455
0.69726 0.69726 0.91326
0.78797 0.71597 0.93197
0.87868 0.73468 0.95068
0.96939 0.75339 0.96939
0.30665 0.73865 0.88265
0.39736 0.75736 0.90136
0.48807 0.77607 0.92007
0.57878 0.79478 0.93878
0.66949 0.81349 0.95749
0.76020 0.83220 0.97620
0.85091 0.85091 0.99491
0.94162 0.86962 1.00000
1.00000 0.88832 1.00000
0.36959 0.87359 0.94559
0.46030 0.89230 0.96430
0.55101 0.91101 0.98301
0.64172 0.92972 1.00000
0.73243 0.94843 1.00000
0.82314 0.96714 1.00000
0.91384 0.98584 1.00000
1.00000 1.00000 1.00000
1.00000 1.00000 1.00000
0.43253 1.00000 1.00000
0.52324 1.00000 1.00000
0.61395 1.00000 1.00000
0.70466 1.00000 1.00000
0.79536 1.00000 1.00000
0.88607 1.00000 1.00000
0.97678 1.00000 1.00000
1.00000 1.00000 1.00000
1.00000 1.00000 1.00000
