boundlessjs/public/luts/bleach_bypass.cube
TITLE "bleach_bypass"
LUT_3D_SIZE 33
0.00000 0.00000 0.00000
0.00000 0.00000 0.00000
0.00000 0.00000 0.00000
0.00000 0.00000 0.00000
0.00000 0.00000 0.00000
0.00000 0.00000 0.00000
0.01426 0.00000 0.00000
0.03694 0.00000 0.00000
0.05962 0.00000 0.00000
0.08229 0.00000 0.00000
0.10497 0.00000 0.00000
0.12765 0.00000 0.00000
0.15033 0.00000 0.00000
0.17300 0.00000 0.00000
0.19568 0.00000 0.00000
0.21836 0.00000 0.00000
0.24104 0.00000 0.00000
0.26371 0.00000 0.00000
0.28639 0.00000 0.00000
0.30907 0.00000 0.00000
0.33174 0.00000 0.00000
0.35442 0.00000 0.00000
0.37710 0.00000 0.00000
0.39978 0.00000 0.00000
0.42245 0.00000 0.00000
0.44513 0.00000 0.00000
0.46781 0.00000 0.00000
0.49048 0.00448 0.00448
0.51316 0.00916 0.00916
0.53584 0.01384 0.01384
0.55852 0.01852 0.01852
0.58119 0.02319 0.02319
0.60387 0.02787 0.02787
0.00000 0.00000 0.00000
0.00000 0.00000 0.00000
0.00000 0.00000 0.00000
0.00000 0.00000 0.00000
0.00000 0.00000 0.00000
0.00732 0.00000 0.00000
0.03000 0.00000 0.00000
0.05267 0.00000 0.00000
0.07535 0.00000 0.00000
0.09803 0.00000 0.00000
0.12071 0.00000 0.00000
0.14338 0.00000 0.00000
0.16606 0.00000 0.00000
0.18874 0.00000 0.00000
0.21142 0.00000 0.00000
0.23409 0.00000 0.00000
0.25677 0.00000 0.00000
0.27945 0.00000 0.00000
0.30212 0.00000 0.00000
0.32480 0.00080 0.00000
0.34748 0.00548 0.00000
0.37016 0.01016 0.00000
0.39283 0.01483 0.00000
0.41551 0.01951 0.00151
0.43819 0.02419 0.00619
0.46086 0.02886 0.01086
0.48354 0.03354 0.01554
0.50622 0.03822 0.02022
0.52890 0.04290 0.02490
0.55157 0.04757 0.02957
0.57425 0.05225 0.03425
0.59693 0.05693 0.03893
0.61960 0.06160 0.04360
0.00000 0.00000 0.00000
0.00000 0.00000 0.00000
0.00000 0.00000 0.00000
0.00000 0.00000 0.00000
0.00038 0.00000 0.00000
0.02305 0.00000 0.00000
0.04573 0.00000 0.00000
0.06841 0.00000 0.00000
0.09109 0.00000 0.00000
0.11376 0.00000 0.00000
0.13644 0.00000 0.00000
0.15912 0.00000 0.00000
0.18180 0.00180 0.00000
0.20447 0.00647 0.00000
0.22715 0.01115 0.00000
0.24983 0.01583 0.00000
0.27250 0.02050 0.00000
0.29518 0.02518 0.00000
0.31786 0.02986 0.00000
0.34054 0.03454 0.00000
0.36321 0.03921 0.00321
0.38589 0.04389 0.00789
0.40857 0.04857 0.01257
0.43124 0.05324 0.01724
0.45392 0.05792 0.02192
0.47660 0.06260 0.02660
0.49928 0.06728 0.03128
0.52195 0.07195 0.03595
0.54463 0.07663 0.04063
0.56731 0.08131 0.04531
0.58998 0.08598 0.04998
0.61266 0.09066 0.05466
0.63534 0.09534 0.05934
0.00000 0.00000 0.00000
0.00000 0.00000 0.00000
0.00000 0.00000 0.00000
0.00000 0.00000 0.00000
0.01611 0.00000 0.00000
0.03879 0.00279 0.00000
0.06147 0.00747 0.00000
0.08414 0.01214 0.00000
0.10682 0.01682 0.00000
0.12950 0.02150 0.00000
0.15218 0.02618 0.00000
0.17485 0.03085 0.00000
0.19753 0.03553 0.00000
0.22021 0.04021 0.00000
0.24288 0.04488 0.00000
0.26556 0.04956 0.00000
0.28824 0.05424 0.00024
0.31092 0.05892 0.00492
0.33359 0.06359 0.00959
0.35627 0.06827 0.01427
0.37895 0.07295 0.01895
0.40162 0.07762 0.02362
0.42430 0.08230 0.02830
0.44698 0.08698 0.03298
0.46966 0.09166 0.03766
0.49233 0.09633 0.04233
0.51501 0.10101 0.04701
0.53769 0.10569 0.05169
0.56036 0.11036 0.05636
0.58304 0.11504 0.06104
0.60572 0.11972 0.06572
0.62840 0.12440 0.07040
0.65107 0.12907 0.07507
0.00000 0.01314 0.00000
0.00000 0.01781 0.00000
0.00000 0.02249 0.00000
0.00917 0.02717 0.00000
0.03185 0.03185 0.00000
0.05452 0.03652 0.00000
0.07720 0.04120 0.00000
0.09988 0.04588 0.00000
0.12256 0.05056 0.00000
0.14523 0.05523 0.00000
0.16791 0.05991 0.00000
0.19059 0.06459 0.00000
0.21326 0.06926 0.00000
0.23594 0.07394 0.00194
0.25862 0.07862 0.00662
0.28130 0.08330 0.01130
0.30397 0.08797 0.01597
0.32665 0.09265 0.02065
0.34933 0.09733 0.02533
0.37200 0.10200 0.03000
0.39468 0.10668 0.03468
0.41736 0.11136 0.03936
0.44004 0.11604 0.04404
0.46271 0.12071 0.04871
0.48539 0.12539 0.05339
0.50807 0.13007 0.05807
0.53074 0.13474 0.06274
0.55342 0.13942 0.06742
0.57610 0.14410 0.07210
0.59878 0.14878 0.07678
0.62145 0.15345 0.08145
0.64413 0.15813 0.08613
0.66681 0.16281 0.09081
0.00000 0.04687 0.00000
0.00000 0.05155 0.00000
0.00223 0.05623 0.00000
0.02490 0.06090 0.00000
0.04758 0.06558 0.00000
0.07026 0.07026 0.00000
0.09294 0.07494 0.00000
0.11561 0.07961 0.00000
0.13829 0.08429 0.00000
0.16097 0.08897 0.00000
0.18364 0.09364 0.00364
0.20632 0.09832 0.00832
0.22900 0.10300 0.01300
0.25168 0.10768 0.01768
0.27435 0.11235 0.02235
0.29703 0.11703 0.02703
0.31971 0.12171 0.03171
0.34238 0.12638 0.03638
0.36506 0.13106 0.04106
0.38774 0.13574 0.04574
0.41042 0.14042 0.05042
0.43309 0.14509 0.05509
0.45577 0.14977 0.05977
0.47845 0.15445 0.06445
0.50112 0.15912 0.06912
0.52380 0.16380 0.07380
0.54648 0.16848 0.07848
0.56916 0.17316 0.08316
0.59183 0.17783 0.08783
0.61451 0.18251 0.09251
0.63719 0.18719 0.09719
0.65987 0.19187 0.10187
0.68254 0.19654 0.10654
0.00000 0.08061 0.00000
0.00000 0.08528 0.00000
0.01796 0.08996 0.00000
0.04064 0.09464 0.00000
0.06332 0.09932 0.00000
0.08599 0.10399 0.00000
0.10867 0.10867 0.00067
0.13135 0.11335 0.00535
0.15402 0.11802 0.01002
0.17670 0.12270 0.01470
0.19938 0.12738 0.01938
0.22206 0.13206 0.02406
0.24473 0.13673 0.02873
0.26741 0.14141 0.03341
0.29009 0.14609 0.03809
0.31276 0.15076 0.04276
0.33544 0.15544 0.04744
0.35812 0.16012 0.05212
0.38080 0.16480 0.05680
0.40347 0.16947 0.06147
0.42615 0.17415 0.06615
0.44883 0.17883 0.07083
0.47150 0.18350 0.07550
0.49418 0.18818 0.08018
0.51686 0.19286 0.08486
0.53954 0.19754 0.08954
0.56221 0.20221 0.09421
0.58489 0.20689 0.09889
0.60757 0.21157 0.10357
0.63025 0.21625 0.10825
0.65292 0.22092 0.11292
0.67560 0.22560 0.11760
0.69828 0.23028 0.12228
0.00000 0.11434 0.00000
0.01102 0.11902 0.00000
0.03370 0.12370 0.00000
0.05637 0.12837 0.00237
0.07905 0.13305 0.00705
0.10173 0.13773 0.01173
0.12440 0.14240 0.01640
0.14708 0.14708 0.02108
0.16976 0.15176 0.02576
0.19244 0.15644 0.03044
0.21511 0.16111 0.03511
0.23779 0.16579 0.03979
0.26047 0.17047 0.04447
0.28314 0.17514 0.04914
0.30582 0.17982 0.05382
0.32850 0.18450 0.05850
0.35118 0.18918 0.06318
0.37385 0.19385 0.06785
0.39653 0.19853 0.07253
0.41921 0.20321 0.07721
0.44188 0.20788 0.08188
0.46456 0.21256 0.08656
0.48724 0.21724 0.09124
0.50992 0.22192 0.09592
0.53259 0.22659 0.10059
0.55527 0.23127 0.10527
0.57795 0.23595 0.10995
0.60063 0.24063 0.11463
0.62330 0.24530 0.11930
0.64598 0.24998 0.12398
0.66866 0.25466 0.12866
0.69133 0.25933 0.13333
0.71401 0.26401 0.13801
0.00408 0.14808 0.00408
0.02675 0.15275 0.00875
0.04943 0.15743 0.01343
0.07211 0.16211 0.01811
0.09478 0.16678 0.02278
0.11746 0.17146 0.02746
0.14014 0.17614 0.03214
0.16282 0.18082 0.03682
0.18549 0.18549 0.04149
0.20817 0.19017 0.04617
0.23085 0.19485 0.05085
0.25352 0.19952 0.05552
0.27620 0.20420 0.06020
0.29888 0.20888 0.06488
0.32156 0.21356 0.06956
0.34423 0.21823 0.07423
0.36691 0.22291 0.07891
0.38959 0.22759 0.08359
0.41226 0.23226 0.08826
0.43494 0.23694 0.09294
0.45762 0.24162 0.09762
0.48030 0.24630 0.10230
0.50297 0.25097 0.10697
0.52565 0.25565 0.11165
0.54833 0.26033 0.11633
0.57101 0.26501 0.12101
0.59368 0.26968 0.12568
0.61636 0.27436 0.13036
0.63904 0.27904 0.13504
0.66171 0.28371 0.13971
0.68439 0.28839 0.14439
0.70707 0.29307 0.14907
0.72975 0.29775 0.15375
0.01981 0.18181 0.01981
0.04249 0.18649 0.02449
0.06516 0.19116 0.02916
0.08784 0.19584 0.03384
0.11052 0.20052 0.03852
0.13320 0.20520 0.04320
0.15587 0.20987 0.04787
0.17855 0.21455 0.05255
0.20123 0.21923 0.05723
0.22390 0.22390 0.06190
0.24658 0.22858 0.06658
0.26926 0.23326 0.07126
0.29194 0.23794 0.07594
0.31461 0.24261 0.08061
0.33729 0.24729 0.08529
0.35997 0.25197 0.08997
0.38264 0.25664 0.09464
0.40532 0.26132 0.09932
0.42800 0.26600 0.10400
0.45068 0.27068 0.10868
0.47335 0.27535 0.11335
0.49603 0.28003 0.11803
0.51871 0.28471 0.12271
0.54139 0.28939 0.12739
0.56406 0.29406 0.13206
0.58674 0.29874 0.13674
0.60942 0.30342 0.14142
0.63209 0.30809 0.14609
0.65477 0.31277 0.15077
0.67745 0.31745 0.15545
0.70013 0.32213 0.16013
0.72280 0.32680 0.16480
0.74548 0.33148 0.16948
0.03554 0.21554 0.03554
0.05822 0.22022 0.04022
0.08090 0.22490 0.04490
0.10358 0.22958 0.04958
0.12625 0.23425 0.05425
0.14893 0.23893 0.05893
0.17161 0.24361 0.06361
0.19428 0.24828 0.06828
0.21696 0.25296 0.07296
0.23964 0.25764 0.07764
0.26232 0.26232 0.08232
0.28499 0.26699 0.08699
0.30767 0.27167 0.09167
0.33035 0.27635 0.09635
0.35302 0.28102 0.10102
0.37570 0.28570 0.10570
0.39838 0.29038 0.11038
0.42106 0.29506 0.11506
0.44373 0.29973 0.11973
0.46641 0.30441 0.12441
0.48909 0.30909 0.12909
0.51177 0.31377 0.13377
0.53444 0.31844 0.13844
0.55712 0.32312 0.14312
0.57980 0.32780 0.14780
0.60247 0.33247 0.15247
0.62515 0.33715 0.15715
0.64783 0.34183 0.16183
0.67051 0.34651 0.16651
0.69318 0.35118 0.17118
0.71586 0.35586 0.17586
0.73854 0.36054 0.18054
0.76121 0.36521 0.18521
0.05128 0.24928 0.05128
0.07396 0.25396 0.05596
0.09663 0.25863 0.06063
0.11931 0.26331 0.06531
0.14199 0.26799 0.06999
0.16466 0.27266 0.07466
0.18734 0.27734 0.07934
0.21002 0.28202 0.08402
0.23270 0.28670 0.08870
0.25537 0.29137 0.09337
0.27805 0.29605 0.09805
0.30073 0.30073 0.10273
0.32340 0.30540 0.10740
0.34608 0.31008 0.11208
0.36876 0.31476 0.11676
0.39144 0.31944 0.12144
0.41411 0.32411 0.12611
0.43679 0.32879 0.13079
0.45947 0.33347 0.13547
0.48215 0.33815 0.14015
0.50482 0.34282 0.14482
0.52750 0.34750 0.14950
0.55018 0.35218 0.15418
0.57285 0.35685 0.15885
0.59553 0.36153 0.16353
0.61821 0.36621 0.16821
0.64089 0.37089 0.17289
0.66356 0.37556 0.17756
0.68624 0.38024 0.18224
0.70892 0.38492 0.18692
0.73159 0.38959 0.19159
0.75427 0.39427 0.19627
0.77695 0.39895 0.20095
0.06701 0.28301 0.06701
0.08969 0.28769 0.07169
0.11237 0.29237 0.07637
0.13504 0.29704 0.08104
0.15772 0.30172 0.08572
0.18040 0.30640 0.09040
0.20308 0.31108 0.09508
0.22575 0.31575 0.09975
0.24843 0.32043 0.10443
0.27111 0.32511 0.10911
0.29378 0.32978 0.11378
0.31646 0.33446 0.11846
0.33914 0.33914 0.12314
0.36182 0.34382 0.12782
0.38449 0.34849 0.13249
0.40717 0.35317 0.13717
0.42985 0.35785 0.14185
0.45253 0.36253 0.14653
0.47520 0.36720 0.15120
0.49788 0.37188 0.15588
0.52056 0.37656 0.16056
0.54323 0.38123 0.16523
0.56591 0.38591 0.16991
0.58859 0.39059 0.17459
0.61127 0.39527 0.17927
0.63394 0.39994 0.18394
0.65662 0.40462 0.18862
0.67930 0.40930 0.19330
0.70197 0.41397 0.19797
0.72465 0.41865 0.20265
0.74733 0.42333 0.20733
0.77001 0.42801 0.21201
0.79268 0.43268 0.21668
0.08275 0.31675 0.08275
0.10542 0.32142 0.08742
0.12810 0.32610 0.09210
0.15078 0.33078 0.09678
0.17346 0.33546 0.10146
0.19613 0.34013 0.10613
0.21881 0.34481 0.11081
0.24149 0.34949 0.11549
0.26416 0.35416 0.12016
0.28684 0.35884 0.12484
0.30952 0.36352 0.12952
0.33220 0.36820 0.13420
0.35487 0.37287 0.13887
0.37755 0.37755 0.14355
0.40023 0.38223 0.14823
0.42291 0.38691 0.15291
0.44558 0.39158 0.15758
0.46826 0.39626 0.16226
0.49094 0.40094 0.16694
0.51361 0.40561 0.17161
0.53629 0.41029 0.17629
0.55897 0.41497 0.18097
0.58165 0.41965 0.18565
0.60432 0.42432 0.19032
0.62700 0.42900 0.19500
0.64968 0.43368 0.19968
0.67235 0.43835 0.20435
0.69503 0.44303 0.20903
0.71771 0.44771 0.21371
0.74039 0.45239 0.21839
0.76306 0.45706 0.22306
0.78574 0.46174 0.22774
0.80842 0.46642 0.23242
0.09848 0.35048 0.09848
0.12116 0.35516 0.10316
0.14384 0.35984 0.10784
0.16651 0.36451 0.11251
0.18919 0.36919 0.11719
0.21187 0.37387 0.12187
0.23454 0.37854 0.12654
0.25722 0.38322 0.13122
0.27990 0.38790 0.13590
0.30258 0.39258 0.14058
0.32525 0.39725 0.14525
0.34793 0.40193 0.14993
0.37061 0.40661 0.15461
0.39329 0.41129 0.15929
0.41596 0.41596 0.16396
0.43864 0.42064 0.16864
0.46132 0.42532 0.17332
0.48399 0.42999 0.17799
0.50667 0.43467 0.18267
0.52935 0.43935 0.18735
0.55203 0.44403 0.19203
0.57470 0.44870 0.19670
0.59738 0.45338 0.20138
0.62006 0.45806 0.20606
0.64273 0.46273 0.21073
0.66541 0.46741 0.21541
0.68809 0.47209 0.22009
0.71077 0.47677 0.22477
0.73344 0.48144 0.22944
0.75612 0.48612 0.23412
0.77880 0.49080 0.23880
0.80147 0.49547 0.24347
0.82415 0.50015 0.24815
0.11422 0.38422 0.11422
0.13689 0.38889 0.11889
0.15957 0.39357 0.12357
0.18225 0.39825 0.12825
0.20492 0.40292 0.13292
0.22760 0.40760 0.13760
0.25028 0.41228 0.14228
0.27296 0.41696 0.14696
0.29563 0.42163 0.15163
0.31831 0.42631 0.15631
0.34099 0.43099 0.16099
0.36367 0.43567 0.16567
0.38634 0.44034 0.17034
0.40902 0.44502 0.17502
0.43170 0.44970 0.17970
0.45437 0.45437 0.18437
0.47705 0.45905 0.18905
0.49973 0.46373 0.19373
0.52241 0.46841 0.19841
0.54508 0.47308 0.20308
0.56776 0.47776 0.20776
0.59044 0.48244 0.21244
0.61311 0.48711 0.21711
0.63579 0.49179 0.22179
0.65847 0.49647 0.22647
0.68115 0.50115 0.23115
0.70382 0.50582 0.23582
0.72650 0.51050 0.24050
0.74918 0.51518 0.24518
0.77185 0.51985 0.24985
0.79453 0.52453 0.25453
0.81721 0.52921 0.25921
0.83989 0.53389 0.26389
0.12995 0.41795 0.12995
0.15263 0.42263 0.13463
0.17530 0.42730 0.13930
0.19798 0.43198 0.14398
0.22066 0.43666 0.14866
0.24334 0.44134 0.15334
0.26601 0.44601 0.15801
0.28869 0.45069 0.16269
0.31137 0.45537 0.16737
0.33405 0.46005 0.17205
0.35672 0.46472 0.17672
0.37940 0.46940 0.18140
0.40208 0.47408 0.18608
0.42475 0.47875 0.19075
0.44743 0.48343 0.19543
0.47011 0.48811 0.20011
0.49279 0.49279 0.20479
0.51546 0.49746 0.20946
0.53814 0.50214 0.21414
0.56082 0.50682 0.21882
0.58349 0.51149 0.22349
0.60617 0.51617 0.22817
0.62885 0.52085 0.23285
0.65153 0.52553 0.23753
0.67420 0.53020 0.24220
0.69688 0.53488 0.24688
0.71956 0.53956 0.25156
0.74223 0.54423 0.25623
0.76491 0.54891 0.26091
0.78759 0.55359 0.26559
0.81027 0.55827 0.27027
0.83294 0.56294 0.27494
0.85562 0.56762 0.27962
0.14568 0.45168 0.14568
0.16836 0.45636 0.15036
0.19104 0.46104 0.15504
0.21372 0.46572 0.15972
0.23639 0.47039 0.16439
0.25907 0.47507 0.16907
0.28175 0.47975 0.17375
0.30443 0.48443 0.17843
0.32710 0.48910 0.18310
0.34978 0.49378 0.18778
0.37246 0.49846 0.19246
0.39513 0.50313 0.19713
0.41781 0.50781 0.20181
0.44049 0.51249 0.20649
0.46317 0.51717 0.21117
0.48584 0.52184 0.21584
0.50852 0.52652 0.22052
0.53120 0.53120 0.22520
0.55387 0.53587 0.22987
0.57655 0.54055 0.23455
0.59923 0.54523 0.23923
0.62191 0.54991 0.24391
0.64458 0.55458 0.24858
0.66726 0.55926 0.25326
0.68994 0.56394 0.25794
0.71261 0.56861 0.26261
0.73529 0.57329 0.26729
0.75797 0.57797 0.27197
0.78065 0.58265 0.27665
0.80332 0.58732 0.28132
0.82600 0.59200 0.28600
0.84868 0.59668 0.29068
0.87136 0.60136 0.29536
0.16142 0.48542 0.16142
0.18410 0.49010 0.16610
0.20677 0.49477 0.17077
0.22945 0.49945 0.17545
0.25213 0.50413 0.18013
0.27481 0.50881 0.18481
0.29748 0.51348 0.18948
0.32016 0.51816 0.19416
0.34284 0.52284 0.19884
0.36551 0.52751 0.20351
0.38819 0.53219 0.20819
0.41087 0.53687 0.21287
0.43355 0.54155 0.21755
0.45622 0.54622 0.22222
0.47890 0.55090 0.22690
0.50158 0.55558 0.23158
0.52425 0.56025 0.23625
0.54693 0.56493 0.24093
0.56961 0.56961 0.24561
0.59229 0.57429 0.25029
0.61496 0.57896 0.25496
0.63764 0.58364 0.25964
0.66032 0.58832 0.26432
0.68299 0.59299 0.26899
0.70567 0.59767 0.27367
0.72835 0.60235 0.27835
0.75103 0.60703 0.28303
0.77370 0.61170 0.28770
0.79638 0.61638 0.29238
0.81906 0.62106 0.29706
0.84174 0.62574 0.30174
0.86441 0.63041 0.30641
0.88709 0.63509 0.31109
0.17715 0.51915 0.17715
0.19983 0.52383 0.18183
0.22251 0.52851 0.18651
0.24519 0.53319 0.19119
0.26786 0.53786 0.19586
0.29054 0.54254 0.20054
0.31322 0.54722 0.20522
0.33589 0.55189 0.20989
0.35857 0.55657 0.21457
0.38125 0.56125 0.21925
0.40393 0.56593 0.22393
0.42660 0.57060 0.22860
0.44928 0.57528 0.23328
0.47196 0.57996 0.23796
0.49463 0.58463 0.24263
0.51731 0.58931 0.24731
0.53999 0.59399 0.25199
0.56267 0.59867 0.25667
0.58534 0.60334 0.26134
0.60802 0.60802 0.26602
0.63070 0.61270 0.27070
0.65337 0.61737 0.27537
0.67605 0.62205 0.28005
0.69873 0.62673 0.28473
0.72141 0.63141 0.28941
0.74408 0.63608 0.29408
0.76676 0.64076 0.29876
0.78944 0.64544 0.30344
0.81212 0.65012 0.30812
0.83479 0.65479 0.31279
0.85747 0.65947 0.31747
0.88015 0.66415 0.32215
0.90282 0.66882 0.32682
0.19289 0.55289 0.19289
0.21557 0.55757 0.19757
0.23824 0.56224 0.20224
0.26092 0.56692 0.20692
0.28360 0.57160 0.21160
0.30627 0.57627 0.21627
0.32895 0.58095 0.22095
0.35163 0.58563 0.22563
0.37431 0.59031 0.23031
0.39698 0.59498 0.23498
0.41966 0.59966 0.23966
0.44234 0.60434 0.24434
0.46501 0.60901 0.24901
0.48769 0.61369 0.25369
0.51037 0.61837 0.25837
0.53305 0.62305 0.26305
0.55572 0.62772 0.26772
0.57840 0.63240 0.27240
0.60108 0.63708 0.27708
0.62375 0.64175 0.28175
0.64643 0.64643 0.28643
0.66911 0.65111 0.29111
0.69179 0.65579 0.29579
0.71446 0.66046 0.30046
0.73714 0.66514 0.30514
0.75982 0.66982 0.30982
0.78250 0.67450 0.31450
0.80517 0.67917 0.31917
0.82785 0.68385 0.32385
0.85053 0.68853 0.32853
0.87320 0.69320 0.33320
0.89588 0.69788 0.33788
0.91856 0.70256 0.34256
0.20862 0.58662 0.20862
0.23130 0.59130 0.21330
0.25398 0.59598 0.21798
0.27665 0.60065 0.22265
0.29933 0.60533 0.22733
0.32201 0.61001 0.23201
0.34469 0.61469 0.23669
0.36736 0.61936 0.24136
0.39004 0.62404 0.24604
0.41272 0.62872 0.25072
0.43539 0.63339 0.25539
0.45807 0.63807 0.26007
0.48075 0.64275 0.26475
0.50343 0.64743 0.26943
0.52610 0.65210 0.27410
0.54878 0.65678 0.27878
0.57146 0.66146 0.28346
0.59413 0.66613 0.28813
0.61681 0.67081 0.29281
0.63949 0.67549 0.29749
0.66217 0.68017 0.30217
0.68484 0.68484 0.30684
0.70752 0.68952 0.31152
0.73020 0.69420 0.31620
0.75288 0.69888 0.32088
0.77555 0.70355 0.32555
0.79823 0.70823 0.33023
0.82091 0.71291 0.33491
0.84358 0.71758 0.33958
0.86626 0.72226 0.34426
0.88894 0.72694 0.34894
0.91162 0.73162 0.35362
0.93429 0.73629 0.35829
0.22436 0.62036 0.22436
0.24703 0.62503 0.22903
0.26971 0.62971 0.23371
0.29239 0.63439 0.23839
0.31507 0.63907 0.24307
0.33774 0.64374 0.24774
0.36042 0.64842 0.25242
0.38310 0.65310 0.25710
0.40577 0.65777 0.26177
0.42845 0.66245 0.26645
0.45113 0.66713 0.27113
0.47381 0.67181 0.27581
0.49648 0.67648 0.28048
0.51916 0.68116 0.28516
0.54184 0.68584 0.28984
0.56451 0.69051 0.29451
0.58719 0.69519 0.29919
0.60987 0.69987 0.30387
0.63255 0.70455 0.30855
0.65522 0.70922 0.31322
0.67790 0.71390 0.31790
0.70058 0.71858 0.32258
0.72326 0.72326 0.32726
0.74593 0.72793 0.33193
0.76861 0.73261 0.33661
0.79129 0.73729 0.34129
0.81396 0.74196 0.34596
0.83664 0.74664 0.35064
0.85932 0.75132 0.35532
0.88200 0.75600 0.36000
0.90467 0.76067 0.36467
0.92735 0.76535 0.36935
0.95003 0.77003 0.37403
0.24009 0.65409 0.24009
0.26277 0.65877 0.24477
0.28545 0.66345 0.24945
0.30812 0.66812 0.25412
0.33080 0.67280 0.25880
0.35348 0.67748 0.26348
0.37615 0.68215 0.26815
0.39883 0.68683 0.27283
0.42151 0.69151 0.27751
0.44419 0.69619 0.28219
0.46686 0.70086 0.28686
0.48954 0.70554 0.29154
0.51222 0.71022 0.29622
0.53489 0.71489 0.30089
0.55757 0.71957 0.30557
0.58025 0.72425 0.31025
0.60293 0.72893 0.31493
0.62560 0.73360 0.31960
0.64828 0.73828 0.32428
0.67096 0.74296 0.32896
0.69364 0.74764 0.33364
0.71631 0.75231 0.33831
0.73899 0.75699 0.34299
0.76167 0.76167 0.34767
0.78434 0.76634 0.35234
0.80702 0.77102 0.35702
0.82970 0.77570 0.36170
0.85238 0.78038 0.36638
0.87505 0.78505 0.37105
0.89773 0.78973 0.37573
0.92041 0.79441 0.38041
0.94308 0.79908 0.38508
0.96576 0.80376 0.38976
0.25583 0.68783 0.25583
0.27850 0.69250 0.26050
0.30118 0.69718 0.26518
0.32386 0.70186 0.26986
0.34653 0.70653 0.27453
0.36921 0.71121 0.27921
0.39189 0.71589 0.28389
0.41457 0.72057 0.28857
0.43724 0.72524 0.29324
0.45992 0.72992 0.29792
0.48260 0.73460 0.30260
0.50527 0.73927 0.30727
0.52795 0.74395 0.31195
0.55063 0.74863 0.31663
0.57331 0.75331 0.32131
0.59598 0.75798 0.32598
0.61866 0.76266 0.33066
0.64134 0.76734 0.33534
0.66402 0.77202 0.34002
0.68669 0.77669 0.34469
0.70937 0.78137 0.34937
0.73205 0.78605 0.35405
0.75472 0.79072 0.35872
0.77740 0.79540 0.36340
0.80008 0.80008 0.36808
0.82276 0.80476 0.37276
0.84543 0.80943 0.37743
0.86811 0.81411 0.38211
0.89079 0.81879 0.38679
0.91346 0.82346 0.39146
0.93614 0.82814 0.39614
0.95882 0.83282 0.40082
0.98150 0.83750 0.40550
0.27156 0.72156 0.27156
0.29424 0.72624 0.27624
0.31691 0.73091 0.28091
0.33959 0.73559 0.28559
0.36227 0.74027 0.29027
0.38495 0.74495 0.29495
0.40762 0.74962 0.29962
0.43030 0.75430 0.30430
0.45298 0.75898 0.30898
0.47565 0.76365 0.31365
0.49833 0.76833 0.31833
0.52101 0.77301 0.32301
0.54369 0.77769 0.32769
0.56636 0.78236 0.33236
0.58904 0.78704 0.33704
0.61172 0.79172 0.34172
0.63440 0.79640 0.34640
0.65707 0.80107 0.35107
0.67975 0.80575 0.35575
0.70243 0.81043 0.36043
0.72510 0.81510 0.36510
0.74778 0.81978 0.36978
0.77046 0.82446 0.37446
0.79314 0.82914 0.37914
0.81581 0.83381 0.38381
0.83849 0.83849 0.38849
0.86117 0.84317 0.39317
0.88384 0.84784 0.39784
0.90652 0.85252 0.40252
0.92920 0.85720 0.40720
0.95188 0.86188 0.41188
0.97455 0.86655 0.41655
0.99723 0.87123 0.42123
0.28729 0.75529 0.28729
0.30997 0.75997 0.29197
0.33265 0.76465 0.29665
0.35533 0.76933 0.30133
0.37800 0.77400 0.30600
0.40068 0.77868 0.31068
0.42336 0.78336 0.31536
0.44603 0.78803 0.32003
0.46871 0.79271 0.32471
0.49139 0.79739 0.32939
0.51407 0.80207 0.33407
0.53674 0.80674 0.33874
0.55942 0.81142 0.34342
0.58210 0.81610 0.34810
0.60478 0.82078 0.35278
0.62745 0.82545 0.35745
0.65013 0.83013 0.36213
0.67281 0.83481 0.36681
0.69548 0.83948 0.37148
0.71816 0.84416 0.37616
0.74084 0.84884 0.38084
0.76352 0.85352 0.38552
0.78619 0.85819 0.39019
0.80887 0.86287 0.39487
0.83155 0.86755 0.39955
0.85422 0.87222 0.40422
0.87690 0.87690 0.40890
0.89958 0.88158 0.41358
0.92226 0.88626 0.41826
0.94493 0.89093 0.42293
0.96761 0.89561 0.42761
0.99029 0.90029 0.43229
1.00000 0.90496 0.43696
0.30303 0.78903 0.30303
0.32571 0.79371 0.30771
0.34838 0.79838 0.31238
0.37106 0.80306 0.31706
0.39374 0.80774 0.32174
0.41641 0.81241 0.32641
0.43909 0.81709 0.33109
0.46177 0.82177 0.33577
0.48445 0.82645 0.34045
