boundlessjs/public/luts/film_warm.cube
TITLE "film_warm"
LUT_3D_SIZE 33
0.00000 0.00000 0.00000
0.02814 0.00000 0.00000
0.06199 0.00000 0.00000
0.09584 0.00000 0.00000
0.12968 0.00000 0.00000
0.16353 0.00000 0.00000
0.19738 0.00000 0.00000
0.23122 0.00000 0.00000
0.26507 0.00000 0.00000
0.29892 0.00000 0.00000
0.33277 0.00000 0.00000
0.36661 0.00000 0.00000
0.40046 0.00000 0.00000
0.43431 0.00000 0.00000
0.46816 0.00000 0.00000
0.50200 0.00000 0.00000
0.53585 0.00000 0.00000
0.56970 0.00000 0.00000
0.60354 0.00000 0.00000
0.63739 0.00000 0.00000
0.67124 0.00000 0.00000
0.70509 0.00000 0.00000
0.73893 0.00000 0.00000
0.77278 0.00000 0.00000
0.80663 0.00000 0.00000
0.84047 0.00000 0.00000
0.87432 0.00000 0.00000
0.90817 0.00000 0.00000
0.94202 0.00000 0.00000
0.97586 0.00000 0.00000
1.00000 0.00000 0.00000
1.00000 0.00000 0.00000
1.00000 0.00000 0.00000
0.00000 0.02127 0.00000
0.02677 0.02086 0.00000
0.06062 0.02044 0.00000
0.09446 0.02003 0.00000
0.12831 0.01962 0.00000
0.16216 0.01921 0.00000
0.19600 0.01879 0.00000
0.22985 0.01838 0.00000
0.26370 0.01797 0.00000
0.29755 0.01756 0.00000
0.33139 0.01714 0.00000
0.36524 0.01673 0.00000
0.39909 0.01632 0.00000
0.43293 0.01591 0.00000
0.46678 0.01550 0.00000
0.50063 0.01508 0.00000
0.53448 0.01467 0.00000
0.56832 0.01426 0.00000
0.60217 0.01385 0.00000
0.63602 0.01343 0.00000
0.66987 0.01302 0.00000
0.70371 0.01261 0.00000
0.73756 0.01220 0.00000
0.77141 0.01178 0.00000
0.80525 0.01137 0.00000
0.83910 0.01096 0.00000
0.87295 0.01055 0.00000
0.90680 0.01014 0.00000
0.94064 0.00972 0.00000
0.97449 0.00931 0.00000
1.00000 0.00890 0.00000
1.00000 0.00849 0.00000
1.00000 0.00807 0.00000
0.00000 0.05381 0.00000
0.02540 0.05339 0.00000
0.05924 0.05298 0.00000
0.09309 0.05257 0.00000
0.12694 0.05216 0.00000
0.16078 0.05174 0.00000
0.19463 0.05133 0.00000
0.22848 0.05092 0.00000
0.26233 0.05051 0.00000
0.29617 0.05010 0.00000
0.33002 0.04968 0.00000
0.36387 0.04927 0.00000
0.39771 0.04886 0.00000
0.43156 0.04845 0.00000
0.46541 0.04803 0.00000
0.49926 0.04762 0.00000
0.53310 0.04721 0.00000
0.56695 0.04680 0.00000
0.60080 0.04639 0.00000
0.63465 0.04597 0.00000
0.66849 0.04556 0.00000
0.70234 0.04515 0.00000
0.73619 0.04474 0.00000
0.77003 0.04432 0.00000
0.80388 0.04391 0.00000
0.83773 0.04350 0.00000
0.87158 0.04309 0.00000
0.90542 0.04267 0.00000
0.93927 0.04226 0.00000
0.97312 0.04185 0.00000
1.00000 0.04144 0.00000
1.00000 0.04103 0.00000
1.00000 0.04061 0.00000
0.00000 0.08635 0.00000
0.02402 0.08593 0.00000
0.05787 0.08552 0.00000
0.09172 0.08511 0.00000
0.12556 0.08470 0.00000
0.15941 0.08428 0.00000
0.19326 0.08387 0.00000
0.22711 0.08346 0.00000
0.26095 0.08305 0.00000
0.29480 0.08263 0.00000
0.32865 0.08222 0.00000
0.36249 0.08181 0.00000
0.39634 0.08140 0.00000
0.43019 0.08099 0.00000
0.46404 0.08057 0.00000
0.49788 0.08016 0.00000
0.53173 0.07975 0.00000
0.56558 0.07934 0.00000
0.59943 0.07892 0.00000
0.63327 0.07851 0.00000
0.66712 0.07810 0.00000
0.70097 0.07769 0.00000
0.73481 0.07728 0.00000
0.76866 0.07686 0.00000
0.80251 0.07645 0.00000
0.83636 0.07604 0.00000
0.87020 0.07563 0.00000
0.90405 0.07521 0.00000
0.93790 0.07480 0.00000
0.97175 0.07439 0.00000
1.00000 0.07398 0.00000
1.00000 0.07356 0.00000
1.00000 0.07315 0.00000
0.00000 0.11888 0.00000
0.02265 0.11847 0.00000
0.05650 0.11806 0.00000
0.09034 0.11765 0.00000
0.12419 0.11723 0.00000
0.15804 0.11682 0.00000
0.19189 0.11641 0.00000
0.22573 0.11600 0.00000
0.25958 0.11559 0.00000
0.29343 0.11517 0.00000
0.32727 0.11476 0.00000
0.36112 0.11435 0.00000
0.39497 0.11394 0.00000
0.42882 0.11352 0.00000
0.46266 0.11311 0.00000
0.49651 0.11270 0.00000
0.53036 0.11229 0.00000
0.56421 0.11188 0.00000
0.59805 0.11146 0.00000
0.63190 0.11105 0.00000
0.66575 0.11064 0.00000
0.69959 0.11023 0.00000
0.73344 0.10981 0.00000
0.76729 0.10940 0.00000
0.80114 0.10899 0.00000
0.83498 0.10858 0.00000
0.86883 0.10816 0.00000
0.90268 0.10775 0.00000
0.93653 0.10734 0.00000
0.97037 0.10693 0.00000
1.00000 0.10652 0.00000
1.00000 0.10610 0.00000
1.00000 0.10569 0.00000
0.00000 0.15142 0.00000
0.02128 0.15101 0.00000
0.05512 0.15060 0.00000
0.08897 0.15019 0.00000
0.12282 0.14977 0.00000
0.15667 0.14936 0.00000
0.19051 0.14895 0.00000
0.22436 0.14854 0.00000
0.25821 0.14812 0.00000
0.29205 0.14771 0.00000
0.32590 0.14730 0.00000
0.35975 0.14689 0.00000
0.39360 0.14648 0.00000
0.42744 0.14606 0.00000
0.46129 0.14565 0.00000
0.49514 0.14524 0.00000
0.52899 0.14483 0.00000
0.56283 0.14441 0.00000
0.59668 0.14400 0.00000
0.63053 0.14359 0.00000
0.66437 0.14318 0.00000
0.69822 0.14277 0.00000
0.73207 0.14235 0.00000
0.76592 0.14194 0.00000
0.79976 0.14153 0.00000
0.83361 0.14112 0.00000
0.86746 0.14070 0.00000
0.90131 0.14029 0.00000
0.93515 0.13988 0.00000
0.96900 0.13947 0.00000
1.00000 0.13905 0.00000
1.00000 0.13864 0.00000
1.00000 0.13823 0.00000
0.00000 0.18396 0.00000
0.01990 0.18355 0.00000
0.05375 0.18314 0.00000
0.08760 0.18272 0.00000
0.12145 0.18231 0.00000
0.15529 0.18190 0.00000
0.18914 0.18149 0.00000
0.22299 0.18108 0.00000
0.25683 0.18066 0.00000
0.29068 0.18025 0.00000
0.32453 0.17984 0.00000
0.35838 0.17943 0.00000
0.39222 0.17901 0.00000
0.42607 0.17860 0.00000
0.45992 0.17819 0.00000
0.49377 0.17778 0.00000
0.52761 0.17737 0.00000
0.56146 0.17695 0.00000
0.59531 0.17654 0.00000
0.62915 0.17613 0.00000
0.66300 0.17572 0.00000
0.69685 0.17530 0.00000
0.73070 0.17489 0.00000
0.76454 0.17448 0.00000
0.79839 0.17407 0.00000
0.83224 0.17365 0.00000
0.86609 0.17324 0.00000
0.89993 0.17283 0.00000
0.93378 0.17242 0.00000
0.96763 0.17201 0.00000
1.00000 0.17159 0.00000
1.00000 0.17118 0.00000
1.00000 0.17077 0.00000
0.00000 0.21650 0.00000
0.01853 0.21609 0.00000
0.05238 0.21568 0.00000
0.08623 0.21526 0.00000
0.12007 0.21485 0.00000
0.15392 0.21444 0.00000
0.18777 0.21403 0.00000
0.22161 0.21361 0.00000
0.25546 0.21320 0.00000
0.28931 0.21279 0.00000
0.32316 0.21238 0.00000
0.35700 0.21197 0.00000
0.39085 0.21155 0.00000
0.42470 0.21114 0.00000
0.45855 0.21073 0.00000
0.49239 0.21032 0.00000
0.52624 0.20990 0.00000
0.56009 0.20949 0.00000
0.59393 0.20908 0.00000
0.62778 0.20867 0.00000
0.66163 0.20826 0.00000
0.69548 0.20784 0.00000
0.72932 0.20743 0.00000
0.76317 0.20702 0.00000
0.79702 0.20661 0.00000
0.83086 0.20619 0.00000
0.86471 0.20578 0.00000
0.89856 0.20537 0.00000
0.93241 0.20496 0.00000
0.96625 0.20454 0.00000
1.00000 0.20413 0.00000
1.00000 0.20372 0.00000
1.00000 0.20331 0.00000
0.00000 0.24904 0.00000
0.01716 0.24863 0.00000
0.05101 0.24821 0.00000
0.08485 0.24780 0.00000
0.11870 0.24739 0.00000
0.15255 0.24698 0.00000
0.18639 0.24657 0.00000
0.22024 0.24615 0.00000
0.25409 0.24574 0.00000
0.28794 0.24533 0.00000
0.32178 0.24492 0.00000
0.35563 0.24450 0.00000
0.38948 0.24409 0.00000
0.42333 0.24368 0.00000
0.45717 0.24327 0.00000
0.49102 0.24286 0.00000
0.52487 0.24244 0.00000
0.55871 0.24203 0.00000
0.59256 0.24162 0.00000
0.62641 0.24121 0.00000
0.66026 0.24079 0.00000
0.69410 0.24038 0.00000
0.72795 0.23997 0.00000
0.76180 0.23956 0.00000
0.79564 0.23914 0.00000
0.82949 0.23873 0.00000
0.86334 0.23832 0.00000
0.89719 0.23791 0.00000
0.93103 0.23750 0.00000
0.96488 0.23708 0.00000
0.99873 0.23667 0.00000
1.00000 0.23626 0.00000
1.00000 0.23585 0.00000
0.00000 0.28158 0.00000
0.01579 0.28117 0.00000
0.04963 0.28075 0.00000
0.08348 0.28034 0.00000
0.11733 0.27993 0.00000
0.15117 0.27952 0.00000
0.18502 0.27910 0.00000
0.21887 0.27869 0.00000
0.25272 0.27828 0.00000
0.28656 0.27787 0.00000
0.32041 0.27746 0.00000
0.35426 0.27704 0.00000
0.38810 0.27663 0.00000
0.42195 0.27622 0.00000
0.45580 0.27581 0.00000
0.48965 0.27539 0.00000
0.52349 0.27498 0.00000
0.55734 0.27457 0.00000
0.59119 0.27416 0.00000
0.62504 0.27375 0.00000
0.65888 0.27333 0.00000
0.69273 0.27292 0.00000
0.72658 0.27251 0.00000
0.76042 0.27210 0.00000
0.79427 0.27168 0.00000
0.82812 0.27127 0.00000
0.86197 0.27086 0.00000
0.89581 0.27045 0.00000
0.92966 0.27003 0.00000
0.96351 0.26962 0.00000
0.99736 0.26921 0.00000
1.00000 0.26880 0.00000
1.00000 0.26839 0.00000
0.00000 0.31412 0.00000
0.01441 0.31370 0.00000
0.04826 0.31329 0.00000
0.08211 0.31288 0.00000
0.11595 0.31247 0.00000
0.14980 0.31206 0.00000
0.18365 0.31164 0.00000
0.21750 0.31123 0.00000
0.25134 0.31082 0.00000
0.28519 0.31041 0.00000
0.31904 0.30999 0.00000
0.35288 0.30958 0.00000
0.38673 0.30917 0.00000
0.42058 0.30876 0.00000
0.45443 0.30835 0.00000
0.48827 0.30793 0.00000
0.52212 0.30752 0.00000
0.55597 0.30711 0.00000
0.58982 0.30670 0.00000
0.62366 0.30628 0.00000
0.65751 0.30587 0.00000
0.69136 0.30546 0.00000
0.72520 0.30505 0.00000
0.75905 0.30463 0.00000
0.79290 0.30422 0.00000
0.82675 0.30381 0.00000
0.86059 0.30340 0.00000
0.89444 0.30299 0.00000
0.92829 0.30257 0.00000
0.96214 0.30216 0.00000
0.99598 0.30175 0.00000
1.00000 0.30134 0.00000
1.00000 0.30092 0.00000
0.00000 0.34666 0.00000
0.01304 0.34624 0.00000
0.04689 0.34583 0.00000
0.08073 0.34542 0.00000
0.11458 0.34501 0.00000
0.14843 0.34459 0.00000
0.18228 0.34418 0.00000
0.21612 0.34377 0.00000
0.24997 0.34336 0.00000
0.28382 0.34295 0.00000
0.31766 0.34253 0.00000
0.35151 0.34212 0.00000
0.38536 0.34171 0.00000
0.41921 0.34130 0.00000
0.45305 0.34088 0.00000
0.48690 0.34047 0.00000
0.52075 0.34006 0.00000
0.55460 0.33965 0.00000
0.58844 0.33924 0.00000
0.62229 0.33882 0.00000
0.65614 0.33841 0.00000
0.68998 0.33800 0.00000
0.72383 0.33759 0.00000
0.75768 0.33717 0.00000
0.79153 0.33676 0.00000
0.82537 0.33635 0.00000
0.85922 0.33594 0.00000
0.89307 0.33552 0.00000
0.92692 0.33511 0.00000
0.96076 0.33470 0.00000
0.99461 0.33429 0.00000
1.00000 0.33388 0.00000
1.00000 0.33346 0.00000
0.00000 0.37919 0.00000
0.01167 0.37878 0.00000
0.04551 0.37837 0.00000
0.07936 0.37796 0.00000
0.11321 0.37755 0.00000
0.14706 0.37713 0.00000
0.18090 0.37672 0.00000
0.21475 0.37631 0.00000
0.24860 0.37590 0.00000
0.28244 0.37548 0.00000
0.31629 0.37507 0.00000
0.35014 0.37466 0.00000
0.38399 0.37425 0.00000
0.41783 0.37384 0.00000
0.45168 0.37342 0.00000
0.48553 0.37301 0.00000
0.51938 0.37260 0.00000
0.55322 0.37219 0.00000
0.58707 0.37177 0.00000
0.62092 0.37136 0.00000
0.65476 0.37095 0.00000
0.68861 0.37054 0.00000
0.72246 0.37012 0.00000
0.75631 0.36971 0.00000
0.79015 0.36930 0.00000
0.82400 0.36889 0.00000
0.85785 0.36848 0.00000
0.89170 0.36806 0.00000
0.92554 0.36765 0.00000
0.95939 0.36724 0.00000
0.99324 0.36683 0.00000
1.00000 0.36641 0.00000
1.00000 0.36600 0.00000
0.00000 0.41173 0.00000
0.01029 0.41132 0.00000
0.04414 0.41091 0.00000
0.07799 0.41050 0.00000
0.11184 0.41008 0.00000
0.14568 0.40967 0.00000
0.17953 0.40926 0.00000
0.21338 0.40885 0.00000
0.24722 0.40844 0.00000
0.28107 0.40802 0.00000
0.31492 0.40761 0.00000
0.34877 0.40720 0.00000
0.38261 0.40679 0.00000
0.41646 0.40637 0.00000
0.45031 0.40596 0.00000
0.48416 0.40555 0.00000
0.51800 0.40514 0.00000
0.55185 0.40473 0.00000
0.58570 0.40431 0.00000
0.61954 0.40390 0.00000
0.65339 0.40349 0.00000
0.68724 0.40308 0.00000
0.72109 0.40266 0.00000
0.75493 0.40225 0.00000
0.78878 0.40184 0.00000
0.82263 0.40143 0.00000
0.85648 0.40101 0.00000
0.89032 0.40060 0.00000
0.92417 0.40019 0.00000
0.95802 0.39978 0.00000
0.99186 0.39937 0.00000
1.00000 0.39895 0.00000
1.00000 0.39859 0.00000
0.00000 0.44427 0.00000
0.00892 0.44386 0.00000
0.04277 0.44345 0.00000
0.07662 0.44304 0.00000
0.11046 0.44262 0.00000
0.14431 0.44221 0.00000
0.17816 0.44180 0.00000
0.21200 0.44139 0.00000
0.24585 0.44097 0.00000
0.27970 0.44056 0.00000
0.31355 0.44015 0.00000
0.34739 0.43974 0.00000
0.38124 0.43933 0.00000
0.41509 0.43891 0.00000
0.44894 0.43850 0.00000
0.48278 0.43809 0.00000
0.51663 0.43768 0.00000
0.55048 0.43726 0.00000
0.58432 0.43685 0.00000
0.61817 0.43644 0.00000
0.65202 0.43603 0.00000
0.68587 0.43561 0.00000
0.71971 0.43520 0.00000
0.75356 0.43479 0.00000
0.78741 0.43438 0.00000
0.82125 0.43397 0.00000
0.85510 0.43355 0.00000
0.88895 0.43314 0.00000
0.92282 0.43274 0.00000
0.95677 0.43238 0.00000
0.99072 0.43202 0.00000
1.00000 0.43165 0.00000
1.00000 0.43129 0.00000
0.00000 0.47681 0.00000
0.00755 0.47640 0.00000
0.04140 0.47599 0.00000
0.07524 0.47557 0.00000
0.10909 0.47516 0.00000
0.14294 0.47475 0.00000
0.17678 0.47434 0.00000
0.21063 0.47393 0.00000
0.24448 0.47351 0.00000
0.27833 0.47310 0.00000
0.31217 0.47269 0.00000
0.34602 0.47228 0.00000
0.37987 0.47186 0.00000
0.41372 0.47145 0.00000
0.44756 0.47104 0.00000
0.48141 0.47063 0.00000
0.51526 0.47022 0.00000
0.54910 0.46980 0.00000
0.58295 0.46939 0.00000
0.61680 0.46898 0.00000
0.65065 0.46857 0.00000
0.68449 0.46815 0.00000
0.71834 0.46774 0.00000
0.75219 0.46733 0.00000
0.78603 0.46692 0.00000
0.81994 0.46653 0.00000
0.85389 0.46617 0.00000
0.88783 0.46581 0.00000
0.92178 0.46545 0.00000
0.95573 0.46508 0.00000
0.98967 0.46472 0.00000
1.00000 0.46436 0.00000
1.00000 0.46399 0.00000
0.00000 0.50935 0.00000
0.00618 0.50894 0.00000
0.04002 0.50853 0.00000
0.07387 0.50811 0.00000
0.10772 0.50770 0.00000
0.14156 0.50729 0.00000
0.17541 0.50688 0.00000
0.20926 0.50646 0.00000
0.24311 0.50605 0.00000
0.27695 0.50564 0.00000
0.31080 0.50523 0.00000
0.34465 0.50482 0.00000
0.37849 0.50440 0.00000
0.41234 0.50399 0.00000
0.44619 0.50358 0.00000
0.48004 0.50317 0.00000
0.51388 0.50275 0.00000
0.54773 0.50234 0.00000
0.58158 0.50193 0.00000
0.61543 0.50152 0.00000
0.64927 0.50110 0.00000
0.68312 0.50069 0.00000
0.71706 0.50033 0.00000
0.75101 0.49996 0.00000
0.78495 0.49960 0.00000
0.81890 0.49924 0.00000
0.85284 0.49887 0.00000
0.88679 0.49851 0.00000
0.92074 0.49815 0.00000
0.95468 0.49779 0.00000
0.98863 0.49742 0.00000
1.00000 0.49706 0.00000
1.00000 0.49670 0.00000
0.00000 0.54189 0.00000
0.00480 0.54148 0.00000
0.03865 0.54106 0.00000
0.07250 0.54065 0.00000
0.10634 0.54024 0.00000
0.14019 0.53983 0.00000
0.17404 0.53942 0.00000
0.20789 0.53900 0.00000
0.24173 0.53859 0.00000
0.27558 0.53818 0.00000
0.30943 0.53777 0.00000
0.34327 0.53735 0.00000
0.37712 0.53694 0.00000
0.41097 0.53653 0.00000
0.44482 0.53612 0.00000
0.47866 0.53571 0.00000
0.51251 0.53529 0.00000
0.54636 0.53488 0.00000
0.58023 0.53448 0.00000
0.61418 0.53412 0.00000
0.64812 0.53376 0.00000
0.68207 0.53339 0.00000
0.71602 0.53303 0.00000
0.74996 0.53267 0.00000
0.78391 0.53230 0.00000
0.81785 0.53194 0.00000
0.85180 0.53158 0.00000
0.88575 0.53122 0.00000
0.91969 0.53085 0.00000
0.95364 0.53049 0.00000
0.98759 0.53013 0.00000
1.00000 0.52976 0.00000
1.00000 0.52940 0.00000
0.00000 0.57443 0.00000
0.00343 0.57402 0.00000
0.03728 0.57360 0.00000
0.07112 0.57319 0.00000
0.10497 0.57278 0.00000
0.13882 0.57237 0.00000
0.17267 0.57195 0.00000
0.20651 0.57154 0.00000
0.24036 0.57113 0.00000
0.27421 0.57072 0.00000
0.30805 0.57031 0.00000
0.34190 0.56989 0.00000
0.37575 0.56948 0.00000
0.40960 0.56907 0.00000
0.44344 0.56866 0.00000
0.47735 0.56827 0.00000
0.51130 0.56791 0.00000
0.54524 0.56755 0.00000
0.57919 0.56718 0.00000
0.61313 0.56682 0.00000
0.64708 0.56646 0.00000
0.68103 0.56610 0.00000
0.71497 0.56573 0.00000
0.74892 0.56537 0.00000
0.78286 0.56501 0.00000
0.81681 0.56464 0.00000
0.85076 0.56428 0.00000
0.88470 0.56392 0.00000
0.91865 0.56356 0.00000
0.95260 0.56319 0.00000
0.98654 0.56283 0.00000
1.00000 0.56247 0.00000
1.00000 0.56211 0.00000
0.00000 0.60697 0.00000
0.00206 0.60655 0.00000
0.03590 0.60614 0.00000
0.06975 0.60573 0.00000
0.10360 0.60532 0.00000
0.13745 0.60491 0.00000
0.17129 0.60449 0.00000
0.20514 0.60408 0.00000
0.23899 0.60367 0.00000
0.27283 0.60326 0.00000
0.30668 0.60284 0.00000
0.34053 0.60243 0.00000
0.37447 0.60207 0.00000
0.40841 0.60170 0.00000
0.44236 0.60134 0.00000
0.47631 0.60098 0.00000
0.51025 0.60061 0.00000
0.54420 0.60025 0.00000
0.57814 0.59989 0.00000
0.61209 0.59953 0.00000
0.64604 0.59916 0.00000
0.67998 0.59880 0.00000
0.71393 0.59844 0.00000
0.74788 0.59807 0.00000
0.78182 0.59771 0.00000
0.81577 0.59735 0.00000
0.84971 0.59699 0.00000
0.88366 0.59662 0.00000
0.91761 0.59626 0.00000
0.95155 0.59590 0.00000
0.98550 0.59553 0.00000
1.00000 0.59517 0.00000
1.00000 0.59481 0.00000
0.00000 0.63951 0.00000
0.00068 0.63909 0.00000
0.03453 0.63868 0.00000
0.06838 0.63827 0.00000
0.10223 0.63786 0.00000
0.13607 0.63744 0.00000
0.16992 0.63703 0.00000
0.20377 0.63662 0.00000
0.23764 0.63622 0.00000
0.27159 0.63586 0.00000
0.30553 0.63549 0.00000
0.33948 0.63513 0.00000
0.37342 0.63477 0.00000
0.40737 0.63441 0.00000
0.44132 0.63404 0.00000
0.47526 0.63368 0.00000
0.50921 0.63332 0.00000
0.54315 0.63295 0.00000
0.57710 0.63259 0.00000
0.61105 0.63223 0.00000
0.64499 0.63187 0.00000
0.67894 0.63150 0.00000
0.71289 0.63114 0.00000
0.74683 0.63078 0.00000
0.78078 0.63042 0.00000
0.81472 0.63005 0.00000
0.84867 0.62969 0.00000
0.88262 0.62933 0.00000
0.91656 0.62896 0.00000
0.95051 0.62860 0.00000
0.98446 0.62824 0.00000
1.00000 0.62788 0.00000
1.00000 0.62751 0.00000
0.00000 0.67204 0.00000
0.00000 0.67163 0.00000
0.03316 0.67122 0.00000
0.06701 0.67081 0.00000
0.10085 0.67040 0.00000
0.13476 0.67001 0.00000
0.16870 0.66965 0.00000
0.20265 0.66929 0.00000
0.23660 0.66892 0.00000
0.27054 0.66856 0.00000
0.30449 0.66820 0.00000
0.33843 0.66784 0.00000
0.37238 0.66747 0.00000
0.40633 0.66711 0.00000
0.44027 0.66675 0.00000
0.47422 0.66638 0.00000
0.50817 0.66602 0.00000
0.54211 0.66566 0.00000
0.57606 0.66530 0.00000
0.61000 0.66493 0.00000
0.64395 0.66457 0.00000
0.67790 0.66421 0.00000
0.71184 0.66384 0.00000
0.74579 0.66348 0.00000
0.77973 0.66312 0.00000
0.81368 0.66276 0.00000
0.84763 0.66239 0.00000
0.88157 0.66203 0.00000
0.91552 0.66167 0.00000
0.94947 0.66130 0.00000
0.98341 0.66094 0.00000
1.00000 0.66058 0.00000
1.00000 0.66022 0.00000
0.00000 0.70458 0.00000
0.00000 0.70417 0.00000
0.03188 0.70380 0.00000
0.06582 0.70344 0.00000
0.09977 0.70308 0.00000
0.13371 0.70272 0.00000
0.16766 0.70235 0.00000
0.20161 0.70199 0.00000
0.23555 0.70163 0.00000
0.26950 0.70126 0.00000
0.30344 0.70090 0.00000
0.33739 0.70054 0.00000
0.37134 0.70018 0.00000
0.40528 0.69981 0.00000
0.43923 0.69945 0.00000
0.47318 0.69909 0.00000
0.50712 0.69872 0.00000
0.54107 0.69836 0.00000
0.57501 0.69800 0.00000
0.60896 0.69764 0.00000
0.64291 0.69727 0.00000
0.67685 0.69691 0.00000
0.71080 0.69655 0.00000
0.74475 0.69619 0.00000
0.77869 0.69582 0.00000
0.81264 0.69546 0.00000
0.84658 0.69510 0.00000
0.88053 0.69473 0.00000
0.91448 0.69437 0.00000
0.94842 0.69401 0.00000
0.98237 0.69365 0.00000
1.00000 0.69328 0.00000
1.00000 0.69292 0.00000
0.00000 0.73723 0.00000
0.00000 0.73687 0.00000
0.03083 0.73651 0.00000
0.06478 0.73614 0.00000
0.09872 0.73578 0.00000
0.13267 0.73542 0.00000
0.16662 0.73506 0.00000
0.20056 0.73469 0.00000
0.23451 0.73433 0.00000
0.26846 0.73397 0.00000
0.30240 0.73361 0.00000
0.33635 0.73324 0.00000
0.37029 0.73288 0.00000
0.40424 0.73252 0.00000
0.43819 0.73215 0.00000
0.47213 0.73179 0.00000
0.50608 0.73143 0.00000
0.54002 0.73107 0.00000
0.57397 0.73070 0.00000
0.60792 0.73034 0.00000
0.64186 0.72998 0.00000
0.67581 0.72961 0.00000
0.70976 0.72925 0.00000
0.74370 0.72889 0.00000
0.77765 0.72853 0.00000
0.81159 0.72816 0.00000
0.84554 0.72780 0.00000
0.87949 0.72744 0.00000
0.91343 0.72707 0.00000
0.94738 0.72671 0.00000
0.98133 0.72635 0.00000
1.00000 0.72599 0.00000
1.00000 0.72562 0.00000
0.00000 0.76994 0.00000
0.00000 0.76957 0.00000
0.02979 0.76921 0.00000
0.06373 0.76885 0.00000
0.09768 0.76849 0.00000
0.13163 0.76812 0.00000
0.16557 0.76776 0.00000
0.19952 0.76740 0.00000
0.23347 0.76703 0.00000
0.26741 0.76667 0.00000
0.30136 0.76631 0.00000
0.33530 0.76595 0.00000
0.36925 0.76558 0.00000
0.40320 0.76522 0.00000
0.43714 0.76486 0.00000
0.47109 0.76449 0.00000
0.50504 0.76413 0.00000
0.53898 0.76377 0.00000
0.57293 0.76341 0.00000
0.60687 0.76304 0.00000
0.64082 0.76268 0.00000
0.67477 0.76232 0.00000
0.70871 0.76196 0.00000
0.74266 0.76159 0.00000
0.77660 0.76123 0.00000
0.81055 0.76087 0.00000
0.84450 0.76050 0.00000
0.87844 0.76014 0.00000
0.91239 0.75978 0.00000
0.94634 0.75942 0.00000
0.98028 0.75905 0.00000
1.00000 0.75869 0.00000
1.00000 0.75833 0.00000
0.00000 0.80264 0.00000
0.00000 0.80228 0.00000
0.02874 0.80191 0.00000
0.06269 0.80155 0.00000
0.09664 0.80119 0.00000
0.13058 0.80083 0.00000
0.16453 0.80046 0.00000
0.19848 0.80010 0.00000
0.23242 0.79974 0.00000
0.26637 0.79938 0.00000
0.30031 0.79901 0.00000
0.33426 0.79865 0.00000
0.36821 0.79829 0.00000
0.40215 0.79792 0.00000
0.43610 0.79756 0.00000
0.47005 0.79720 0.00000
0.50399 0.79684 0.00000
0.53794 0.79647 0.00000
0.57188 0.79611 0.00000
0.60583 0.79575 0.00000
0.63978 0.79538 0.00000
0.67372 0.79502 0.00000
0.70767 0.79466 0.00000
0.74162 0.79430 0.00000
0.77556 0.79393 0.00000
0.80951 0.79357 0.00000
0.84345 0.79321 0.00000
0.87740 0.79284 0.00000
0.91135 0.79248 0.00000
0.94529 0.79212 0.00000
0.97924 0.79176 0.00000
1.00000 0.79139 0.00000
1.00000 0.79103 0.00000
0.00000 0.83534 0.00000
0.00000 0.83498 0.00000
0.02770 0.83462 0.00000
0.06165 0.83426 0.00000
0.09559 0.83389 0.00000
0.12954 0.83353 0.00000
0.16349 0.83317 0.00000
0.19743 0.83280 0.00000
0.23138 0.83244 0.00000
0.26532 0.83208 0.00000
0.29927 0.83172 0.00000
0.33322 0.83135 0.00000
0.36716 0.83099 0.00000
0.40111 0.83063 0.00000
0.43506 0.83026 0.00000
0.46900 0.82990 0.00000
0.50295 0.82954 0.00000
0.53689 0.82918 0.00000
0.57084 0.82881 0.00000
0.60479 0.82845 0.00000
0.63873 0.82809 0.00000
0.67268 0.82773 0.00000
0.70663 0.82736 0.00000
0.74057 0.82700 0.00000
0.77452 0.82664 0.00000
0.80846 0.82627 0.00000
0.84241 0.82591 0.00000
0.87636 0.82555 0.00000
0.91030 0.82519 0.00000
0.94425 0.82482 0.00000
0.97820 0.82446 0.00000
1.00000 0.82410 0.00000
1.00000 0.82373 0.00000
0.00000 0.86805 0.00000
0.00000 0.86768 0.00000
0.02666 0.86732 0.00000
0.06060 0.86696 0.00000
0.09455 0.86660 0.00000
0.12850 0.86623 0.00000
0.16244 0.86587 0.00000
0.19639 0.86551 0.00000
0.23034 0.86515 0.00000
