boundlessjs/public/luts/film_warm.cube
TITLE "film_warm"
LUT_3D_SIZE 9
0.00000 0.00000 0.00000
0.12968 0.00000 0.00000
0.26507 0.00000 0.00000
0.40046 0.00000 0.00000
0.53585 0.00000 0.00000
0.67124 0.00000 0.00000
0.80663 0.00000 0.00000
0.94202 0.00000 0.00000
1.00000 0.00000 0.00000
0.00000 0.11888 0.00000
0.12419 0.11723 0.00000
0.25958 0.11559 0.00000
0.39497 0.11394 0.00000
0.53036 0.11229 0.00000
0.66575 0.11064 0.00000
0.80114 0.10899 0.00000
0.93653 0.10734 0.00000
1.00000 0.10569 0.00000
0.00000 0.24904 0.00000
0.11870 0.24739 0.00000
0.25409 0.24574 0.00000
0.38948 0.24409 0.00000
0.52487 0.24244 0.00000
0.66026 0.24079 0.00000
0.79564 0.23914 0.00000
0.93103 0.23750 0.00000
1.00000 0.23585 0.00000
0.00000 0.37919 0.00000
0.11321 0.37755 0.00000
0.24860 0.37590 0.00000
0.38399 0.37425 0.00000
0.51938 0.37260 0.00000
0.65476 0.37095 0.00000
0.79015 0.36930 0.00000
0.92554 0.36765 0.00000
1.00000 0.36600 0.00000
0.00000 0.50935 0.00000
0.10772 0.50770 0.00000
0.24311 0.50605 0.00000
0.37849 0.50440 0.00000
0.51388 0.50275 0.00000
0.64927 0.50110 0.00000
0.78495 0.49960 0.00000
0.92074 0.49815 0.00000
1.00000 0.49670 0.00000
0.00000 0.63951 0.00000
0.10223 0.63786 0.00000
0.23764 0.63622 0.00000
0.37342 0.63477 0.00000
0.50921 0.63332 0.00000
0.64499 0.63187 0.00000
0.78078 0.63042 0.00000
0.91656 0.62896 0.00000
1.00000 0.62751 0.00000
0.00000 0.76994 0.00000
0.09768 0.76849 0.00000
0.23347 0.76703 0.00000
0.36925 0.76558 0.00000
0.50504 0.76413 0.00000
0.64082 0.76268 0.00000
0.77660 0.76123 0.00000
0.91239 0.75978 0.00000
1.00000 0.75833 0.00000
0.00000 0.90075 0.00000
0.09351 0.89930 0.00000
0.22929 0.89785 0.00000
0.36508 0.89640 0.00000
0.50086 0.89495 0.00000
0.63665 0.89350 0.00000
0.77243 0.89204 0.00000
0.90822 0.89059 0.00000
1.00000 0.88914 0.00000
0.00000 1.00000 0.00000
0.08933 1.00000 0.00000
0.22512 1.00000 0.00000
0.36090 1.00000 0.00000
0.49669 1.00000 0.00000
0.63247 1.00000 0.00000
0.76826 1.00000 0.00000
0.90404 1.00000 0.00000
1.00000 1.00000 0.00000
0.00000 0.00000 0.11024
0.12915 0.00000 0.10847
0.26454 0.00000 0.10669
0.39993 0.00000 0.10491
0.53532 0.00000 0.10313
0.67070 0.00000 0.10135
0.80609 0.00000 0.09956
0.94148 0.00000 0.09778
1.00000 0.00000 0.09600
0.00000 0.11835 0.10432
0.12366 0.11670 0.10254
0.25905 0.11505 0.10076
0.39443 0.11340 0.09898
0.52982 0.11175 0.09720
0.66521 0.11010 0.09542
0.80060 0.10845 0.09363
0.93599 0.10681 0.09185
1.00000 0.10516 0.09007
0.00000 0.24851 0.09839
0.11817 0.24686 0.09661
0.25355 0.24521 0.09483
0.38894 0.24356 0.09305
0.52433 0.24191 0.09127
0.65972 0.24026 0.08948
0.79511 0.23861 0.08770
0.93050 0.23696 0.08592
1.00000 0.23531 0.08414
0.00000 0.37866 0.09246
0.11267 0.37701 0.09068
0.24806 0.37536 0.08890
0.38345 0.37371 0.08712
0.51884 0.37206 0.08533
0.65423 0.37041 0.08355
0.78962 0.36877 0.08177
0.92501 0.36712 0.07999
1.00000 0.36547 0.07821
0.00000 0.50882 0.08653
0.10718 0.50717 0.08475
0.24257 0.50552 0.08297
0.37796 0.50387 0.08119
0.51335 0.50222 0.07940
0.64876 0.50058 0.07762
0.78455 0.49913 0.07577
0.92033 0.49768 0.07393
1.00000 0.49623 0.07208
0.00000 0.63897 0.08060
0.10169 0.63732 0.07882
0.23723 0.63575 0.07701
0.37302 0.63430 0.07516
0.50880 0.63285 0.07332
0.64459 0.63140 0.07147
0.78037 0.62994 0.06962
0.91616 0.62849 0.06777
1.00000 0.62704 0.06593
0.00000 0.76947 0.07455
0.09727 0.76802 0.07271
0.23306 0.76656 0.07086
0.36884 0.76511 0.06901
0.50463 0.76366 0.06717
0.64041 0.76221 0.06532
0.77620 0.76076 0.06347
0.91198 0.75931 0.06162
1.00000 0.75786 0.05978
0.00000 0.90028 0.06840
0.09310 0.89883 0.06656
0.22889 0.89738 0.06471
0.36467 0.89593 0.06286
0.50046 0.89448 0.06102
0.63624 0.89302 0.05917
0.77203 0.89157 0.05732
0.90781 0.89012 0.05547
1.00000 0.88867 0.05363
0.00000 1.00000 0.06225
0.08893 1.00000 0.06041
0.22471 1.00000 0.05856
0.36050 1.00000 0.05671
0.49628 1.00000 0.05486
0.63207 1.00000 0.05302
0.76785 1.00000 0.05117
0.90364 1.00000 0.04932
1.00000 1.00000 0.04748
0.00000 0.00000 0.24045
0.12861 0.00000 0.23867
0.26400 0.00000 0.23689
0.39939 0.00000 0.23511
0.53478 0.00000 0.23333
0.67017 0.00000 0.23155
0.80556 0.00000 0.22977
0.94095 0.00000 0.22798
1.00000 0.00000 0.22620
0.00000 0.11782 0.23452
0.12312 0.11617 0.23274
0.25851 0.11452 0.23096
0.39390 0.11287 0.22918
0.52929 0.11122 0.22740
0.66468 0.10957 0.22562
0.80007 0.10792 0.22383
0.93546 0.10627 0.22205
1.00000 0.10462 0.22027
0.00000 0.24797 0.22859
0.11763 0.24632 0.22681
0.25302 0.24467 0.22503
0.38841 0.24302 0.22325
0.52380 0.24137 0.22147
0.65919 0.23972 0.21968
0.79458 0.23808 0.21790
0.92996 0.23643 0.21612
1.00000 0.23478 0.21434
0.00000 0.37813 0.22266
0.11214 0.37648 0.22088
0.24753 0.37483 0.21910
0.38292 0.37318 0.21732
0.51831 0.37153 0.21554
0.65370 0.36988 0.21375
0.78908 0.36823 0.21197
0.92447 0.36658 0.21019
1.00000 0.36494 0.20841
0.00000 0.50828 0.21673
0.10665 0.50663 0.21495
0.24204 0.50498 0.21317
0.37743 0.50333 0.21139
0.51282 0.50169 0.20960
0.64835 0.50011 0.20780
0.78414 0.49866 0.20595
0.91992 0.49721 0.20410
1.00000 0.49576 0.20226
0.00000 0.63844 0.21080
0.10116 0.63679 0.20902
0.23683 0.63528 0.20719
0.37261 0.63383 0.20534
0.50840 0.63238 0.20349
0.64418 0.63093 0.20165
0.77997 0.62947 0.19980
0.91575 0.62802 0.19795
1.00000 0.62657 0.19611
0.00000 0.76900 0.20473
0.09687 0.76754 0.20289
0.23265 0.76609 0.20104
0.36844 0.76464 0.19919
0.50422 0.76319 0.19734
0.64001 0.76174 0.19550
0.77579 0.76029 0.19365
0.91158 0.75884 0.19180
1.00000 0.75739 0.18996
0.00000 0.89981 0.19858
0.09269 0.89836 0.19674
0.22848 0.89691 0.19489
0.36426 0.89546 0.19304
0.50005 0.89401 0.19119
0.63583 0.89255 0.18935
0.77162 0.89110 0.18750
0.90740 0.88965 0.18565
1.00000 0.88820 0.18381
0.00000 1.00000 0.19243
0.08852 1.00000 0.19058
0.22431 1.00000 0.18874
0.36009 1.00000 0.18689
0.49588 1.00000 0.18504
0.63166 1.00000 0.18320
0.76745 1.00000 0.18135
0.90323 1.00000 0.17950
1.00000 1.00000 0.17766
0.00000 0.00000 0.37065
0.12808 0.00000 0.36887
0.26347 0.00000 0.36709
0.39886 0.00000 0.36531
0.53425 0.00000 0.36353
0.66964 0.00000 0.36175
0.80502 0.00000 0.35997
0.94041 0.00000 0.35818
1.00000 0.00000 0.35640
0.00000 0.11728 0.36472
0.12259 0.11563 0.36294
0.25798 0.11398 0.36116
0.39337 0.11233 0.35938
0.52875 0.11068 0.35760
0.66414 0.10904 0.35582
0.79953 0.10739 0.35403
0.93492 0.10574 0.35225
1.00000 0.10409 0.35047
0.00000 0.24744 0.35879
0.11710 0.24579 0.35701
0.25249 0.24414 0.35523
0.38787 0.24249 0.35345
0.52326 0.24084 0.35167
0.65865 0.23919 0.34989
0.79404 0.23754 0.34810
0.92943 0.23589 0.34632
1.00000 0.23424 0.34454
0.00000 0.37759 0.35286
0.11160 0.37594 0.35108
0.24699 0.37429 0.34930
0.38238 0.37264 0.34752
0.51777 0.37100 0.34574
0.65316 0.36935 0.34395
0.78855 0.36770 0.34217
0.92394 0.36605 0.34039
1.00000 0.36447 0.33859
0.00000 0.50775 0.34693
0.10611 0.50610 0.34515
0.24150 0.50445 0.34337
0.37689 0.50280 0.34159
0.51228 0.50115 0.33980
0.64795 0.49964 0.33798
0.78373 0.49819 0.33613
0.91952 0.49674 0.33428
1.00000 0.49529 0.33244
0.00000 0.63790 0.34100
0.10064 0.63626 0.33921
0.23642 0.63481 0.33737
0.37221 0.63336 0.33552
0.50799 0.63191 0.33367
0.64377 0.63046 0.33183
0.77956 0.62900 0.32998
0.91534 0.62755 0.32813
1.00000 0.62610 0.32629
0.00000 0.76853 0.33491
0.09646 0.76707 0.33306
0.23225 0.76562 0.33122
0.36803 0.76417 0.32937
0.50382 0.76272 0.32752
0.63960 0.76127 0.32568
0.77539 0.75982 0.32383
0.91117 0.75837 0.32198
1.00000 0.75692 0.32014
0.00000 0.89934 0.32876
0.09229 0.89789 0.32691
0.22807 0.89644 0.32507
0.36386 0.89499 0.32322
0.49964 0.89354 0.32137
0.63543 0.89208 0.31953
0.77121 0.89063 0.31768
0.90700 0.88918 0.31583
1.00000 0.88773 0.31399
0.00000 1.00000 0.32261
0.08812 1.00000 0.32076
0.22390 1.00000 0.31892
0.35968 1.00000 0.31707
0.49547 1.00000 0.31522
0.63125 1.00000 0.31338
0.76704 1.00000 0.31153
0.90282 1.00000 0.30968
1.00000 1.00000 0.30783
0.00000 0.00000 0.50085
0.12754 0.00000 0.49907
0.26293 0.00000 0.49729
0.39832 0.00000 0.49551
0.53371 0.00000 0.49373
0.66910 0.00000 0.49195
0.80449 0.00000 0.49017
0.93988 0.00000 0.48838
1.00000 0.00000 0.48660
0.00000 0.11675 0.49492
0.12205 0.11510 0.49314
0.25744 0.11345 0.49136
0.39283 0.11180 0.48958
0.52822 0.11015 0.48780
0.66361 0.10850 0.48602
0.79900 0.10685 0.48423
0.93439 0.10520 0.48245
1.00000 0.10355 0.48067
0.00000 0.24690 0.48899
0.11656 0.24525 0.48721
0.25195 0.24360 0.48543
0.38734 0.24195 0.48365
0.52273 0.24031 0.48187
0.65812 0.23866 0.48009
0.79351 0.23701 0.47830
0.92890 0.23536 0.47652
1.00000 0.23371 0.47474
0.00000 0.37706 0.48306
0.11107 0.37541 0.48128
0.24646 0.37376 0.47950
0.38185 0.37211 0.47772
0.51724 0.37046 0.47594
0.65263 0.36881 0.47415
0.78802 0.36716 0.47237
0.92340 0.36551 0.47059
1.00000 0.36400 0.46877
0.00000 0.50721 0.47713
0.10558 0.50556 0.47535
0.24097 0.50391 0.47357
0.37636 0.50227 0.47179
0.51176 0.50062 0.47000
0.64754 0.49917 0.46816
0.78333 0.49772 0.46631
0.91911 0.49627 0.46446
1.00000 0.49482 0.46262
0.00000 0.63737 0.47120
0.10023 0.63579 0.46939
0.23601 0.63434 0.46755
0.37180 0.63289 0.46570
0.50758 0.63144 0.46385
0.64337 0.62998 0.46201
0.77915 0.62853 0.46016
0.91494 0.62708 0.45831
1.00000 0.62563 0.45646
0.00000 0.76806 0.46509
0.09606 0.76660 0.46324
0.23184 0.76515 0.46140
0.36763 0.76370 0.45955
0.50341 0.76225 0.45770
0.63920 0.76080 0.45586
0.77498 0.75935 0.45401
0.91076 0.75790 0.45216
1.00000 0.75645 0.45031
0.00000 0.89887 0.45894
0.09188 0.89742 0.45709
0.22767 0.89597 0.45525
0.36345 0.89452 0.45340
0.49924 0.89307 0.45155
0.63502 0.89161 0.44970
0.77081 0.89016 0.44786
0.90659 0.88871 0.44601
1.00000 0.88726 0.44416
0.00000 1.00000 0.45279
0.08771 1.00000 0.45094
0.22349 1.00000 0.44910
0.35928 1.00000 0.44725
0.49506 1.00000 0.44540
0.63085 1.00000 0.44355
0.76663 1.00000 0.44171
0.90242 1.00000 0.43986
1.00000 1.00000 0.43801
0.00000 0.00000 0.63105
0.12701 0.00000 0.62927
0.26240 0.00000 0.62749
0.39779 0.00000 0.62571
0.53318 0.00000 0.62393
0.66857 0.00000 0.62215
0.80396 0.00000 0.62037
0.93934 0.00000 0.61858
1.00000 0.00000 0.61680
0.00000 0.11621 0.62512
0.12152 0.11456 0.62334
0.25691 0.11291 0.62156
0.39230 0.11126 0.61978
0.52769 0.10962 0.61800
0.66307 0.10797 0.61622
0.79846 0.10632 0.61444
0.93385 0.10467 0.61265
1.00000 0.10302 0.61087
0.00000 0.24637 0.61919
0.11603 0.24472 0.61741
0.25142 0.24307 0.61563
0.38681 0.24142 0.61385
0.52219 0.23977 0.61207
0.65758 0.23812 0.61029
0.79297 0.23647 0.60850
0.92836 0.23482 0.60672
1.00000 0.23317 0.60494
0.00000 0.37652 0.61326
0.11054 0.37487 0.61148
0.24593 0.37322 0.60970
0.38131 0.37158 0.60792
0.51670 0.36993 0.60614
0.65209 0.36828 0.60435
0.78748 0.36663 0.60257
0.92288 0.36498 0.60079
1.00000 0.36353 0.59894
0.00000 0.50668 0.60733
0.10504 0.50503 0.60555
0.24043 0.50338 0.60377
0.37582 0.50173 0.60199
0.51135 0.50015 0.60018
0.64714 0.49870 0.59833
0.78292 0.49725 0.59649
0.91871 0.49580 0.59464
1.00000 0.49435 0.59279
0.00000 0.63683 0.60140
0.09982 0.63532 0.59957
0.23561 0.63387 0.59773
0.37139 0.63242 0.59588
0.50718 0.63097 0.59403
0.64296 0.62951 0.59218
0.77875 0.62806 0.59034
0.91453 0.62661 0.58849
1.00000 0.62516 0.58664
0.00000 0.76759 0.59527
0.09565 0.76613 0.59342
0.23143 0.76468 0.59158
0.36722 0.76323 0.58973
0.50300 0.76178 0.58788
0.63879 0.76033 0.58603
0.77457 0.75888 0.58419
0.91036 0.75743 0.58234
1.00000 0.75598 0.58049
0.00000 0.89840 0.58912
0.09148 0.89695 0.58727
0.22726 0.89550 0.58542
0.36305 0.89405 0.58358
0.49883 0.89259 0.58173
0.63462 0.89114 0.57988
0.77040 0.88969 0.57804
0.90619 0.88824 0.57619
1.00000 0.88679 0.57434
0.00000 1.00000 0.58297
0.08730 1.00000 0.58112
0.22309 1.00000 0.57927
0.35887 1.00000 0.57743
0.49466 1.00000 0.57558
0.63044 1.00000 0.57373
0.76623 1.00000 0.57189
0.90201 1.00000 0.57004
1.00000 1.00000 0.56819
0.00000 0.00000 0.76125
0.12648 0.00000 0.75947
0.26186 0.00000 0.75769
0.39725 0.00000 0.75591
0.53264 0.00000 0.75413
0.66803 0.00000 0.75235
0.80342 0.00000 0.75057
0.93881 0.00000 0.74879
1.00000 0.00000 0.74700
0.00000 0.11568 0.75532
0.12098 0.11403 0.75354
0.25637 0.11238 0.75176
0.39176 0.11073 0.74998
0.52715 0.10908 0.74820
0.66254 0.10743 0.74642
0.79793 0.10578 0.74464
0.93332 0.10413 0.74285
1.00000 0.10248 0.74107
0.00000 0.24583 0.74939
0.11549 0.24418 0.74761
0.25088 0.24253 0.74583
0.38627 0.24089 0.74405
0.52166 0.23924 0.74227
0.65705 0.23759 0.74049
0.79244 0.23594 0.73870
0.92783 0.23429 0.73692
1.00000 0.23264 0.73514
0.00000 0.37599 0.74346
0.11000 0.37434 0.74168
0.24539 0.37269 0.73990
0.38078 0.37104 0.73812
0.51617 0.36939 0.73634
0.65156 0.36774 0.73456
0.78695 0.36609 0.73277
0.92247 0.36451 0.73097
1.00000 0.36306 0.72912
0.00000 0.50614 0.73753
0.10451 0.50449 0.73575
0.23990 0.50285 0.73397
0.37529 0.50120 0.73219
0.51094 0.49968 0.73036
0.64673 0.49823 0.72851
0.78251 0.49678 0.72667
0.91830 0.49533 0.72482
1.00000 0.49388 0.72297
0.00000 0.63630 0.73160
0.09942 0.63485 0.72975
0.23520 0.63340 0.72790
0.37099 0.63195 0.72606
0.50677 0.63050 0.72421
0.64256 0.62904 0.72236
0.77834 0.62759 0.72052
0.91413 0.62614 0.71867
1.00000 0.62469 0.71682
0.00000 0.76711 0.72545
0.09524 0.76566 0.72360
0.23103 0.76421 0.72175
0.36681 0.76276 0.71991
0.50260 0.76131 0.71806
0.63838 0.75986 0.71621
0.77417 0.75841 0.71437
0.90995 0.75696 0.71252
1.00000 0.75551 0.71067
0.00000 0.89793 0.71930
0.09107 0.89648 0.71745
0.22685 0.89503 0.71560
0.36264 0.89358 0.71376
0.49842 0.89212 0.71191
0.63421 0.89067 0.71006
0.76999 0.88922 0.70822
0.90578 0.88777 0.70637
1.00000 0.88632 0.70452
0.00000 1.00000 0.71315
0.08690 1.00000 0.71130
0.22268 1.00000 0.70945
0.35847 1.00000 0.70761
0.49425 1.00000 0.70576
0.63004 1.00000 0.70391
0.76582 1.00000 0.70207
0.90161 1.00000 0.70022
1.00000 1.00000 0.69837
0.00000 0.00000 0.89145
0.12594 0.00000 0.88967
0.26133 0.00000 0.88789
0.39672 0.00000 0.88611
0.53211 0.00000 0.88433
0.66750 0.00000 0.88255
0.80289 0.00000 0.88077
0.93828 0.00000 0.87899
1.00000 0.00000 0.87720
0.00000 0.11514 0.88552
0.12045 0.11349 0.88374
0.25584 0.11184 0.88196
0.39123 0.11020 0.88018
0.52662 0.10855 0.87840
0.66201 0.10690 0.87662
0.79739 0.10525 0.87484
0.93278 0.10360 0.87305
1.00000 0.10195 0.87127
0.00000 0.24530 0.87959
0.11496 0.24365 0.87781
0.25035 0.24200 0.87603
0.38574 0.24035 0.87425
0.52113 0.23870 0.87247
0.65651 0.23705 0.87069
0.79190 0.23540 0.86891
0.92729 0.23375 0.86712
1.00000 0.23211 0.86534
0.00000 0.37545 0.87366
0.10947 0.37380 0.87188
0.24486 0.37216 0.87010
0.38025 0.37051 0.86832
0.51563 0.36886 0.86654
0.65102 0.36721 0.86476
0.78641 0.36556 0.86297
0.92207 0.36404 0.86115
1.00000 0.36259 0.85930
0.00000 0.50561 0.86773
0.10398 0.50396 0.86595
0.23936 0.50231 0.86417
0.37475 0.50066 0.86239
0.51054 0.49921 0.86054
0.64632 0.49776 0.85869
0.78211 0.49631 0.85685
0.91789 0.49486 0.85500
1.00000 0.49341 0.85315
0.00000 0.63583 0.86178
0.09901 0.63438 0.85993
0.23480 0.63293 0.85808
0.37058 0.63148 0.85624
0.50637 0.63003 0.85439
0.64215 0.62857 0.85254
0.77793 0.62712 0.85070
0.91372 0.62567 0.84885
1.00000 0.62422 0.84700
0.00000 0.76664 0.85563
0.09484 0.76519 0.85378
0.23062 0.76374 0.85193
0.36641 0.76229 0.85009
0.50219 0.76084 0.84824
0.63798 0.75939 0.84639
0.77376 0.75794 0.84455
0.90955 0.75649 0.84270
1.00000 0.75503 0.84085
0.00000 0.89746 0.84948
0.09066 0.89601 0.84763
0.22645 0.89456 0.84578
0.36223 0.89311 0.84394
0.49802 0.89165 0.84209
0.63380 0.89020 0.84024
0.76959 0.88875 0.83839
0.90537 0.88730 0.83655
1.00000 0.88585 0.83470
0.00000 1.00000 0.84333
0.08649 1.00000 0.84148
0.22228 1.00000 0.83963
0.35806 1.00000 0.83779
0.49384 1.00000 0.83594
0.62963 1.00000 0.83409
0.76541 1.00000 0.83224
0.90120 1.00000 0.83040
1.00000 1.00000 0.82858
0.00000 0.00000 1.00000
0.12541 0.00000 1.00000
0.26080 0.00000 1.00000
0.39618 0.00000 1.00000
0.53157 0.00000 1.00000
0.66696 0.00000 1.00000
0.80235 0.00000 1.00000
0.93774 0.00000 1.00000
1.00000 0.00000 1.00000
0.00000 0.11461 1.00000
0.11992 0.11296 1.00000
0.25530 0.11131 1.00000
0.39069 0.10966 1.00000
0.52608 0.10801 1.00000
0.66147 0.10636 1.00000
0.79686 0.10471 1.00000
0.93225 0.10306 1.00000
1.00000 0.10142 1.00000
0.00000 0.24476 1.00000
0.11442 0.24311 1.00000
0.24981 0.24147 1.00000
0.38520 0.23982 1.00000
0.52059 0.23817 1.00000
0.65598 0.23652 1.00000
0.79137 0.23487 0.99911
0.92676 0.23322 0.99732
1.00000 0.23157 0.99554
0.00000 0.37492 1.00000
0.10893 0.37327 1.00000
0.24432 0.37162 1.00000
0.37971 0.36997 0.99852
0.51510 0.36832 0.99674
0.65049 0.36667 0.99496
0.78588 0.36502 0.99317
0.92166 0.36357 0.99133
1.00000 0.36212 0.98948
0.00000 0.50507 0.99793
0.10344 0.50343 0.99615
0.23883 0.50178 0.99437
0.37435 0.50019 0.99257
0.51013 0.49874 0.99072
0.64592 0.49729 0.98887
0.78170 0.49584 0.98702
0.91749 0.49439 0.98518
1.00000 0.49294 0.98333
0.00000 0.63536 0.99196
0.09860 0.63391 0.99011
0.23439 0.63246 0.98826
0.37017 0.63101 0.98642
0.50596 0.62955 0.98457
0.64174 0.62810 0.98272
0.77753 0.62665 0.98087
0.91331 0.62520 0.97903
1.00000 0.62375 0.97718
0.00000 0.76617 0.98581
0.09443 0.76472 0.98396
0.23022 0.76327 0.98211
0.36600 0.76182 0.98026
0.50179 0.76037 0.97842
0.63757 0.75892 0.97657
0.77336 0.75747 0.97472
0.90914 0.75602 0.97288
1.00000 0.75456 0.97103
0.00000 0.89699 0.97966
0.09026 0.89554 0.97781
0.22604 0.89409 0.97596
0.36183 0.89263 0.97411
0.49761 0.89118 0.97227
0.63340 0.88973 0.97042
0.76918 0.88828 0.96857
0.90497 0.88683 0.96673
1.00000 0.88538 0.96488
0.00000 1.00000 0.97351
0.08608 1.00000 0.97166
0.22187 1.00000 0.96981
0.35765 1.00000 0.96796
0.49344 1.00000 0.96612
0.62922 1.00000 0.96427
0.76501 1.00000 0.96242
0.90079 1.00000 0.96058
1.00000 1.00000 0.95882
