boundlessjs/public/luts/film_warm.cube
TITLE "film_warm"
LUT_3D_SIZE 5
0.00000 0.00000 0.00000
0.26507 0.00000 0.00000
0.53585 0.00000 0.00000
0.80663 0.00000 0.00000
1.00000 0.00000 0.00000
0.00000 0.24904 0.00000
0.25409 0.24574 0.00000
0.52487 0.24244 0.00000
0.79564 0.23914 0.00000
1.00000 0.23585 0.00000
0.00000 0.50935 0.00000
0.24311 0.50605 0.00000
0.51388 0.50275 0.00000
0.78495 0.49960 0.00000
1.00000 0.49670 0.00000
0.00000 0.76994 0.00000
0.23347 0.76703 0.00000
0.50504 0.76413 0.00000
0.77660 0.76123 0.00000
1.00000 0.75833 0.00000
0.00000 1.00000 0.00000
0.22512 1.00000 0.00000
0.49669 1.00000 0.00000
0.76826 1.00000 0.00000
1.00000 1.00000 0.00000
0.00000 0.00000 0.24045
0.26400 0.00000 0.23689
0.53478 0.00000 0.23333
0.80556 0.00000 0.22977
1.00000 0.00000 0.22620
0.00000 0.24797 0.22859
0.25302 0.24467 0.22503
0.52380 0.24137 0.22147
0.79458 0.23808 0.21790
1.00000 0.23478 0.21434
0.00000 0.50828 0.21673
0.24204 0.50498 0.21317
0.51282 0.50169 0.20960
0.78414 0.49866 0.20595
1.00000 0.49576 0.20226
0.00000 0.76900 0.20473
0.23265 0.76609 0.20104
0.50422 0.76319 0.19734
0.77579 0.76029 0.19365
1.00000 0.75739 0.18996
0.00000 1.00000 0.19243
0.22431 1.00000 0.18874
0.49588 1.00000 0.18504
0.76745 1.00000 0.18135
1.00000 1.00000 0.17766
0.00000 0.00000 0.50085
0.26293 0.00000 0.49729
0.53371 0.00000 0.49373
0.80449 0.00000 0.49017
1.00000 0.00000 0.48660
0.00000 0.24690 0.48899
0.25195 0.24360 0.48543
0.52273 0.24031 0.48187
0.79351 0.23701 0.47830
1.00000 0.23371 0.47474
0.00000 0.50721 0.47713
0.24097 0.50391 0.47357
0.51176 0.50062 0.47000
0.78333 0.49772 0.46631
1.00000 0.49482 0.46262
0.00000 0.76806 0.46509
0.23184 0.76515 0.46140
0.50341 0.76225 0.45770
0.77498 0.75935 0.45401
1.00000 0.75645 0.45031
0.00000 1.00000 0.45279
0.22349 1.00000 0.44910
0.49506 1.00000 0.44540
0.76663 1.00000 0.44171
1.00000 1.00000 0.43801
0.00000 0.00000 0.76125
0.26186 0.00000 0.75769
0.53264 0.00000 0.75413
0.80342 0.00000 0.75057
1.00000 0.00000 0.74700
0.00000 0.24583 0.74939
0.25088 0.24253 0.74583
0.52166 0.23924 0.74227
0.79244 0.23594 0.73870
1.00000 0.23264 0.73514
0.00000 0.50614 0.73753
0.23990 0.50285 0.73397
0.51094 0.49968 0.73036
0.78251 0.49678 0.72667
1.00000 0.49388 0.72297
0.00000 0.76711 0.72545
0.23103 0.76421 0.72175
0.50260 0.76131 0.71806
0.77417 0.75841 0.71437
1.00000 0.75551 0.71067
0.00000 1.00000 0.71315
0.22268 1.00000 0.70945
0.49425 1.00000 0.70576
0.76582 1.00000 0.70207
1.00000 1.00000 0.69837
0.00000 0.00000 1.00000
0.26080 0.00000 1.00000
0.53157 0.00000 1.00000
0.80235 0.00000 1.00000
1.00000 0.00000 1.00000
0.00000 0.24476 1.00000
0.24981 0.24147 1.00000
0.52059 0.23817 1.00000
0.79137 0.23487 0.99911
1.00000 0.23157 0.99554
0.00000 0.50507 0.99793
0.23883 0.50178 0.99437
0.51013 0.49874 0.99072
0.78170 0.49584 0.98702
1.00000 0.49294 0.98333
0.00000 0.76617 0.98581
0.23022 0.76327 0.98211
0.50179 0.76037 0.97842
0.77336 0.75747 0.97472
1.00000 0.75456 0.97103
0.00000 1.00000 0.97351
0.22187 1.00000 0.96981
0.49344 1.00000 0.96612
0.76501 1.00000 0.96242
1.00000 1.00000 0.95882
