boundlessjs/public/luts/noir_cool.cube
TITLE "noir_cool"
LUT_3D_SIZE 9
0.00000 0.00000 0.00000
0.00000 0.00000 0.00000
0.04437 0.00000 0.00000
0.11419 0.00000 0.00000
0.18439 0.00000 0.01077
0.25459 0.01972 0.03169
0.32478 0.04153 0.05261
0.39498 0.06334 0.07353
0.46517 0.08515 0.09445
0.00000 0.03203 0.00000
0.04847 0.05384 0.01838
0.11867 0.07566 0.03930
0.18886 0.09747 0.06022
0.25906 0.11928 0.08114
0.32925 0.14110 0.10206
0.39945 0.16291 0.12298
0.46964 0.18472 0.14390
0.53984 0.20653 0.16482
0.05294 0.15341 0.06784
0.12314 0.17522 0.08876
0.19333 0.19704 0.10968
0.26353 0.21885 0.13060
0.33372 0.24066 0.15152
0.40392 0.26247 0.17244
0.47411 0.28429 0.19336
0.54431 0.30610 0.21428
0.61451 0.32791 0.23520
0.12761 0.27479 0.13822
0.19780 0.29660 0.15913
0.26800 0.31842 0.18005
0.33819 0.34023 0.20097
0.40839 0.36204 0.22189
0.47859 0.38385 0.24281
0.54878 0.40567 0.26373
0.61898 0.42748 0.28465
0.68917 0.44929 0.30557
0.20228 0.39617 0.20859
0.27247 0.41798 0.22951
0.34267 0.43980 0.25043
0.41286 0.46161 0.27135
0.48306 0.48342 0.29227
0.55324 0.50524 0.31324
0.62318 0.52718 0.33518
0.69312 0.54912 0.35712
0.76306 0.57106 0.37906
0.27694 0.51755 0.27897
0.34714 0.53936 0.29989
0.41723 0.56123 0.32123
0.48717 0.58317 0.34317
0.55711 0.60511 0.36511
0.62705 0.62705 0.38705
0.69699 0.64899 0.40899
0.76693 0.67093 0.43093
0.83687 0.69287 0.45287
0.35116 0.63916 0.35116
0.42110 0.66110 0.37310
0.49104 0.68304 0.39504
0.56098 0.70498 0.41698
0.63092 0.72692 0.43892
0.70086 0.74886 0.46086
0.77080 0.77080 0.48280
0.84074 0.79274 0.50474
0.91068 0.81468 0.52668
0.42496 0.76096 0.42496
0.49490 0.78290 0.44690
0.56485 0.80485 0.46885
0.63479 0.82679 0.49079
0.70473 0.84873 0.51273
0.77467 0.87067 0.53467
0.84461 0.89261 0.55661
0.91455 0.91455 0.57855
0.98449 0.93649 0.60049
0.49877 0.88277 0.49877
0.56871 0.90471 0.52071
0.63865 0.92665 0.54265
0.70859 0.94859 0.56459
0.77853 0.97053 0.58653
0.84847 0.99247 0.60847
0.91842 1.00000 0.63042
0.98836 1.00000 0.65236
1.00000 1.00000 0.67408
0.00000 0.00000 0.00000
0.00000 0.00000 0.00205
0.05173 0.00000 0.02373
0.12173 0.00000 0.04495
0.19193 0.00531 0.06587
0.26212 0.02712 0.08679
0.33232 0.04894 0.10771
0.40251 0.07075 0.12863
0.47271 0.09256 0.14955
0.00000 0.03944 0.05257
0.05601 0.06125 0.07349
0.12620 0.08306 0.09441
0.19640 0.10488 0.11533
0.26659 0.12669 0.13625
0.33679 0.14850 0.15717
0.40699 0.17032 0.17809
0.47718 0.19213 0.19901
0.54738 0.21394 0.21993
0.06048 0.16082 0.12294
0.13067 0.18263 0.14386
0.20087 0.20444 0.16478
0.27107 0.22626 0.18570
0.34126 0.24807 0.20662
0.41146 0.26988 0.22754
0.48165 0.29170 0.24846
0.55185 0.31351 0.26938
0.62204 0.33532 0.29030
0.13515 0.28220 0.19332
0.20534 0.30401 0.21424
0.27554 0.32582 0.23516
0.34573 0.34764 0.25608
0.41593 0.36945 0.27700
0.48612 0.39126 0.29792
0.55632 0.41307 0.31884
0.62651 0.43489 0.33976
0.69670 0.45670 0.36070
0.20981 0.40358 0.26370
0.28001 0.42539 0.28462
0.35020 0.44720 0.30553
0.42040 0.46902 0.32645
0.49059 0.49083 0.34737
0.56069 0.51269 0.36869
0.63063 0.53463 0.39063
0.70057 0.55657 0.41257
0.77051 0.57851 0.43451
0.28448 0.52496 0.33407
0.35468 0.54677 0.35499
0.42468 0.56868 0.37668
0.49462 0.59062 0.39862
0.56456 0.61256 0.42056
0.63450 0.63450 0.44250
0.70444 0.65644 0.46444
0.77438 0.67838 0.48638
0.84432 0.70032 0.50832
0.35861 0.64661 0.40661
0.42855 0.66855 0.42855
0.49849 0.69049 0.45049
0.56843 0.71243 0.47243
0.63837 0.73437 0.49437
0.70831 0.75631 0.51631
0.77825 0.77825 0.53825
0.84819 0.80019 0.56019
0.91813 0.82213 0.58213
0.43242 0.76842 0.48042
0.50236 0.79036 0.50236
0.57230 0.81230 0.52430
0.64224 0.83424 0.54624
0.71218 0.85618 0.56818
0.78212 0.87812 0.59012
0.85206 0.90006 0.61206
0.92200 0.92200 0.63400
0.99194 0.94394 0.65594
0.50622 0.89022 0.55422
0.57616 0.91216 0.57616
0.64610 0.93410 0.59810
0.71605 0.95605 0.62005
0.78599 0.97799 0.64199
0.85593 0.99993 0.66393
0.92587 1.00000 0.68587
0.99576 1.00000 0.70776
1.00000 1.00000 0.72945
0.00000 0.00000 0.03573
0.00000 0.00000 0.05741
0.05910 0.00000 0.07910
0.12927 0.00000 0.10006
0.19947 0.01272 0.12098
0.26966 0.03453 0.14190
0.33986 0.05634 0.16282
0.41005 0.07816 0.18374
0.48025 0.09997 0.20466
0.00000 0.04685 0.10767
0.06355 0.06866 0.12859
0.13374 0.09047 0.14951
0.20394 0.11229 0.17043
0.27413 0.13410 0.19135
0.34433 0.15591 0.21227
0.41452 0.17772 0.23319
0.48472 0.19954 0.25411
0.55491 0.22135 0.27503
0.06802 0.16823 0.17805
0.13821 0.19004 0.19897
0.20841 0.21185 0.21989
0.27860 0.23366 0.24081
0.34880 0.25548 0.26173
0.41899 0.27729 0.28265
0.48919 0.29910 0.30357
0.55939 0.32092 0.32449
0.62958 0.34273 0.34541
0.14268 0.28961 0.24842
0.21288 0.31142 0.26934
0.28307 0.33323 0.29026
0.35327 0.35504 0.31118
0.42347 0.37686 0.33210
0.49366 0.39867 0.35302
0.56386 0.42048 0.37394
0.63405 0.44230 0.39486
0.70415 0.46415 0.41615
0.21735 0.41099 0.31880
0.28755 0.43280 0.33972
0.35774 0.45461 0.36064
0.42794 0.47642 0.38156
0.49813 0.49824 0.40248
0.56814 0.52014 0.42414
0.63808 0.54208 0.44608
0.70802 0.56402 0.46802
0.77796 0.58596 0.48996
0.29202 0.53237 0.38918
0.36219 0.55419 0.41019
0.43213 0.57613 0.43213
0.50207 0.59807 0.45407
0.57201 0.62001 0.47601
0.64195 0.64195 0.49795
0.71189 0.66389 0.51989
0.78183 0.68583 0.54183
0.85177 0.70777 0.56377
0.36606 0.65406 0.46206
0.43600 0.67600 0.48400
0.50594 0.69794 0.50594
0.57588 0.71988 0.52788
0.64582 0.74182 0.54982
0.71576 0.76376 0.57176
0.78570 0.78570 0.59370
0.85564 0.80764 0.61564
0.92558 0.82958 0.63758
0.43987 0.77587 0.53587
0.50981 0.79781 0.55781
0.57975 0.81975 0.57975
0.64969 0.84169 0.60169
0.71963 0.86363 0.62363
0.78957 0.88557 0.64557
0.85951 0.90751 0.66751
0.92945 0.92945 0.68945
0.99939 0.95139 0.71139
0.51368 0.89768 0.60968
0.58362 0.91962 0.63162
0.65356 0.94156 0.65356
0.72350 0.96350 0.67550
0.79344 0.98544 0.69744
0.86338 1.00000 0.71938
0.93332 1.00000 0.74132
1.00000 1.00000 0.76313
1.00000 1.00000 0.78481
0.00000 0.00000 0.09109
0.00000 0.00000 0.11278
0.06661 0.00000 0.13424
0.13681 0.00000 0.15516
0.20700 0.02013 0.17608
0.27720 0.04194 0.19700
0.34739 0.06375 0.21792
0.41759 0.08556 0.23884
0.48778 0.10738 0.25976
0.00089 0.05425 0.16278
0.07108 0.07607 0.18370
0.14128 0.09788 0.20462
0.21147 0.11969 0.22554
0.28167 0.14151 0.24646
0.35187 0.16332 0.26738
0.42206 0.18513 0.28830
0.49226 0.20694 0.30922
0.56245 0.22876 0.33014
0.07555 0.17563 0.23315
0.14575 0.19745 0.25407
0.21595 0.21926 0.27499
0.28614 0.24107 0.29591
0.35634 0.26289 0.31683
0.42653 0.28470 0.33775
0.49673 0.30651 0.35867
0.56692 0.32832 0.37959
0.63712 0.35014 0.40051
0.15022 0.29701 0.30353
0.22042 0.31883 0.32445
0.29061 0.34064 0.34537
0.36081 0.36245 0.36629
0.43100 0.38426 0.38721
0.50120 0.40608 0.40813
0.57139 0.42789 0.42905
0.64159 0.44970 0.44997
0.71161 0.47161 0.47161
0.22489 0.41839 0.37390
0.29508 0.44021 0.39482
0.36528 0.46202 0.41574
0.43547 0.48383 0.43666
0.50565 0.50565 0.45765
0.57559 0.52759 0.47959
0.64553 0.54953 0.50153
0.71547 0.57147 0.52347
0.78541 0.59341 0.54541
0.29956 0.53977 0.44428
0.36964 0.56164 0.46564
0.43958 0.58358 0.48758
0.50952 0.60552 0.50952
0.57946 0.62746 0.53146
0.64940 0.64940 0.55340
0.71934 0.67134 0.57534
0.78928 0.69328 0.59728
0.85922 0.71522 0.61922
0.37351 0.66151 0.51751
0.44345 0.68345 0.53945
0.51339 0.70539 0.56139
0.58333 0.72733 0.58333
0.65327 0.74927 0.60527
0.72321 0.77121 0.62721
0.79315 0.79315 0.64915
0.86309 0.81509 0.67109
0.93303 0.83703 0.69303
0.44732 0.78332 0.59132
0.51726 0.80526 0.61326
0.58720 0.82720 0.63520
0.65714 0.84914 0.65714
0.72708 0.87108 0.67908
0.79702 0.89302 0.70102
0.86696 0.91496 0.72296
0.93690 0.93690 0.74490
1.00000 0.95884 0.76684
0.52113 0.90513 0.66513
0.59107 0.92707 0.68707
0.66101 0.94901 0.70901
0.73095 0.97095 0.73095
0.80089 0.99289 0.75289
0.87083 1.00000 0.77483
0.94077 1.00000 0.79677
1.00000 1.00000 0.81849
1.00000 1.00000 0.84018
0.00000 0.00000 0.14646
0.00414 0.00000 0.16814
0.07415 0.00000 0.18935
0.14435 0.00572 0.21027
0.21454 0.02753 0.23119
0.28474 0.04935 0.25211
0.35493 0.07116 0.27302
0.42513 0.09297 0.29394
0.49532 0.11478 0.31486
0.00843 0.06166 0.21788
0.07862 0.08348 0.23880
0.14882 0.10529 0.25972
0.21901 0.12710 0.28064
0.28921 0.14891 0.30156
0.35940 0.17073 0.32248
0.42960 0.19254 0.34340
0.49979 0.21435 0.36432
0.56999 0.23616 0.38524
0.08309 0.18304 0.28826
0.15329 0.20485 0.30918
0.22348 0.22667 0.33010
0.29368 0.24848 0.35102
0.36387 0.27029 0.37194
0.43407 0.29211 0.39286
0.50427 0.31392 0.41378
0.57446 0.33573 0.43470
0.64466 0.35754 0.45562
0.15776 0.30442 0.35863
0.22795 0.32623 0.37955
0.29815 0.34805 0.40047
0.36835 0.36986 0.42139
0.43854 0.39167 0.44231
0.50874 0.41349 0.46323
0.57893 0.43530 0.48415
0.64912 0.45712 0.50512
0.71906 0.47906 0.52706
0.23243 0.42580 0.42901
0.30262 0.44761 0.44993
0.37282 0.46943 0.47085
0.44301 0.49124 0.49177
0.51310 0.51310 0.51310
0.58304 0.53504 0.53504
0.65298 0.55698 0.55698
0.72292 0.57892 0.57892
0.79287 0.60087 0.60087
0.30709 0.54718 0.49938
0.37709 0.56909 0.52109
0.44703 0.59103 0.54303
0.51697 0.61297 0.56497
0.58691 0.63491 0.58691
0.65685 0.65685 0.60885
0.72679 0.67879 0.63079
0.79673 0.70073 0.65273
0.86667 0.72267 0.67467
0.38096 0.66896 0.57296
0.45090 0.69090 0.59490
0.52084 0.71284 0.61684
0.59078 0.73478 0.63878
0.66072 0.75672 0.66072
0.73066 0.77866 0.68266
0.80060 0.80060 0.70460
0.87054 0.82254 0.72654
0.94048 0.84448 0.74848
0.45477 0.79077 0.64677
0.52471 0.81271 0.66871
0.59465 0.83465 0.69065
0.66459 0.85659 0.71259
0.73453 0.87853 0.73453
0.80447 0.90047 0.75647
0.87441 0.92241 0.77841
0.94435 0.94435 0.80035
1.00000 0.96629 0.82229
0.52858 0.91258 0.72058
0.59852 0.93452 0.74252
0.66846 0.95646 0.76446
0.73840 0.97840 0.78640
0.80834 1.00000 0.80834
0.87828 1.00000 0.83028
0.94817 1.00000 0.85217
1.00000 1.00000 0.87386
1.00000 1.00000 0.89554
0.00000 0.00000 0.20182
0.01151 0.00000 0.22351
0.08169 0.00000 0.24445
0.15188 0.01313 0.26537
0.22208 0.03494 0.28629
0.29227 0.05675 0.30721
0.36247 0.07857 0.32813
0.43266 0.10038 0.34905
0.50286 0.12219 0.36997
0.01596 0.06907 0.27299
0.08616 0.09088 0.29391
0.15635 0.11270 0.31483
0.22655 0.13451 0.33575
0.29675 0.15632 0.35667
0.36694 0.17813 0.37759
0.43714 0.19995 0.39851
0.50733 0.22176 0.41942
0.57753 0.24357 0.44034
0.09063 0.19045 0.34336
0.16083 0.21226 0.36428
0.23102 0.23408 0.38520
0.30122 0.25589 0.40612
0.37141 0.27770 0.42704
0.44161 0.29951 0.44796
0.51180 0.32133 0.46888
0.58200 0.34314 0.48980
0.65219 0.36495 0.51072
0.16530 0.31183 0.41374
0.23549 0.33364 0.43466
0.30569 0.35545 0.45558
0.37588 0.37727 0.47650
0.44608 0.39908 0.49742
0.51627 0.42089 0.51834
0.58647 0.44271 0.53926
0.65657 0.46457 0.56057
0.72651 0.48651 0.58251
0.23996 0.43321 0.48411
0.31016 0.45502 0.50503
0.38035 0.47683 0.52595
0.45055 0.49865 0.54687
0.52056 0.52056 0.56856
0.59050 0.54250 0.59050
0.66044 0.56444 0.61244
0.73038 0.58638 0.63438
0.80032 0.60832 0.65632
0.31460 0.55460 0.55460
0.38454 0.57654 0.57654
0.45448 0.59848 0.59848
0.52442 0.62042 0.62042
0.59436 0.64236 0.64236
0.66430 0.66430 0.66430
0.73424 0.68624 0.68624
0.80418 0.70818 0.70818
0.87412 0.73012 0.73012
0.38841 0.67641 0.62841
0.45835 0.69835 0.65035
0.52829 0.72029 0.67229
0.59823 0.74223 0.69423
0.66817 0.76417 0.71617
0.73811 0.78611 0.73811
0.80805 0.80805 0.76005
0.87799 0.82999 0.78199
0.94793 0.85193 0.80393
0.46222 0.79822 0.70222
0.53216 0.82016 0.72416
0.60210 0.84210 0.74610
0.67204 0.86404 0.76804
0.74198 0.88598 0.78998
0.81192 0.90792 0.81192
0.88186 0.92986 0.83386
0.95180 0.95180 0.85580
1.00000 0.97374 0.87774
0.53603 0.92003 0.77603
0.60597 0.94197 0.79797
0.67591 0.96391 0.81991
0.74585 0.98585 0.84185
0.81579 1.00000 0.86379
0.88573 1.00000 0.88573
0.95554 1.00000 0.90754
1.00000 1.00000 0.92922
1.00000 1.00000 0.95091
0.00000 0.00000 0.25719
0.01903 0.00000 0.27863
0.08922 0.00000 0.29955
0.15942 0.02054 0.32047
0.22962 0.04235 0.34139
0.29981 0.06416 0.36231
0.37001 0.08597 0.38323
0.44020 0.10779 0.40415
0.51040 0.12960 0.42507
0.02350 0.07648 0.32809
0.09370 0.09829 0.34901
0.16389 0.12010 0.36993
0.23409 0.14192 0.39085
0.30428 0.16373 0.41177
0.37448 0.18554 0.43269
0.44467 0.20735 0.45361
0.51487 0.22917 0.47453
0.58506 0.25098 0.49545
0.09817 0.19786 0.39847
0.16836 0.21967 0.41939
0.23856 0.24148 0.44031
0.30875 0.26330 0.46123
0.37895 0.28511 0.48215
0.44915 0.30692 0.50307
0.51934 0.32873 0.52399
0.58954 0.35055 0.54491
0.65973 0.37236 0.56582
0.17283 0.31924 0.46884
0.24303 0.34105 0.48976
0.31323 0.36286 0.51068
0.38342 0.38468 0.53160
0.45362 0.40649 0.55252
0.52381 0.42830 0.57344
0.59401 0.45011 0.59436
0.66402 0.47202 0.61602
0.73396 0.49396 0.63796
0.24750 0.44062 0.53922
0.31770 0.46243 0.56014
0.38789 0.48424 0.58106
0.45807 0.50607 0.60207
0.52801 0.52801 0.62401
0.59795 0.54995 0.64595
0.66789 0.57189 0.66789
0.73783 0.59383 0.68983
0.80777 0.61577 0.71177
0.32205 0.56205 0.61005
0.39199 0.58399 0.63199
0.46193 0.60593 0.65393
0.53187 0.62787 0.67587
0.60181 0.64981 0.69781
0.67176 0.67176 0.71976
0.74170 0.69370 0.74170
0.81164 0.71564 0.76364
0.88158 0.73758 0.78558
0.39586 0.68386 0.68386
0.46580 0.70580 0.70580
0.53574 0.72774 0.72774
0.60568 0.74968 0.74968
0.67562 0.77162 0.77162
0.74556 0.79356 0.79356
0.81550 0.81550 0.81550
0.88544 0.83744 0.83744
0.95538 0.85938 0.85938
0.46967 0.80567 0.75767
0.53961 0.82761 0.77961
0.60955 0.84955 0.80155
0.67949 0.87149 0.82349
0.74943 0.89343 0.84543
0.81937 0.91537 0.86737
0.88931 0.93731 0.88931
0.95925 0.95925 0.91125
1.00000 0.98119 0.93319
0.54348 0.92748 0.83148
0.61342 0.94942 0.85342
0.68336 0.97136 0.87536
0.75330 0.99330 0.89730
0.82324 1.00000 0.91924
0.89318 1.00000 0.94118
0.96290 1.00000 0.96290
1.00000 1.00000 0.98459
1.00000 1.00000 1.00000
0.00000 0.00000 0.31255
0.02657 0.00000 0.33374
0.09676 0.00613 0.35466
0.16696 0.02794 0.37558
0.23715 0.04976 0.39650
0.30735 0.07157 0.41742
0.37754 0.09338 0.43834
0.44774 0.11520 0.45926
0.51794 0.13701 0.48018
0.03104 0.08389 0.38320
0.10123 0.10570 0.40411
0.17143 0.12751 0.42503
0.24162 0.14932 0.44595
0.31182 0.17114 0.46687
0.38202 0.19295 0.48779
0.45221 0.21476 0.50871
0.52241 0.23657 0.52963
0.59260 0.25839 0.55055
0.10571 0.20527 0.45357
0.17590 0.22708 0.47449
0.24610 0.24889 0.49541
0.31629 0.27070 0.51633
0.38649 0.29252 0.53725
0.45668 0.31433 0.55817
0.52688 0.33614 0.57909
0.59707 0.35795 0.60001
0.66727 0.37977 0.62093
0.18037 0.32664 0.52395
0.25057 0.34846 0.54487
0.32076 0.37027 0.56579
0.39096 0.39208 0.58671
0.46115 0.41390 0.60763
0.53135 0.43571 0.62855
0.60153 0.45753 0.64953
0.67147 0.47947 0.67147
0.74141 0.50141 0.69341
0.25504 0.44802 0.59432
0.32523 0.46984 0.61524
0.39543 0.49165 0.63616
0.46552 0.51352 0.65752
0.53546 0.53546 0.67946
0.60540 0.55740 0.70140
0.67534 0.57934 0.72334
0.74528 0.60128 0.74528
0.81522 0.62322 0.76722
0.32950 0.56950 0.66550
0.39944 0.59144 0.68744
0.46939 0.61339 0.70939
0.53933 0.63533 0.73133
0.60927 0.65727 0.75327
0.67921 0.67921 0.77521
0.74915 0.70115 0.79715
0.81909 0.72309 0.81909
0.88903 0.74503 0.84103
0.40331 0.69131 0.73931
0.47325 0.71325 0.76125
0.54319 0.73519 0.78319
0.61313 0.75713 0.80513
0.68307 0.77907 0.82707
0.75301 0.80101 0.84901
0.82296 0.82296 0.87096
0.89290 0.84490 0.89290
0.96284 0.86684 0.91484
0.47712 0.81312 0.81312
0.54706 0.83506 0.83506
0.61700 0.85700 0.85700
0.68694 0.87894 0.87894
0.75688 0.90088 0.90088
0.82682 0.92282 0.92282
0.89676 0.94476 0.94476
0.96670 0.96670 0.96670
1.00000 0.98864 0.98864
0.55093 0.93493 0.88693
0.62087 0.95687 0.90887
0.69081 0.97881 0.93081
0.76075 1.00000 0.95275
0.83069 1.00000 0.97469
0.90058 1.00000 0.99658
0.97027 1.00000 1.00000
1.00000 1.00000 1.00000
1.00000 1.00000 1.00000
0.00000 0.00000 0.36792
0.03410 0.00000 0.38884
0.10430 0.01354 0.40976
0.17450 0.03535 0.43068
0.24469 0.05716 0.45160
0.31489 0.07898 0.47252
0.38508 0.10079 0.49344
0.45528 0.12260 0.51436
0.52547 0.14442 0.53528
0.03858 0.09129 0.43830
0.10877 0.11311 0.45922
0.17897 0.13492 0.48014
0.24916 0.15673 0.50106
0.31936 0.17854 0.52198
0.38955 0.20036 0.54290
0.45975 0.22217 0.56382
0.52994 0.24398 0.58474
0.60014 0.26580 0.60566
0.11324 0.21267 0.50868
0.18344 0.23449 0.52960
0.25363 0.25630 0.55051
0.32383 0.27811 0.57143
0.39402 0.29992 0.59235
0.46422 0.32174 0.61327
0.53442 0.34355 0.63419
0.60461 0.36536 0.65511
0.67481 0.38717 0.67603
0.18791 0.33405 0.57905
0.25811 0.35587 0.59997
0.32830 0.37768 0.62089
0.39850 0.39949 0.64181
0.46869 0.42130 0.66273
0.53889 0.44312 0.68365
0.60898 0.46498 0.70498
0.67892 0.48692 0.72692
0.74886 0.50886 0.74886
0.26258 0.45543 0.64943
0.33277 0.47724 0.67035
0.40297 0.49906 0.69127
0.47297 0.52097 0.71297
0.54291 0.54291 0.73491
0.61285 0.56485 0.75685
0.68279 0.58679 0.77879
0.75273 0.60873 0.80073
0.82267 0.63067 0.82267
0.33696 0.57696 0.72096
0.40690 0.59890 0.74290
0.47684 0.62084 0.76484
0.54678 0.64278 0.78678
0.61672 0.66472 0.80872
0.68666 0.68666 0.83066
0.75660 0.70860 0.85260
0.82654 0.73054 0.87454
0.89648 0.75248 0.89648
0.41076 0.69876 0.79476
0.48070 0.72070 0.81670
0.55064 0.74264 0.83864
0.62059 0.76459 0.86059
0.69053 0.78653 0.88253
0.76047 0.80847 0.90447
0.83041 0.83041 0.92641
0.90035 0.85235 0.94835
0.97029 0.87429 0.97029
0.48457 0.82057 0.86857
0.55451 0.84251 0.89051
0.62445 0.86445 0.91245
0.69439 0.88639 0.93439
0.76433 0.90833 0.95633
0.83427 0.93027 0.97827
0.90421 0.95221 1.00000
0.97416 0.97416 1.00000
1.00000 0.99605 1.00000
0.55838 0.94238 0.94238
0.62832 0.96432 0.96432
0.69826 0.98626 0.98626
0.76820 1.00000 1.00000
0.83814 1.00000 1.00000
0.90794 1.00000 1.00000
0.97763 1.00000 1.00000
1.00000 1.00000 1.00000
1.00000 1.00000 1.00000
