boundlessjs/public/luts/noir_cool.cube
TITLE "noir_cool"
LUT_3D_SIZE 5
0.00000 0.00000 0.00000
0.04437 0.00000 0.00000
0.18439 0.00000 0.01077
0.32478 0.04153 0.05261
0.46517 0.08515 0.09445
0.05294 0.15341 0.06784
0.19333 0.19704 0.10968
0.33372 0.24066 0.15152
0.47411 0.28429 0.19336
0.61451 0.32791 0.23520
0.20228 0.39617 0.20859
0.34267 0.43980 0.25043
0.48306 0.48342 0.29227
0.62318 0.52718 0.33518
0.76306 0.57106 0.37906
0.35116 0.63916 0.35116
0.49104 0.68304 0.39504
0.63092 0.72692 0.43892
0.77080 0.77080 0.48280
0.91068 0.81468 0.52668
0.49877 0.88277 0.49877
0.63865 0.92665 0.54265
0.77853 0.97053 0.58653
0.91842 1.00000 0.63042
1.00000 1.00000 0.67408
0.00000 0.00000 0.03573
0.05910 0.00000 0.07910
0.19947 0.01272 0.12098
0.33986 0.05634 0.16282
0.48025 0.09997 0.20466
0.06802 0.16823 0.17805
0.20841 0.21185 0.21989
0.34880 0.25548 0.26173
0.48919 0.29910 0.30357
0.62958 0.34273 0.34541
0.21735 0.41099 0.31880
0.35774 0.45461 0.36064
0.49813 0.49824 0.40248
0.63808 0.54208 0.44608
0.77796 0.58596 0.48996
0.36606 0.65406 0.46206
0.50594 0.69794 0.50594
0.64582 0.74182 0.54982
0.78570 0.78570 0.59370
0.92558 0.82958 0.63758
0.51368 0.89768 0.60968
0.65356 0.94156 0.65356
0.79344 0.98544 0.69744
0.93332 1.00000 0.74132
1.00000 1.00000 0.78481
0.00000 0.00000 0.14646
0.07415 0.00000 0.18935
0.21454 0.02753 0.23119
0.35493 0.07116 0.27302
0.49532 0.11478 0.31486
0.08309 0.18304 0.28826
0.22348 0.22667 0.33010
0.36387 0.27029 0.37194
0.50427 0.31392 0.41378
0.64466 0.35754 0.45562
0.23243 0.42580 0.42901
0.37282 0.46943 0.47085
0.51310 0.51310 0.51310
0.65298 0.55698 0.55698
0.79287 0.60087 0.60087
0.38096 0.66896 0.57296
0.52084 0.71284 0.61684
0.66072 0.75672 0.66072
0.80060 0.80060 0.70460
0.94048 0.84448 0.74848
0.52858 0.91258 0.72058
0.66846 0.95646 0.76446
0.80834 1.00000 0.80834
0.94817 1.00000 0.85217
1.00000 1.00000 0.89554
0.00000 0.00000 0.25719
0.08922 0.00000 0.29955
0.22962 0.04235 0.34139
0.37001 0.08597 0.38323
0.51040 0.12960 0.42507
0.09817 0.19786 0.39847
0.23856 0.24148 0.44031
0.37895 0.28511 0.48215
0.51934 0.32873 0.52399
0.65973 0.37236 0.56582
0.24750 0.44062 0.53922
0.38789 0.48424 0.58106
0.52801 0.52801 0.62401
0.66789 0.57189 0.66789
0.80777 0.61577 0.71177
0.39586 0.68386 0.68386
0.53574 0.72774 0.72774
0.67562 0.77162 0.77162
0.81550 0.81550 0.81550
0.95538 0.85938 0.85938
0.54348 0.92748 0.83148
0.68336 0.97136 0.87536
0.82324 1.00000 0.91924
0.96290 1.00000 0.96290
1.00000 1.00000 1.00000
0.00000 0.00000 0.36792
0.10430 0.01354 0.40976
0.24469 0.05716 0.45160
0.38508 0.10079 0.49344
0.52547 0.14442 0.53528
0.11324 0.21267 0.50868
0.25363 0.25630 0.55051
0.39402 0.29992 0.59235
0.53442 0.34355 0.63419
0.67481 0.38717 0.67603
0.26258 0.45543 0.64943
0.40297 0.49906 0.69127
0.54291 0.54291 0.73491
0.68279 0.58679 0.77879
0.82267 0.63067 0.82267
0.41076 0.69876 0.79476
0.55064 0.74264 0.83864
0.69053 0.78653 0.88253
0.83041 0.83041 0.92641
0.97029 0.87429 0.97029
0.55838 0.94238 0.94238
0.69826 0.98626 0.98626
0.83814 1.00000 1.00000
0.97763 1.00000 1.00000
1.00000 1.00000 1.00000
