boundlessjs/public/luts/noir_cool.cube
TITLE "noir_cool"
LUT_3D_SIZE 33
0.00000 0.00000 0.00000
0.00000 0.00000 0.00000
0.00000 0.00000 0.00000
0.00000 0.00000 0.00000
0.00000 0.00000 0.00000
0.00000 0.00000 0.00000
0.00953 0.00000 0.00000
0.02695 0.00000 0.00000
0.04437 0.00000 0.00000
0.06179 0.00000 0.00000
0.07921 0.00000 0.00000
0.09665 0.00000 0.00000
0.11419 0.00000 0.00000
0.13174 0.00000 0.00000
0.14929 0.00000 0.00031
0.16684 0.00000 0.00554
0.18439 0.00000 0.01077
0.20194 0.00336 0.01600
0.21949 0.00881 0.02123
0.23704 0.01426 0.02646
0.25459 0.01972 0.03169
0.27213 0.02517 0.03692
0.28968 0.03062 0.04215
0.30723 0.03608 0.04738
0.32478 0.04153 0.05261
0.34233 0.04698 0.05784
0.35988 0.05243 0.06307
0.37743 0.05789 0.06830
0.39498 0.06334 0.07353
0.41252 0.06879 0.07876
0.43007 0.07425 0.08399
0.44762 0.07970 0.08922
0.46517 0.08515 0.09445
0.00000 0.00000 0.00000
0.00000 0.00000 0.00000
0.00000 0.00000 0.00000
0.00000 0.00000 0.00000
0.00000 0.00000 0.00000
0.01034 0.00000 0.00000
0.02777 0.00000 0.00000
0.04519 0.00000 0.00000
0.06267 0.00000 0.00000
0.08021 0.00000 0.00000
0.09776 0.00000 0.00000
0.11531 0.00098 0.00221
0.13286 0.00644 0.00744
0.15041 0.01189 0.01267
0.16796 0.01734 0.01790
0.18551 0.02279 0.02313
0.20306 0.02825 0.02836
0.22061 0.03370 0.03359
0.23815 0.03915 0.03882
0.25570 0.04461 0.04405
0.27325 0.05006 0.04928
0.29080 0.05551 0.05451
0.30835 0.06097 0.05974
0.32590 0.06642 0.06497
0.34345 0.07187 0.07020
0.36100 0.07733 0.07543
0.37855 0.08278 0.08066
0.39609 0.08823 0.08589
0.41364 0.09369 0.09112
0.43119 0.09914 0.09635
0.44874 0.10459 0.10158
0.46629 0.11005 0.10681
0.48384 0.11550 0.11204
0.00000 0.00000 0.00000
0.00000 0.00000 0.00000
0.00000 0.00000 0.00000
0.00000 0.00000 0.00000
0.01116 0.00000 0.00000
0.02869 0.00000 0.00000
0.04623 0.00406 0.00000
0.06378 0.00951 0.00000
0.08133 0.01497 0.00412
0.09888 0.02042 0.00935
0.11643 0.02587 0.01458
0.13398 0.03133 0.01981
0.15153 0.03678 0.02504
0.16908 0.04223 0.03027
0.18663 0.04769 0.03550
0.20417 0.05314 0.04073
0.22172 0.05859 0.04596
0.23927 0.06405 0.05119
0.25682 0.06950 0.05642
0.27437 0.07495 0.06165
0.29192 0.08041 0.06688
0.30947 0.08586 0.07211
0.32702 0.09131 0.07733
0.34457 0.09677 0.08256
0.36211 0.10222 0.08779
0.37966 0.10767 0.09302
0.39721 0.11312 0.09825
0.41476 0.11858 0.10348
0.43231 0.12403 0.10871
0.44986 0.12948 0.11394
0.46741 0.13494 0.11917
0.48496 0.14039 0.12440
0.50250 0.14584 0.12963
0.00000 0.00171 0.00000
0.00000 0.00714 0.00000
0.00000 0.01259 0.00000
0.01225 0.01805 0.00000
0.02980 0.02350 0.00079
0.04735 0.02895 0.00602
0.06490 0.03441 0.01125
0.08245 0.03986 0.01648
0.10000 0.04531 0.02171
0.11755 0.05077 0.02694
0.13510 0.05622 0.03217
0.15265 0.06167 0.03740
0.17019 0.06712 0.04263
0.18774 0.07258 0.04786
0.20529 0.07803 0.05309
0.22284 0.08348 0.05832
0.24039 0.08894 0.06355
0.25794 0.09439 0.06878
0.27549 0.09984 0.07401
0.29304 0.10530 0.07924
0.31059 0.11075 0.08447
0.32813 0.11620 0.08970
0.34568 0.12166 0.09493
0.36323 0.12711 0.10016
0.38078 0.13256 0.10539
0.39833 0.13802 0.11062
0.41588 0.14347 0.11585
0.43343 0.14892 0.12108
0.45098 0.15438 0.12631
0.46853 0.15983 0.13154
0.48607 0.16528 0.13677
0.50362 0.17074 0.14200
0.52117 0.17619 0.14723
0.00000 0.03203 0.00000
0.00000 0.03748 0.00269
0.01337 0.04294 0.00792
0.03092 0.04839 0.01315
0.04847 0.05384 0.01838
0.06602 0.05930 0.02361
0.08357 0.06475 0.02884
0.10112 0.07020 0.03407
0.11867 0.07566 0.03930
0.13621 0.08111 0.04453
0.15376 0.08656 0.04976
0.17131 0.09202 0.05499
0.18886 0.09747 0.06022
0.20641 0.10292 0.06545
0.22396 0.10838 0.07068
0.24151 0.11383 0.07591
0.25906 0.11928 0.08114
0.27661 0.12474 0.08637
0.29415 0.13019 0.09160
0.31170 0.13564 0.09683
0.32925 0.14110 0.10206
0.34680 0.14655 0.10729
0.36435 0.15200 0.11252
0.38190 0.15745 0.11775
0.39945 0.16291 0.12298
0.41700 0.16836 0.12821
0.43455 0.17381 0.13344
0.45209 0.17927 0.13867
0.46964 0.18472 0.14390
0.48719 0.19017 0.14913
0.50474 0.19563 0.15436
0.52229 0.20108 0.15959
0.53984 0.20653 0.16482
0.00000 0.06238 0.01506
0.01449 0.06783 0.02029
0.03204 0.07328 0.02552
0.04959 0.07874 0.03075
0.06714 0.08419 0.03598
0.08469 0.08964 0.04121
0.10223 0.09510 0.04644
0.11978 0.10055 0.05167
0.13733 0.10600 0.05690
0.15488 0.11146 0.06213
0.17243 0.11691 0.06736
0.18998 0.12236 0.07259
0.20753 0.12781 0.07782
0.22508 0.13327 0.08305
0.24263 0.13872 0.08828
0.26017 0.14417 0.09351
0.27772 0.14963 0.09874
0.29527 0.15508 0.10397
0.31282 0.16053 0.10920
0.33037 0.16599 0.11443
0.34792 0.17144 0.11966
0.36547 0.17689 0.12489
0.38302 0.18235 0.13012
0.40057 0.18780 0.13535
0.41811 0.19325 0.14058
0.43566 0.19871 0.14581
0.45321 0.20416 0.15104
0.47076 0.20961 0.15627
0.48831 0.21507 0.16150
0.50586 0.22052 0.16673
0.52341 0.22597 0.17196
0.54096 0.23143 0.17719
0.55851 0.23688 0.18242
0.01561 0.09272 0.03265
0.03316 0.09817 0.03788
0.05071 0.10363 0.04311
0.06825 0.10908 0.04834
0.08580 0.11453 0.05357
0.10335 0.11999 0.05880
0.12090 0.12544 0.06403
0.13845 0.13089 0.06926
0.15600 0.13635 0.07449
0.17355 0.14180 0.07972
0.19110 0.14725 0.08495
0.20865 0.15271 0.09018
0.22619 0.15816 0.09541
0.24374 0.16361 0.10064
0.26129 0.16907 0.10587
0.27884 0.17452 0.11110
0.29639 0.17997 0.11633
0.31394 0.18543 0.12156
0.33149 0.19088 0.12679
0.34904 0.19633 0.13202
0.36659 0.20179 0.13725
0.38413 0.20724 0.14248
0.40168 0.21269 0.14771
0.41923 0.21814 0.15294
0.43678 0.22360 0.15817
0.45433 0.22905 0.16340
0.47188 0.23450 0.16863
0.48943 0.23996 0.17386
0.50698 0.24541 0.17909
0.52453 0.25086 0.18432
0.54207 0.25632 0.18955
0.55962 0.26177 0.19478
0.57717 0.26722 0.20001
0.03428 0.12307 0.05025
0.05182 0.12852 0.05548
0.06937 0.13397 0.06071
0.08692 0.13943 0.06594
0.10447 0.14488 0.07117
0.12202 0.15033 0.07640
0.13957 0.15579 0.08163
0.15712 0.16124 0.08686
0.17467 0.16669 0.09209
0.19221 0.17214 0.09732
0.20976 0.17760 0.10255
0.22731 0.18305 0.10778
0.24486 0.18850 0.11300
0.26241 0.19396 0.11823
0.27996 0.19941 0.12346
0.29751 0.20486 0.12869
0.31506 0.21032 0.13392
0.33261 0.21577 0.13915
0.35015 0.22122 0.14438
0.36770 0.22668 0.14961
0.38525 0.23213 0.15484
0.40280 0.23758 0.16007
0.42035 0.24304 0.16530
0.43790 0.24849 0.17053
0.45545 0.25394 0.17576
0.47300 0.25940 0.18099
0.49055 0.26485 0.18622
0.50809 0.27030 0.19145
0.52564 0.27576 0.19668
0.54319 0.28121 0.20191
0.56074 0.28666 0.20714
0.57829 0.29212 0.21237
0.59584 0.29757 0.21760
0.05294 0.15341 0.06784
0.07049 0.15886 0.07307
0.08804 0.16432 0.07830
0.10559 0.16977 0.08353
0.12314 0.17522 0.08876
0.14069 0.18068 0.09399
0.15823 0.18613 0.09922
0.17578 0.19158 0.10445
0.19333 0.19704 0.10968
0.21088 0.20249 0.11491
0.22843 0.20794 0.12014
0.24598 0.21340 0.12537
0.26353 0.21885 0.13060
0.28108 0.22430 0.13583
0.29863 0.22976 0.14106
0.31617 0.23521 0.14629
0.33372 0.24066 0.15152
0.35127 0.24612 0.15675
0.36882 0.25157 0.16198
0.38637 0.25702 0.16721
0.40392 0.26247 0.17244
0.42147 0.26793 0.17767
0.43902 0.27338 0.18290
0.45657 0.27883 0.18813
0.47411 0.28429 0.19336
0.49166 0.28974 0.19859
0.50921 0.29519 0.20382
0.52676 0.30065 0.20905
0.54431 0.30610 0.21428
0.56186 0.31155 0.21951
0.57941 0.31701 0.22474
0.59696 0.32246 0.22997
0.61451 0.32791 0.23520
0.07161 0.18376 0.08543
0.08916 0.18921 0.09066
0.10671 0.19466 0.09589
0.12426 0.20012 0.10112
0.14180 0.20557 0.10635
0.15935 0.21102 0.11158
0.17690 0.21648 0.11681
0.19445 0.22193 0.12204
0.21200 0.22738 0.12727
0.22955 0.23283 0.13250
0.24710 0.23829 0.13773
0.26465 0.24374 0.14296
0.28219 0.24919 0.14819
0.29974 0.25465 0.15342
0.31729 0.26010 0.15865
0.33484 0.26555 0.16388
0.35239 0.27101 0.16911
0.36994 0.27646 0.17434
0.38749 0.28191 0.17957
0.40504 0.28737 0.18480
0.42259 0.29282 0.19003
0.44013 0.29827 0.19526
0.45768 0.30373 0.20049
0.47523 0.30918 0.20572
0.49278 0.31463 0.21095
0.51033 0.32009 0.21618
0.52788 0.32554 0.22141
0.54543 0.33099 0.22664
0.56298 0.33645 0.23187
0.58053 0.34190 0.23710
0.59807 0.34735 0.24233
0.61562 0.35280 0.24756
0.63317 0.35826 0.25279
0.09028 0.21410 0.10303
0.10782 0.21955 0.10826
0.12537 0.22501 0.11349
0.14292 0.23046 0.11872
0.16047 0.23591 0.12395
0.17802 0.24137 0.12918
0.19557 0.24682 0.13441
0.21312 0.25227 0.13964
0.23067 0.25773 0.14487
0.24821 0.26318 0.15010
0.26576 0.26863 0.15533
0.28331 0.27409 0.16056
0.30086 0.27954 0.16579
0.31841 0.28499 0.17102
0.33596 0.29045 0.17625
0.35351 0.29590 0.18148
0.37106 0.30135 0.18671
0.38861 0.30681 0.19194
0.40615 0.31226 0.19717
0.42370 0.31771 0.20240
0.44125 0.32316 0.20763
0.45880 0.32862 0.21286
0.47635 0.33407 0.21809
0.49390 0.33952 0.22332
0.51145 0.34498 0.22855
0.52900 0.35043 0.23378
0.54655 0.35588 0.23901
0.56409 0.36134 0.24424
0.58164 0.36679 0.24947
0.59919 0.37224 0.25470
0.61674 0.37770 0.25993
0.63429 0.38315 0.26516
0.65184 0.38860 0.27039
0.10894 0.24445 0.12062
0.12649 0.24990 0.12585
0.14404 0.25535 0.13108
0.16159 0.26081 0.13631
0.17914 0.26626 0.14154
0.19669 0.27171 0.14677
0.21424 0.27716 0.15200
0.23178 0.28262 0.15723
0.24933 0.28807 0.16246
0.26688 0.29352 0.16769
0.28443 0.29898 0.17292
0.30198 0.30443 0.17815
0.31953 0.30988 0.18338
0.33708 0.31534 0.18861
0.35463 0.32079 0.19384
0.37217 0.32624 0.19907
0.38972 0.33170 0.20430
0.40727 0.33715 0.20953
0.42482 0.34260 0.21476
0.44237 0.34806 0.21999
0.45992 0.35351 0.22522
0.47747 0.35896 0.23045
0.49502 0.36442 0.23568
0.51257 0.36987 0.24091
0.53011 0.37532 0.24614
0.54766 0.38078 0.25137
0.56521 0.38623 0.25660
0.58276 0.39168 0.26183
0.60031 0.39713 0.26706
0.61786 0.40259 0.27229
0.63541 0.40804 0.27752
0.65296 0.41349 0.28275
0.67051 0.41895 0.28798
0.12761 0.27479 0.13822
0.14516 0.28024 0.14345
0.16271 0.28570 0.14867
0.18026 0.29115 0.15390
0.19780 0.29660 0.15913
0.21535 0.30206 0.16436
0.23290 0.30751 0.16959
0.25045 0.31296 0.17482
0.26800 0.31842 0.18005
0.28555 0.32387 0.18528
0.30310 0.32932 0.19051
0.32065 0.33478 0.19574
0.33819 0.34023 0.20097
0.35574 0.34568 0.20620
0.37329 0.35114 0.21143
0.39084 0.35659 0.21666
0.40839 0.36204 0.22189
0.42594 0.36749 0.22712
0.44349 0.37295 0.23235
0.46104 0.37840 0.23758
0.47859 0.38385 0.24281
0.49613 0.38931 0.24804
0.51368 0.39476 0.25327
0.53123 0.40021 0.25850
0.54878 0.40567 0.26373
0.56633 0.41112 0.26896
0.58388 0.41657 0.27419
0.60143 0.42203 0.27942
0.61898 0.42748 0.28465
0.63653 0.43293 0.28988
0.65407 0.43839 0.29511
0.67162 0.44384 0.30034
0.68917 0.44929 0.30557
0.14628 0.30514 0.15581
0.16382 0.31059 0.16104
0.18137 0.31604 0.16627
0.19892 0.32150 0.17150
0.21647 0.32695 0.17673
0.23402 0.33240 0.18196
0.25157 0.33785 0.18719
0.26912 0.34331 0.19242
0.28667 0.34876 0.19765
0.30422 0.35421 0.20288
0.32176 0.35967 0.20811
0.33931 0.36512 0.21334
0.35686 0.37057 0.21857
0.37441 0.37603 0.22380
0.39196 0.38148 0.22903
0.40951 0.38693 0.23426
0.42706 0.39239 0.23949
0.44461 0.39784 0.24472
0.46215 0.40329 0.24995
0.47970 0.40875 0.25518
0.49725 0.41420 0.26041
0.51480 0.41965 0.26564
0.53235 0.42511 0.27087
0.54990 0.43056 0.27610
0.56745 0.43601 0.28133
0.58500 0.44147 0.28656
0.60255 0.44692 0.29179
0.62009 0.45237 0.29702
0.63764 0.45782 0.30225
0.65519 0.46328 0.30748
0.67273 0.46873 0.31273
0.69022 0.47422 0.31822
0.70770 0.47970 0.32370
0.16494 0.33548 0.17340
0.18249 0.34093 0.17863
0.20004 0.34639 0.18386
0.21759 0.35184 0.18909
0.23514 0.35729 0.19432
0.25269 0.36275 0.19955
0.27024 0.36820 0.20478
0.28778 0.37365 0.21001
0.30533 0.37911 0.21524
0.32288 0.38456 0.22047
0.34043 0.39001 0.22570
0.35798 0.39547 0.23093
0.37553 0.40092 0.23616
0.39308 0.40637 0.24139
0.41063 0.41182 0.24662
0.42817 0.41728 0.25185
0.44572 0.42273 0.25708
0.46327 0.42818 0.26231
0.48082 0.43364 0.26754
0.49837 0.43909 0.27277
0.51592 0.44454 0.27800
0.53347 0.45000 0.28323
0.55102 0.45545 0.28846
0.56857 0.46090 0.29369
0.58611 0.46636 0.29892
0.60366 0.47181 0.30415
0.62121 0.47726 0.30938
0.63873 0.48273 0.31473
0.65622 0.48822 0.32022
0.67370 0.49370 0.32570
0.69119 0.49919 0.33119
0.70867 0.50467 0.33667
0.72616 0.51016 0.34216
0.18361 0.36583 0.19100
0.20116 0.37128 0.19623
0.21871 0.37673 0.20146
0.23626 0.38218 0.20669
0.25380 0.38764 0.21192
0.27135 0.39309 0.21715
0.28890 0.39854 0.22238
0.30645 0.40400 0.22761
0.32400 0.40945 0.23284
0.34155 0.41490 0.23807
0.35910 0.42036 0.24330
0.37665 0.42581 0.24853
0.39420 0.43126 0.25376
0.41174 0.43672 0.25899
0.42929 0.44217 0.26422
0.44684 0.44762 0.26945
0.46439 0.45308 0.27468
0.48194 0.45853 0.27991
0.49949 0.46398 0.28514
0.51704 0.46944 0.29037
0.53459 0.47489 0.29560
0.55213 0.48034 0.30083
0.56968 0.48580 0.30606
0.58723 0.49125 0.31129
0.60473 0.49673 0.31673
0.62221 0.50221 0.32221
0.63970 0.50770 0.32770
0.65718 0.51318 0.33318
0.67467 0.51867 0.33867
0.69215 0.52415 0.34415
0.70964 0.52964 0.34964
0.72712 0.53512 0.35512
0.74461 0.54061 0.36061
0.20228 0.39617 0.20859
0.21982 0.40162 0.21382
0.23737 0.40708 0.21905
0.25492 0.41253 0.22428
0.27247 0.41798 0.22951
0.29002 0.42344 0.23474
0.30757 0.42889 0.23997
0.32512 0.43434 0.24520
0.34267 0.43980 0.25043
0.36022 0.44525 0.25566
0.37776 0.45070 0.26089
0.39531 0.45616 0.26612
0.41286 0.46161 0.27135
0.43041 0.46706 0.27658
0.44796 0.47251 0.28181
0.46551 0.47797 0.28704
0.48306 0.48342 0.29227
0.50061 0.48887 0.29750
0.51816 0.49433 0.30273
0.53570 0.49978 0.30796
0.55324 0.50524 0.31324
0.57073 0.51073 0.31873
0.58821 0.51621 0.32421
0.60570 0.52170 0.32970
0.62318 0.52718 0.33518
0.64067 0.53267 0.34067
0.65815 0.53815 0.34615
0.67564 0.54364 0.35164
0.69312 0.54912 0.35712
0.71061 0.55461 0.36261
0.72809 0.56009 0.36809
0.74558 0.56558 0.37358
0.76306 0.57106 0.37906
0.22094 0.42651 0.22618
0.23849 0.43197 0.23141
0.25604 0.43742 0.23664
0.27359 0.44287 0.24187
0.29114 0.44833 0.24710
0.30869 0.45378 0.25233
0.32624 0.45923 0.25756
0.34378 0.46469 0.26279
0.36133 0.47014 0.26802
0.37888 0.47559 0.27325
0.39643 0.48105 0.27848
0.41398 0.48650 0.28371
0.43153 0.49195 0.28894
0.44908 0.49741 0.29417
0.46663 0.50286 0.29940
0.48418 0.50831 0.30463
0.50172 0.51377 0.30986
0.51924 0.51924 0.31524
0.53672 0.52472 0.32072
0.55421 0.53021 0.32621
0.57169 0.53569 0.33169
0.58918 0.54118 0.33718
0.60666 0.54666 0.34266
0.62415 0.55215 0.34815
0.64163 0.55763 0.35363
0.65912 0.56312 0.35912
0.67660 0.56860 0.36460
0.69409 0.57409 0.37009
0.71157 0.57957 0.37557
0.72906 0.58506 0.38106
0.74654 0.59054 0.38654
0.76403 0.59603 0.39203
0.78151 0.60151 0.39751
0.23961 0.45686 0.24378
0.25716 0.46231 0.24901
0.27471 0.46777 0.25424
0.29226 0.47322 0.25947
0.30980 0.47867 0.26470
0.32735 0.48413 0.26993
0.34490 0.48958 0.27516
0.36245 0.49503 0.28039
0.38000 0.50049 0.28562
0.39755 0.50594 0.29085
0.41510 0.51139 0.29608
0.43265 0.51684 0.30131
0.45020 0.52230 0.30654
0.46774 0.52775 0.31177
0.48523 0.53323 0.31723
0.50272 0.53872 0.32272
0.52020 0.54420 0.32820
0.53769 0.54969 0.33369
0.55517 0.55517 0.33917
0.57266 0.56066 0.34466
0.59014 0.56614 0.35014
0.60763 0.57163 0.35563
0.62511 0.57711 0.36111
0.64260 0.58260 0.36660
0.66008 0.58808 0.37208
0.67757 0.59357 0.37757
0.69505 0.59905 0.38305
0.71254 0.60454 0.38854
0.73003 0.61003 0.39403
0.74751 0.61551 0.39951
0.76500 0.62100 0.40500
0.78248 0.62648 0.41048
0.79997 0.63197 0.41597
0.25828 0.48720 0.26137
0.27582 0.49266 0.26660
0.29337 0.49811 0.27183
0.31092 0.50356 0.27706
0.32847 0.50902 0.28229
0.34602 0.51447 0.28752
0.36357 0.51992 0.29275
0.38112 0.52538 0.29798
0.39867 0.53083 0.30321
0.41622 0.53628 0.30844
0.43375 0.54175 0.31375
0.45123 0.54723 0.31923
0.46872 0.55272 0.32472
0.48620 0.55820 0.33020
0.50369 0.56369 0.33569
0.52117 0.56917 0.34117
0.53866 0.57466 0.34666
0.55614 0.58014 0.35214
0.57363 0.58563 0.35763
0.59111 0.59111 0.36311
0.60860 0.59660 0.36860
0.62608 0.60208 0.37408
0.64357 0.60757 0.37957
0.66105 0.61305 0.38505
0.67854 0.61854 0.39054
0.69602 0.62402 0.39602
0.71351 0.62951 0.40151
0.73099 0.63499 0.40699
0.74848 0.64048 0.41248
0.76596 0.64596 0.41796
0.78345 0.65145 0.42345
0.80093 0.65693 0.42893
0.81842 0.66242 0.43442
0.27694 0.51755 0.27897
0.29449 0.52300 0.28420
0.31204 0.52846 0.28943
0.32959 0.53391 0.29466
0.34714 0.53936 0.29989
0.36469 0.54482 0.30512
0.38224 0.55027 0.31035
0.39974 0.55574 0.31574
0.41723 0.56123 0.32123
0.43471 0.56671 0.32671
0.45220 0.57220 0.33220
0.46968 0.57768 0.33768
0.48717 0.58317 0.34317
0.50465 0.58865 0.34865
0.52214 0.59414 0.35414
0.53962 0.59962 0.35962
0.55711 0.60511 0.36511
0.57459 0.61059 0.37059
0.59208 0.61608 0.37608
0.60956 0.62156 0.38156
0.62705 0.62705 0.38705
0.64453 0.63253 0.39253
0.66202 0.63802 0.39802
0.67950 0.64350 0.40350
0.69699 0.64899 0.40899
0.71447 0.65447 0.41447
0.73196 0.65996 0.41996
0.74944 0.66544 0.42544
0.76693 0.67093 0.43093
0.78441 0.67641 0.43641
0.80190 0.68190 0.44190
0.81938 0.68738 0.44738
0.83687 0.69287 0.45287
0.29561 0.54789 0.29656
0.31316 0.55335 0.30179
0.33071 0.55880 0.30702
0.34825 0.56425 0.31225
0.36574 0.56974 0.31774
0.38322 0.57522 0.32322
0.40071 0.58071 0.32871
0.41819 0.58619 0.33419
0.43568 0.59168 0.33968
0.45317 0.59717 0.34517
0.47065 0.60265 0.35065
0.48814 0.60814 0.35614
0.50562 0.61362 0.36162
0.52311 0.61911 0.36711
0.54059 0.62459 0.37259
0.55808 0.63008 0.37808
0.57556 0.63556 0.38356
0.59305 0.64105 0.38905
0.61053 0.64653 0.39453
0.62802 0.65202 0.40002
0.64550 0.65750 0.40550
0.66299 0.66299 0.41099
0.68047 0.66847 0.41647
0.69796 0.67396 0.42196
0.71544 0.67944 0.42744
0.73293 0.68493 0.43293
0.75041 0.69041 0.43841
0.76790 0.69590 0.44390
0.78538 0.70138 0.44938
0.80287 0.70687 0.45487
0.82035 0.71235 0.46035
0.83784 0.71784 0.46584
0.85532 0.72332 0.47132
0.31425 0.57825 0.31425
0.33174 0.58374 0.31974
0.34922 0.58922 0.32522
0.36671 0.59471 0.33071
0.38419 0.60019 0.33619
0.40168 0.60568 0.34168
0.41916 0.61116 0.34716
0.43665 0.61665 0.35265
0.45413 0.62213 0.35813
0.47162 0.62762 0.36362
0.48910 0.63310 0.36910
0.50659 0.63859 0.37459
0.52407 0.64407 0.38007
0.54156 0.64956 0.38556
0.55904 0.65504 0.39104
0.57653 0.66053 0.39653
0.59401 0.66601 0.40201
0.61150 0.67150 0.40750
0.62898 0.67698 0.41298
0.64647 0.68247 0.41847
0.66395 0.68795 0.42395
0.68144 0.69344 0.42944
0.69892 0.69892 0.43492
0.71641 0.70441 0.44041
0.73389 0.70989 0.44589
0.75138 0.71538 0.45138
0.76886 0.72086 0.45686
0.78635 0.72635 0.46235
0.80383 0.73183 0.46783
0.82132 0.73732 0.47332
0.83880 0.74280 0.47880
0.85629 0.74829 0.48429
0.87377 0.75377 0.48977
0.33270 0.60870 0.33270
0.35019 0.61419 0.33819
0.36767 0.61967 0.34367
0.38516 0.62516 0.34916
0.40264 0.63064 0.35464
0.42013 0.63613 0.36013
0.43761 0.64161 0.36561
0.45510 0.64710 0.37110
0.47258 0.65258 0.37658
0.49007 0.65807 0.38207
0.50755 0.66355 0.38755
0.52504 0.66904 0.39304
0.54252 0.67452 0.39852
0.56001 0.68001 0.40401
0.57749 0.68549 0.40949
0.59498 0.69098 0.41498
0.61246 0.69646 0.42046
0.62995 0.70195 0.42595
0.64744 0.70744 0.43144
0.66492 0.71292 0.43692
0.68241 0.71841 0.44241
0.69989 0.72389 0.44789
0.71738 0.72938 0.45338
0.73486 0.73486 0.45886
0.75235 0.74035 0.46435
0.76983 0.74583 0.46983
0.78732 0.75132 0.47532
0.80480 0.75680 0.48080
0.82229 0.76229 0.48629
0.83977 0.76777 0.49177
0.85726 0.77326 0.49726
0.87474 0.77874 0.50274
0.89223 0.78423 0.50823
0.35116 0.63916 0.35116
0.36864 0.64464 0.35664
0.38613 0.65013 0.36213
0.40361 0.65561 0.36761
0.42110 0.66110 0.37310
0.43858 0.66658 0.37858
0.45607 0.67207 0.38407
0.47355 0.67755 0.38955
0.49104 0.68304 0.39504
0.50852 0.68852 0.40052
0.52601 0.69401 0.40601
0.54349 0.69949 0.41149
0.56098 0.70498 0.41698
0.57846 0.71046 0.42246
0.59595 0.71595 0.42795
0.61343 0.72143 0.43343
0.63092 0.72692 0.43892
0.64840 0.73240 0.44440
0.66589 0.73789 0.44989
0.68337 0.74337 0.45537
0.70086 0.74886 0.46086
0.71834 0.75434 0.46634
0.73583 0.75983 0.47183
0.75331 0.76531 0.47731
0.77080 0.77080 0.48280
0.78828 0.77628 0.48828
0.80577 0.78177 0.49377
0.82325 0.78725 0.49925
0.84074 0.79274 0.50474
0.85822 0.79822 0.51022
0.87571 0.80371 0.51571
0.89319 0.80919 0.52119
0.91068 0.81468 0.52668
0.36961 0.66961 0.36961
0.38709 0.67509 0.37509
0.40458 0.68058 0.38058
0.42206 0.68606 0.38606
0.43955 0.69155 0.39155
0.45703 0.69703 0.39703
0.47452 0.70252 0.40252
0.49200 0.70800 0.40800
0.50949 0.71349 0.41349
0.52697 0.71897 0.41897
0.54446 0.72446 0.42446
0.56194 0.72994 0.42994
0.57943 0.73543 0.43543
0.59691 0.74091 0.44091
0.61440 0.74640 0.44640
0.63188 0.75188 0.45188
0.64937 0.75737 0.45737
0.66685 0.76285 0.46285
0.68434 0.76834 0.46834
0.70182 0.77382 0.47382
0.71931 0.77931 0.47931
0.73679 0.78479 0.48479
0.75428 0.79028 0.49028
0.77176 0.79576 0.49576
0.78925 0.80125 0.50125
0.80674 0.80674 0.50674
0.82422 0.81222 0.51222
0.84171 0.81771 0.51771
0.85919 0.82319 0.52319
0.87668 0.82868 0.52868
0.89416 0.83416 0.53416
0.91165 0.83965 0.53965
0.92913 0.84513 0.54513
0.38806 0.70006 0.38806
0.40555 0.70555 0.39355
0.42303 0.71103 0.39903
0.44052 0.71652 0.40452
0.45800 0.72200 0.41000
0.47549 0.72749 0.41549
0.49297 0.73297 0.42097
0.51046 0.73846 0.42646
0.52794 0.74394 0.43194
0.54543 0.74943 0.43743
0.56291 0.75491 0.44291
0.58040 0.76040 0.44840
0.59788 0.76588 0.45388
0.61537 0.77137 0.45937
0.63285 0.77685 0.46485
0.65034 0.78234 0.47034
0.66782 0.78782 0.47582
0.68531 0.79331 0.48131
0.70279 0.79879 0.48679
0.72028 0.80428 0.49228
0.73776 0.80976 0.49776
0.75525 0.81525 0.50325
0.77273 0.82073 0.50873
0.79022 0.82622 0.51422
0.80770 0.83170 0.51970
0.82519 0.83719 0.52519
0.84267 0.84267 0.53067
0.86016 0.84816 0.53616
0.87764 0.85364 0.54164
0.89513 0.85913 0.54713
0.91261 0.86461 0.55261
0.93010 0.87010 0.55810
0.94758 0.87558 0.56358
0.40651 0.73051 0.40651
0.42400 0.73600 0.41200
0.44148 0.74148 0.41748
0.45897 0.74697 0.42297
0.47645 0.75245 0.42845
0.49394 0.75794 0.43394
0.51142 0.76342 0.43942
0.52891 0.76891 0.44491
0.54639 0.77439 0.45039
