boundlessjs/public/luts/teal_orange.cube
TITLE "teal_orange"
LUT_3D_SIZE 9
0.00000 0.00000 0.00000
0.09536 0.00000 0.00000
0.24391 0.00000 0.00000
0.39267 0.00000 0.00000
0.54144 0.00000 0.00000
0.69021 0.00000 0.00000
0.83897 0.00000 0.00000
0.98774 0.00000 0.00000
1.00000 0.00000 0.00000
0.00000 0.10867 0.00000
0.08695 0.10497 0.00000
0.23572 0.10128 0.00000
0.38449 0.09758 0.00000
0.53325 0.09388 0.00000
0.68202 0.09019 0.00000
0.83078 0.08649 0.00000
0.97955 0.08279 0.00000
1.00000 0.07910 0.00000
0.00000 0.24743 0.00000
0.07877 0.24374 0.00000
0.22753 0.24004 0.00000
0.37630 0.23634 0.00000
0.52506 0.23265 0.00000
0.67383 0.22895 0.00000
0.82260 0.22525 0.00000
0.97136 0.22156 0.00000
1.00000 0.21786 0.00000
0.00000 0.38620 0.00000
0.07058 0.38250 0.00000
0.21934 0.37881 0.00000
0.36811 0.37511 0.00000
0.51688 0.37141 0.00000
0.66564 0.36772 0.00000
0.81441 0.36402 0.00000
0.96318 0.36032 0.00000
1.00000 0.35663 0.00000
0.00000 0.52496 0.00000
0.06239 0.52127 0.00000
0.21116 0.51757 0.00000
0.35992 0.51387 0.00000
0.50869 0.51018 0.00000
0.65746 0.50648 0.00000
0.80622 0.50320 0.00000
0.95499 0.50001 0.00000
1.00000 0.49682 0.00000
0.00000 0.66373 0.00000
0.05420 0.66003 0.00000
0.20297 0.65643 0.00000
0.35174 0.65324 0.00000
0.50050 0.65004 0.00000
0.64927 0.64685 0.00000
0.79803 0.64366 0.00000
0.94680 0.64047 0.00000
1.00000 0.63728 0.00000
0.00000 0.80327 0.00000
0.04602 0.80008 0.00000
0.19478 0.79689 0.00000
0.34355 0.79370 0.00000
0.49231 0.79051 0.00000
0.64108 0.78732 0.00000
0.78985 0.78412 0.00000
0.93861 0.78093 0.00000
1.00000 0.77774 0.00000
0.00000 0.94374 0.00000
0.03783 0.94055 0.00000
0.18659 0.93735 0.00000
0.33536 0.93416 0.00000
0.48413 0.93097 0.00000
0.63289 0.92778 0.00000
0.78166 0.92459 0.00000
0.93042 0.92140 0.00000
1.00000 0.91821 0.00000
0.00000 1.00000 0.00000
0.02964 1.00000 0.00000
0.17841 1.00000 0.00000
0.32717 1.00000 0.00000
0.47594 1.00000 0.00000
0.62470 1.00000 0.00000
0.77347 1.00000 0.00000
0.92224 1.00000 0.00000
1.00000 1.00000 0.00000
0.00000 0.00000 0.12843
0.09431 0.00000 0.12489
0.24308 0.00000 0.12069
0.39185 0.00000 0.11649
0.54061 0.00000 0.11228
0.68938 0.00000 0.10808
0.83815 0.00000 0.10388
0.98691 0.00000 0.09968
1.00000 0.00000 0.09548
0.00000 0.10741 0.11496
0.08613 0.10372 0.11075
0.23489 0.10002 0.10655
0.38366 0.09632 0.10235
0.53243 0.09263 0.09815
0.68119 0.08893 0.09395
0.82996 0.08523 0.08975
0.97872 0.08154 0.08554
1.00000 0.07784 0.08134
0.00000 0.24618 0.10082
0.07794 0.24248 0.09662
0.22671 0.23879 0.09242
0.37547 0.23509 0.08822
0.52424 0.23139 0.08401
0.67300 0.22770 0.07981
0.82177 0.22400 0.07561
0.97054 0.22030 0.07141
1.00000 0.21661 0.06721
0.00000 0.38494 0.08669
0.06975 0.38125 0.08248
0.21852 0.37755 0.07828
0.36728 0.37385 0.07408
0.51605 0.37016 0.06988
0.66482 0.36646 0.06568
0.81358 0.36276 0.06148
0.96235 0.35907 0.05727
1.00000 0.35537 0.05307
0.00000 0.52371 0.07255
0.06156 0.52001 0.06835
0.21033 0.51631 0.06415
0.35910 0.51262 0.05995
0.50786 0.50892 0.05574
0.65663 0.50531 0.05154
0.80539 0.50211 0.04734
0.95416 0.49892 0.04314
1.00000 0.49573 0.03894
0.00000 0.66247 0.05842
0.05338 0.65877 0.05421
0.20214 0.65534 0.05001
0.35091 0.65215 0.04581
0.49968 0.64896 0.04161
0.64844 0.64577 0.03741
0.79721 0.64258 0.03320
0.94597 0.63939 0.02900
1.00000 0.63619 0.02480
0.00000 0.80219 0.04428
0.04519 0.79900 0.04008
0.19396 0.79581 0.03588
0.34272 0.79262 0.03168
0.49149 0.78942 0.02747
0.64025 0.78623 0.02327
0.78902 0.78304 0.01907
0.93779 0.77985 0.01487
1.00000 0.77666 0.01067
0.00000 0.94265 0.03015
0.03700 0.93946 0.02594
0.18577 0.93627 0.02174
0.33453 0.93308 0.01754
0.48330 0.92989 0.01334
0.63207 0.92670 0.00914
0.78083 0.92350 0.00493
0.92960 0.92031 0.00073
1.00000 0.91712 0.00000
0.00000 1.00000 0.01601
0.02881 1.00000 0.01181
0.17758 1.00000 0.00761
0.32635 1.00000 0.00340
0.47511 1.00000 0.00000
0.62388 1.00000 0.00000
0.77264 1.00000 0.00000
0.92141 1.00000 0.00000
1.00000 1.00000 0.00000
0.00000 0.00000 0.27846
0.09349 0.00000 0.27466
0.24225 0.00000 0.27046
0.39102 0.00000 0.26626
0.53979 0.00000 0.26206
0.68855 0.00000 0.25786
0.83732 0.00000 0.25365
0.98609 0.00000 0.24945
1.00000 0.00000 0.24525
0.00000 0.10616 0.26473
0.08530 0.10246 0.26053
0.23407 0.09877 0.25633
0.38283 0.09507 0.25212
0.53160 0.09137 0.24792
0.68037 0.08768 0.24372
0.82913 0.08398 0.23952
0.97790 0.08028 0.23532
1.00000 0.07659 0.23111
0.00000 0.24492 0.25059
0.07711 0.24123 0.24639
0.22588 0.23753 0.24219
0.37465 0.23383 0.23799
0.52341 0.23014 0.23379
0.67218 0.22644 0.22959
0.82094 0.22274 0.22538
0.96971 0.21905 0.22118
1.00000 0.21535 0.21698
0.00000 0.38369 0.23646
0.06893 0.37999 0.23226
0.21769 0.37629 0.22806
0.36646 0.37260 0.22385
0.51522 0.36890 0.21965
0.66399 0.36520 0.21545
0.81276 0.36151 0.21125
0.96152 0.35781 0.20705
1.00000 0.35418 0.20284
0.00000 0.52245 0.22232
0.06074 0.51876 0.21812
0.20950 0.51506 0.21392
0.35827 0.51136 0.20972
0.50704 0.50767 0.20552
0.65580 0.50422 0.20131
0.80457 0.50103 0.19711
0.95333 0.49784 0.19291
1.00000 0.49465 0.18871
0.00000 0.66122 0.20819
0.05255 0.65752 0.20399
0.20132 0.65426 0.19979
0.35008 0.65107 0.19558
0.49885 0.64788 0.19138
0.64761 0.64469 0.18718
0.79638 0.64149 0.18298
0.94515 0.63830 0.17878
1.00000 0.63511 0.17457
0.00000 0.80111 0.19405
0.04436 0.79791 0.18985
0.19313 0.79472 0.18565
0.34189 0.79153 0.18145
0.49066 0.78834 0.17725
0.63943 0.78515 0.17304
0.78819 0.78196 0.16884
0.93696 0.77877 0.16464
1.00000 0.77557 0.16044
0.00000 0.94157 0.17992
0.03617 0.93838 0.17572
0.18494 0.93519 0.17151
0.33371 0.93200 0.16731
0.48247 0.92880 0.16311
0.63124 0.92561 0.15891
0.78001 0.92242 0.15471
0.92877 0.91923 0.15051
1.00000 0.91604 0.14630
0.00000 1.00000 0.16578
0.02799 1.00000 0.16158
0.17675 1.00000 0.15738
0.32552 1.00000 0.15318
0.47429 1.00000 0.14898
0.62305 1.00000 0.14477
0.77182 1.00000 0.14057
0.92058 1.00000 0.13637
1.00000 1.00000 0.13217
0.00000 0.00000 0.42849
0.09266 0.00000 0.42444
0.24143 0.00000 0.42023
0.39019 0.00000 0.41603
0.53896 0.00000 0.41183
0.68773 0.00000 0.40763
0.83649 0.00000 0.40343
0.98526 0.00000 0.39923
1.00000 0.00000 0.39502
0.00000 0.10490 0.41450
0.08447 0.10121 0.41030
0.23324 0.09751 0.40610
0.38201 0.09381 0.40190
0.53077 0.09012 0.39770
0.67954 0.08642 0.39349
0.82830 0.08272 0.38929
0.97707 0.07903 0.38509
1.00000 0.07533 0.38089
0.00000 0.24367 0.40037
0.07629 0.23997 0.39617
0.22505 0.23627 0.39196
0.37382 0.23258 0.38776
0.52258 0.22888 0.38356
0.67135 0.22518 0.37936
0.82012 0.22149 0.37516
0.96888 0.21779 0.37095
1.00000 0.21409 0.36675
0.00000 0.38243 0.38623
0.06810 0.37874 0.38203
0.21686 0.37504 0.37783
0.36563 0.37134 0.37363
0.51440 0.36765 0.36942
0.66316 0.36395 0.36522
0.81193 0.36025 0.36102
0.96070 0.35656 0.35682
1.00000 0.35310 0.35262
0.00000 0.52120 0.37210
0.05991 0.51750 0.36790
0.20868 0.51380 0.36369
0.35744 0.51011 0.35949
0.50621 0.50641 0.35529
0.65498 0.50314 0.35109
0.80374 0.49995 0.34689
0.95251 0.49675 0.34268
1.00000 0.49356 0.33848
0.00000 0.65996 0.35796
0.05172 0.65637 0.35376
0.20049 0.65318 0.34956
0.34926 0.64998 0.34536
0.49802 0.64679 0.34115
0.64679 0.64360 0.33695
0.79555 0.64041 0.33275
0.94432 0.63722 0.32855
1.00000 0.63403 0.32435
0.00000 0.80002 0.34383
0.04354 0.79683 0.33962
0.19230 0.79364 0.33542
0.34107 0.79045 0.33122
0.48983 0.78726 0.32702
0.63860 0.78406 0.32282
0.78737 0.78087 0.31862
0.93613 0.77768 0.31441
1.00000 0.77449 0.31021
0.00000 0.94049 0.32969
0.03535 0.93729 0.32549
0.18411 0.93410 0.32129
0.33288 0.93091 0.31709
0.48165 0.92772 0.31288
0.63041 0.92453 0.30868
0.77918 0.92134 0.30448
0.92795 0.91815 0.30028
1.00000 0.91495 0.29608
0.00000 1.00000 0.31556
0.02716 1.00000 0.31135
0.17593 1.00000 0.30715
0.32469 1.00000 0.30295
0.47346 1.00000 0.29875
0.62223 1.00000 0.29455
0.77099 1.00000 0.29035
0.91976 1.00000 0.28614
1.00000 1.00000 0.28194
0.00000 0.00000 0.57841
0.09184 0.00000 0.57421
0.24060 0.00000 0.57001
0.38937 0.00000 0.56581
0.53813 0.00000 0.56160
0.68690 0.00000 0.55740
0.83567 0.00000 0.55320
0.98443 0.00000 0.54900
1.00000 0.00000 0.54480
0.00000 0.10365 0.56428
0.08365 0.09995 0.56007
0.23241 0.09626 0.55587
0.38118 0.09256 0.55167
0.52995 0.08886 0.54747
0.67871 0.08517 0.54327
0.82748 0.08147 0.53906
0.97624 0.07777 0.53486
1.00000 0.07408 0.53066
0.00000 0.24241 0.55014
0.07546 0.23872 0.54594
0.22423 0.23502 0.54174
0.37299 0.23132 0.53753
0.52176 0.22763 0.53333
0.67052 0.22393 0.52913
0.81929 0.22023 0.52493
0.96806 0.21654 0.52073
1.00000 0.21284 0.51653
0.00000 0.38118 0.53601
0.06727 0.37748 0.53180
0.21604 0.37378 0.52760
0.36480 0.37009 0.52340
0.51357 0.36639 0.51920
0.66234 0.36269 0.51500
0.81110 0.35900 0.51079
0.95987 0.35530 0.50659
1.00000 0.35202 0.50239
0.00000 0.51994 0.52187
0.05908 0.51624 0.51767
0.20785 0.51255 0.51347
0.35662 0.50885 0.50926
0.50538 0.50525 0.50506
0.65415 0.50205 0.50086
0.80292 0.49886 0.49666
0.95168 0.49567 0.49246
1.00000 0.49248 0.48826
0.00000 0.65871 0.50773
0.05090 0.65528 0.50353
0.19966 0.65209 0.49933
0.34843 0.64890 0.49513
0.49720 0.64571 0.49093
0.64596 0.64252 0.48673
0.79473 0.63933 0.48252
0.94349 0.63613 0.47832
1.00000 0.63294 0.47412
0.00000 0.79894 0.49360
0.04271 0.79575 0.48940
0.19148 0.79256 0.48520
0.34024 0.78936 0.48099
0.48901 0.78617 0.47679
0.63777 0.78298 0.47259
0.78654 0.77979 0.46839
0.93531 0.77660 0.46419
1.00000 0.77341 0.45998
0.00000 0.93940 0.47946
0.03452 0.93621 0.47526
0.18329 0.93302 0.47106
0.33205 0.92983 0.46686
0.48082 0.92664 0.46266
0.62959 0.92344 0.45846
0.77835 0.92025 0.45425
0.92712 0.91706 0.45005
1.00000 0.91387 0.44585
0.00000 1.00000 0.46533
0.02633 1.00000 0.46113
0.17510 1.00000 0.45693
0.32387 1.00000 0.45272
0.47263 1.00000 0.44852
0.62140 1.00000 0.44432
0.77016 1.00000 0.44012
0.91893 1.00000 0.43592
1.00000 1.00000 0.43188
0.00000 0.00000 0.72818
0.09101 0.00000 0.72398
0.23977 0.00000 0.71978
0.38854 0.00000 0.71558
0.53731 0.00000 0.71138
0.68607 0.00000 0.70717
0.83484 0.00000 0.70297
0.98361 0.00000 0.69877
1.00000 0.00000 0.69457
0.00000 0.10239 0.71405
0.08282 0.09870 0.70985
0.23159 0.09500 0.70565
0.38035 0.09130 0.70144
0.52912 0.08761 0.69724
0.67789 0.08391 0.69304
0.82665 0.08021 0.68884
0.97542 0.07652 0.68464
1.00000 0.07282 0.68043
0.00000 0.24116 0.69991
0.07463 0.23746 0.69571
0.22340 0.23376 0.69151
0.37217 0.23007 0.68731
0.52093 0.22637 0.68311
0.66970 0.22267 0.67890
0.81846 0.21898 0.67470
0.96723 0.21528 0.67050
1.00000 0.21158 0.66630
0.00000 0.37992 0.68578
0.06645 0.37622 0.68158
0.21521 0.37253 0.67737
0.36398 0.36883 0.67317
0.51274 0.36513 0.66897
0.66151 0.36144 0.66477
0.81028 0.35774 0.66057
0.95904 0.35412 0.65637
1.00000 0.35093 0.65216
0.00000 0.51869 0.67164
0.05826 0.51499 0.66744
0.20702 0.51129 0.66324
0.35579 0.50760 0.65904
0.50456 0.50416 0.65484
0.65332 0.50097 0.65063
0.80209 0.49778 0.64643
0.95085 0.49459 0.64223
1.00000 0.49140 0.63803
0.00000 0.65745 0.65751
0.05007 0.65420 0.65331
0.19884 0.65101 0.64910
0.34760 0.64782 0.64490
0.49637 0.64463 0.64070
0.64514 0.64143 0.63650
0.79390 0.63824 0.63230
0.94267 0.63505 0.62810
1.00000 0.63186 0.62389
0.00000 0.79785 0.64337
0.04188 0.79466 0.63917
0.19065 0.79147 0.63497
0.33942 0.78828 0.63077
0.48818 0.78509 0.62657
0.63695 0.78190 0.62236
0.78571 0.77871 0.61816
0.93448 0.77551 0.61396
1.00000 0.77232 0.60976
0.00000 0.93832 0.62924
0.03370 0.93513 0.62504
0.18246 0.93194 0.62083
0.33123 0.92874 0.61663
0.47999 0.92555 0.61243
0.62876 0.92236 0.60823
0.77753 0.91917 0.60403
0.92629 0.91598 0.59982
1.00000 0.91279 0.59562
0.00000 1.00000 0.61510
0.02551 1.00000 0.61090
0.17427 1.00000 0.60670
0.32304 1.00000 0.60250
0.47181 1.00000 0.59829
0.62057 1.00000 0.59409
0.76934 1.00000 0.58989
0.91810 1.00000 0.58569
1.00000 1.00000 0.58191
0.00000 0.00000 0.87796
0.09018 0.00000 0.87376
0.23895 0.00000 0.86955
0.38771 0.00000 0.86535
0.53648 0.00000 0.86115
0.68525 0.00000 0.85695
0.83401 0.00000 0.85275
0.98278 0.00000 0.84854
1.00000 0.00000 0.84434
0.00000 0.10114 0.86382
0.08199 0.09744 0.85962
0.23076 0.09374 0.85542
0.37953 0.09005 0.85122
0.52829 0.08635 0.84701
0.67706 0.08265 0.84281
0.82583 0.07896 0.83861
0.97459 0.07526 0.83441
1.00000 0.07156 0.83021
0.00000 0.23990 0.84969
0.07381 0.23621 0.84548
0.22257 0.23251 0.84128
0.37134 0.22881 0.83708
0.52011 0.22512 0.83288
0.66887 0.22142 0.82868
0.81764 0.21772 0.82448
0.96640 0.21403 0.82027
1.00000 0.21033 0.81607
0.00000 0.37867 0.83555
0.06562 0.37497 0.83135
0.21439 0.37127 0.82715
0.36315 0.36758 0.82295
0.51192 0.36388 0.81874
0.66068 0.36018 0.81454
0.80945 0.35649 0.81034
0.95822 0.35304 0.80614
1.00000 0.34985 0.80194
0.00000 0.51743 0.82142
0.05743 0.51373 0.81721
0.20620 0.51004 0.81301
0.35496 0.50634 0.80881
0.50373 0.50308 0.80461
0.65250 0.49989 0.80041
0.80126 0.49669 0.79621
0.95003 0.49350 0.79200
1.00000 0.49031 0.78780
0.00000 0.65631 0.80728
0.04924 0.65312 0.80308
0.19801 0.64992 0.79888
0.34678 0.64673 0.79468
0.49554 0.64354 0.79047
0.64431 0.64035 0.78627
0.79307 0.63716 0.78207
0.94184 0.63397 0.77787
1.00000 0.63078 0.77367
0.00000 0.79677 0.79315
0.04106 0.79358 0.78894
0.18982 0.79039 0.78474
0.33859 0.78720 0.78054
0.48735 0.78400 0.77634
0.63612 0.78081 0.77214
0.78489 0.77762 0.76793
0.93365 0.77443 0.76373
1.00000 0.77124 0.75953
0.00000 0.93723 0.77901
0.03287 0.93404 0.77481
0.18163 0.93085 0.77061
0.33040 0.92766 0.76640
0.47917 0.92447 0.76220
0.62793 0.92128 0.75800
0.77670 0.91809 0.75380
0.92547 0.91489 0.74960
1.00000 0.91170 0.74540
0.00000 1.00000 0.76488
0.02468 1.00000 0.76067
0.17345 1.00000 0.75647
0.32221 1.00000 0.75227
0.47098 1.00000 0.74807
0.61975 1.00000 0.74387
0.76851 1.00000 0.73966
0.91728 1.00000 0.73546
1.00000 1.00000 0.73194
0.00000 0.00000 1.00000
0.08936 0.00000 1.00000
0.23812 0.00000 1.00000
0.38689 0.00000 1.00000
0.53565 0.00000 1.00000
0.68442 0.00000 1.00000
0.83319 0.00000 1.00000
0.98195 0.00000 0.99832
1.00000 0.00000 0.99412
0.00000 0.09988 1.00000
0.08117 0.09619 1.00000
0.22993 0.09249 1.00000
0.37870 0.08879 1.00000
0.52747 0.08510 0.99679
0.67623 0.08140 0.99259
0.82500 0.07770 0.98838
0.97376 0.07401 0.98418
1.00000 0.07031 0.97998
0.00000 0.23865 0.99946
0.07298 0.23495 0.99526
0.22175 0.23125 0.99106
0.37051 0.22756 0.98685
0.51928 0.22386 0.98265
0.66804 0.22016 0.97845
0.81681 0.21647 0.97425
0.96558 0.21277 0.97005
1.00000 0.20907 0.96584
0.00000 0.37741 0.98532
0.06479 0.37371 0.98112
0.21356 0.37002 0.97692
0.36232 0.36632 0.97272
0.51109 0.36262 0.96852
0.65986 0.35893 0.96432
0.80862 0.35523 0.96011
0.95739 0.35196 0.95591
1.00000 0.34876 0.95171
0.00000 0.51617 0.97119
0.05660 0.51248 0.96699
0.20537 0.50878 0.96279
0.35414 0.50519 0.95858
0.50290 0.50199 0.95438
0.65167 0.49880 0.95018
0.80044 0.49561 0.94598
0.94920 0.49242 0.94178
1.00000 0.48923 0.93757
0.00000 0.65522 0.95705
0.04842 0.65203 0.95285
0.19718 0.64884 0.94865
0.34595 0.64565 0.94445
0.49472 0.64246 0.94025
0.64348 0.63927 0.93604
0.79225 0.63607 0.93184
0.94101 0.63288 0.92764
1.00000 0.62969 0.92344
0.00000 0.79569 0.94292
0.04023 0.79250 0.93872
0.18900 0.78930 0.93452
0.33776 0.78611 0.93031
0.48653 0.78292 0.92611
0.63529 0.77973 0.92191
0.78406 0.77654 0.91771
0.93283 0.77335 0.91351
1.00000 0.77015 0.90930
0.00000 0.93615 0.92878
0.03204 0.93296 0.92458
0.18081 0.92977 0.92038
0.32957 0.92658 0.91618
0.47834 0.92338 0.91198
0.62711 0.92019 0.90777
0.77587 0.91700 0.90357
0.92464 0.91381 0.89937
1.00000 0.91062 0.89517
0.00000 1.00000 0.91465
0.02385 1.00000 0.91045
0.17262 1.00000 0.90624
0.32139 1.00000 0.90204
0.47015 1.00000 0.89784
0.61892 1.00000 0.89364
0.76769 1.00000 0.88944
0.91621 1.00000 0.88541
1.00000 1.00000 0.88197
0.00000 0.00000 1.00000
0.08853 0.00000 1.00000
0.23729 0.00000 1.00000
0.38606 0.00000 1.00000
0.53483 0.00000 1.00000
0.68359 0.00000 1.00000
0.83236 0.00000 1.00000
0.98113 0.00000 1.00000
1.00000 0.00000 1.00000
0.00000 0.09863 1.00000
0.08034 0.09493 1.00000
0.22911 0.09123 1.00000
0.37787 0.08754 1.00000
0.52664 0.08384 1.00000
0.67541 0.08014 1.00000
0.82417 0.07645 1.00000
0.97294 0.07275 1.00000
1.00000 0.06905 1.00000
0.00000 0.23739 1.00000
0.07215 0.23369 1.00000
0.22092 0.23000 1.00000
0.36969 0.22630 1.00000
0.51845 0.22260 1.00000
0.66722 0.21891 1.00000
0.81598 0.21521 1.00000
0.96475 0.21151 1.00000
1.00000 0.20782 1.00000
0.00000 0.37616 1.00000
0.06397 0.37246 1.00000
0.21273 0.36876 1.00000
0.36150 0.36507 1.00000
0.51026 0.36137 1.00000
0.65903 0.35767 1.00000
0.80780 0.35406 1.00000
0.95656 0.35087 1.00000
1.00000 0.34768 1.00000
0.00000 0.51492 1.00000
0.05578 0.51122 1.00000
0.20454 0.50753 1.00000
0.35331 0.50410 1.00000
0.50208 0.50091 1.00000
0.65084 0.49772 1.00000
0.79961 0.49453 1.00000
0.94838 0.49134 1.00000
1.00000 0.48814 1.00000
0.00000 0.65414 1.00000
0.04759 0.65095 1.00000
0.19636 0.64776 1.00000
0.34512 0.64457 1.00000
0.49389 0.64137 1.00000
0.64266 0.63818 1.00000
0.79142 0.63499 1.00000
0.94019 0.63180 1.00000
1.00000 0.62861 1.00000
0.00000 0.79460 1.00000
0.03940 0.79141 1.00000
0.18817 0.78822 1.00000
0.33694 0.78503 1.00000
0.48570 0.78184 1.00000
0.63447 0.77865 1.00000
0.78323 0.77545 1.00000
0.93200 0.77226 1.00000
1.00000 0.76907 1.00000
0.00000 0.93507 1.00000
0.03122 0.93188 1.00000
0.17998 0.92868 1.00000
0.32875 0.92549 1.00000
0.47751 0.92230 1.00000
0.62628 0.91911 1.00000
0.77505 0.91592 1.00000
0.92381 0.91273 1.00000
1.00000 0.90953 1.00000
0.00000 1.00000 1.00000
0.02303 1.00000 1.00000
0.17179 1.00000 1.00000
0.32056 1.00000 1.00000
0.46933 1.00000 1.00000
0.61809 1.00000 1.00000
0.76686 1.00000 1.00000
0.91504 1.00000 1.00000
1.00000 1.00000 1.00000
