boundlessjs/public/luts/teal_orange.cube
TITLE "teal_orange"
LUT_3D_SIZE 33
0.00000 0.00000 0.00000
0.00000 0.00000 0.00000
0.02148 0.00000 0.00000
0.05842 0.00000 0.00000
0.09536 0.00000 0.00000
0.13233 0.00000 0.00000
0.16952 0.00000 0.00000
0.20672 0.00000 0.00000
0.24391 0.00000 0.00000
0.28110 0.00000 0.00000
0.31829 0.00000 0.00000
0.35548 0.00000 0.00000
0.39267 0.00000 0.00000
0.42987 0.00000 0.00000
0.46706 0.00000 0.00000
0.50425 0.00000 0.00000
0.54144 0.00000 0.00000
0.57863 0.00000 0.00000
0.61582 0.00000 0.00000
0.65301 0.00000 0.00000
0.69021 0.00000 0.00000
0.72740 0.00000 0.00000
0.76459 0.00000 0.00000
0.80178 0.00000 0.00000
0.83897 0.00000 0.00000
0.87616 0.00000 0.00000
0.91336 0.00000 0.00000
0.95055 0.00000 0.00000
0.98774 0.00000 0.00000
1.00000 0.00000 0.00000
1.00000 0.00000 0.00000
1.00000 0.00000 0.00000
1.00000 0.00000 0.00000
0.00000 0.00450 0.00000
0.00000 0.00364 0.00000
0.01871 0.00275 0.00000
0.05590 0.00182 0.00000
0.09309 0.00090 0.00000
0.13029 0.00000 0.00000
0.16748 0.00000 0.00000
0.20467 0.00000 0.00000
0.24186 0.00000 0.00000
0.27905 0.00000 0.00000
0.31624 0.00000 0.00000
0.35344 0.00000 0.00000
0.39063 0.00000 0.00000
0.42782 0.00000 0.00000
0.46501 0.00000 0.00000
0.50220 0.00000 0.00000
0.53939 0.00000 0.00000
0.57658 0.00000 0.00000
0.61378 0.00000 0.00000
0.65097 0.00000 0.00000
0.68816 0.00000 0.00000
0.72535 0.00000 0.00000
0.76254 0.00000 0.00000
0.79973 0.00000 0.00000
0.83693 0.00000 0.00000
0.87412 0.00000 0.00000
0.91131 0.00000 0.00000
0.94850 0.00000 0.00000
0.98569 0.00000 0.00000
1.00000 0.00000 0.00000
1.00000 0.00000 0.00000
1.00000 0.00000 0.00000
1.00000 0.00000 0.00000
0.00000 0.03929 0.00000
0.00000 0.03836 0.00000
0.01666 0.03744 0.00000
0.05386 0.03652 0.00000
0.09105 0.03559 0.00000
0.12824 0.03467 0.00000
0.16543 0.03374 0.00000
0.20262 0.03282 0.00000
0.23981 0.03189 0.00000
0.27701 0.03097 0.00000
0.31420 0.03005 0.00000
0.35139 0.02912 0.00000
0.38858 0.02820 0.00000
0.42577 0.02727 0.00000
0.46296 0.02635 0.00000
0.50015 0.02543 0.00000
0.53735 0.02450 0.00000
0.57454 0.02358 0.00000
0.61173 0.02265 0.00000
0.64892 0.02173 0.00000
0.68611 0.02080 0.00000
0.72330 0.01988 0.00000
0.76050 0.01896 0.00000
0.79769 0.01803 0.00000
0.83488 0.01711 0.00000
0.87207 0.01618 0.00000
0.90926 0.01526 0.00000
0.94645 0.01434 0.00000
0.98364 0.01341 0.00000
1.00000 0.01249 0.00000
1.00000 0.01156 0.00000
1.00000 0.01064 0.00000
1.00000 0.00971 0.00000
0.00000 0.07398 0.00000
0.00000 0.07306 0.00000
0.01462 0.07213 0.00000
0.05181 0.07121 0.00000
0.08900 0.07028 0.00000
0.12619 0.06936 0.00000
0.16338 0.06843 0.00000
0.20058 0.06751 0.00000
0.23777 0.06659 0.00000
0.27496 0.06566 0.00000
0.31215 0.06474 0.00000
0.34934 0.06381 0.00000
0.38653 0.06289 0.00000
0.42372 0.06197 0.00000
0.46092 0.06104 0.00000
0.49811 0.06012 0.00000
0.53530 0.05919 0.00000
0.57249 0.05827 0.00000
0.60968 0.05734 0.00000
0.64687 0.05642 0.00000
0.68407 0.05550 0.00000
0.72126 0.05457 0.00000
0.75845 0.05365 0.00000
0.79564 0.05272 0.00000
0.83283 0.05180 0.00000
0.87002 0.05088 0.00000
0.90721 0.04995 0.00000
0.94441 0.04903 0.00000
0.98160 0.04810 0.00000
1.00000 0.04718 0.00000
1.00000 0.04625 0.00000
1.00000 0.04533 0.00000
1.00000 0.04441 0.00000
0.00000 0.10867 0.00000
0.00000 0.10775 0.00000
0.01257 0.10682 0.00000
0.04976 0.10590 0.00000
0.08695 0.10497 0.00000
0.12415 0.10405 0.00000
0.16134 0.10313 0.00000
0.19853 0.10220 0.00000
0.23572 0.10128 0.00000
0.27291 0.10035 0.00000
0.31010 0.09943 0.00000
0.34729 0.09850 0.00000
0.38449 0.09758 0.00000
0.42168 0.09666 0.00000
0.45887 0.09573 0.00000
0.49606 0.09481 0.00000
0.53325 0.09388 0.00000
0.57044 0.09296 0.00000
0.60764 0.09204 0.00000
0.64483 0.09111 0.00000
0.68202 0.09019 0.00000
0.71921 0.08926 0.00000
0.75640 0.08834 0.00000
0.79359 0.08741 0.00000
0.83078 0.08649 0.00000
0.86798 0.08557 0.00000
0.90517 0.08464 0.00000
0.94236 0.08372 0.00000
0.97955 0.08279 0.00000
1.00000 0.08187 0.00000
1.00000 0.08095 0.00000
1.00000 0.08002 0.00000
1.00000 0.07910 0.00000
0.00000 0.14336 0.00000
0.00000 0.14244 0.00000
0.01052 0.14151 0.00000
0.04772 0.14059 0.00000
0.08491 0.13966 0.00000
0.12210 0.13874 0.00000
0.15929 0.13782 0.00000
0.19648 0.13689 0.00000
0.23367 0.13597 0.00000
0.27086 0.13504 0.00000
0.30806 0.13412 0.00000
0.34525 0.13320 0.00000
0.38244 0.13227 0.00000
0.41963 0.13135 0.00000
0.45682 0.13042 0.00000
0.49401 0.12950 0.00000
0.53121 0.12857 0.00000
0.56840 0.12765 0.00000
0.60559 0.12673 0.00000
0.64278 0.12580 0.00000
0.67997 0.12488 0.00000
0.71716 0.12395 0.00000
0.75435 0.12303 0.00000
0.79155 0.12211 0.00000
0.82874 0.12118 0.00000
0.86593 0.12026 0.00000
0.90312 0.11933 0.00000
0.94031 0.11841 0.00000
0.97750 0.11748 0.00000
1.00000 0.11656 0.00000
1.00000 0.11564 0.00000
1.00000 0.11471 0.00000
1.00000 0.11379 0.00000
0.00000 0.17805 0.00000
0.00000 0.17713 0.00000
0.00848 0.17620 0.00000
0.04567 0.17528 0.00000
0.08286 0.17436 0.00000
0.12005 0.17343 0.00000
0.15724 0.17251 0.00000
0.19443 0.17158 0.00000
0.23163 0.17066 0.00000
0.26882 0.16973 0.00000
0.30601 0.16881 0.00000
0.34320 0.16789 0.00000
0.38039 0.16696 0.00000
0.41758 0.16604 0.00000
0.45478 0.16511 0.00000
0.49197 0.16419 0.00000
0.52916 0.16327 0.00000
0.56635 0.16234 0.00000
0.60354 0.16142 0.00000
0.64073 0.16049 0.00000
0.67792 0.15957 0.00000
0.71512 0.15864 0.00000
0.75231 0.15772 0.00000
0.78950 0.15680 0.00000
0.82669 0.15587 0.00000
0.86388 0.15495 0.00000
0.90107 0.15402 0.00000
0.93827 0.15310 0.00000
0.97546 0.15218 0.00000
1.00000 0.15125 0.00000
1.00000 0.15033 0.00000
1.00000 0.14940 0.00000
1.00000 0.14848 0.00000
0.00000 0.21274 0.00000
0.00000 0.21182 0.00000
0.00643 0.21090 0.00000
0.04362 0.20997 0.00000
0.08081 0.20905 0.00000
0.11800 0.20812 0.00000
0.15520 0.20720 0.00000
0.19239 0.20627 0.00000
0.22958 0.20535 0.00000
0.26677 0.20443 0.00000
0.30396 0.20350 0.00000
0.34115 0.20258 0.00000
0.37835 0.20165 0.00000
0.41554 0.20073 0.00000
0.45273 0.19981 0.00000
0.48992 0.19888 0.00000
0.52711 0.19796 0.00000
0.56430 0.19703 0.00000
0.60149 0.19611 0.00000
0.63869 0.19518 0.00000
0.67588 0.19426 0.00000
0.71307 0.19334 0.00000
0.75026 0.19241 0.00000
0.78745 0.19149 0.00000
0.82464 0.19056 0.00000
0.86184 0.18964 0.00000
0.89903 0.18871 0.00000
0.93622 0.18779 0.00000
0.97341 0.18687 0.00000
1.00000 0.18594 0.00000
1.00000 0.18502 0.00000
1.00000 0.18409 0.00000
1.00000 0.18317 0.00000
0.00000 0.24743 0.00000
0.00000 0.24651 0.00000
0.00438 0.24559 0.00000
0.04157 0.24466 0.00000
0.07877 0.24374 0.00000
0.11596 0.24281 0.00000
0.15315 0.24189 0.00000
0.19034 0.24097 0.00000
0.22753 0.24004 0.00000
0.26472 0.23912 0.00000
0.30192 0.23819 0.00000
0.33911 0.23727 0.00000
0.37630 0.23634 0.00000
0.41349 0.23542 0.00000
0.45068 0.23450 0.00000
0.48787 0.23357 0.00000
0.52506 0.23265 0.00000
0.56226 0.23172 0.00000
0.59945 0.23080 0.00000
0.63664 0.22988 0.00000
0.67383 0.22895 0.00000
0.71102 0.22803 0.00000
0.74821 0.22710 0.00000
0.78541 0.22618 0.00000
0.82260 0.22525 0.00000
0.85979 0.22433 0.00000
0.89698 0.22341 0.00000
0.93417 0.22248 0.00000
0.97136 0.22156 0.00000
1.00000 0.22063 0.00000
1.00000 0.21971 0.00000
1.00000 0.21879 0.00000
1.00000 0.21786 0.00000
0.00000 0.28213 0.00000
0.00000 0.28120 0.00000
0.00234 0.28028 0.00000
0.03953 0.27935 0.00000
0.07672 0.27843 0.00000
0.11391 0.27750 0.00000
0.15110 0.27658 0.00000
0.18829 0.27566 0.00000
0.22549 0.27473 0.00000
0.26268 0.27381 0.00000
0.29987 0.27288 0.00000
0.33706 0.27196 0.00000
0.37425 0.27104 0.00000
0.41144 0.27011 0.00000
0.44863 0.26919 0.00000
0.48583 0.26826 0.00000
0.52302 0.26734 0.00000
0.56021 0.26641 0.00000
0.59740 0.26549 0.00000
0.63459 0.26457 0.00000
0.67178 0.26364 0.00000
0.70898 0.26272 0.00000
0.74617 0.26179 0.00000
0.78336 0.26087 0.00000
0.82055 0.25995 0.00000
0.85774 0.25902 0.00000
0.89493 0.25810 0.00000
0.93212 0.25717 0.00000
0.96932 0.25625 0.00000
1.00000 0.25532 0.00000
1.00000 0.25440 0.00000
1.00000 0.25348 0.00000
1.00000 0.25255 0.00000
0.00000 0.31682 0.00000
0.00000 0.31589 0.00000
0.00029 0.31497 0.00000
0.03748 0.31404 0.00000
0.07467 0.31312 0.00000
0.11186 0.31220 0.00000
0.14906 0.31127 0.00000
0.18625 0.31035 0.00000
0.22344 0.30942 0.00000
0.26063 0.30850 0.00000
0.29782 0.30757 0.00000
0.33501 0.30665 0.00000
0.37220 0.30573 0.00000
0.40940 0.30480 0.00000
0.44659 0.30388 0.00000
0.48378 0.30295 0.00000
0.52097 0.30203 0.00000
0.55816 0.30111 0.00000
0.59535 0.30018 0.00000
0.63255 0.29926 0.00000
0.66974 0.29833 0.00000
0.70693 0.29741 0.00000
0.74412 0.29648 0.00000
0.78131 0.29556 0.00000
0.81850 0.29464 0.00000
0.85569 0.29371 0.00000
0.89289 0.29279 0.00000
0.93008 0.29186 0.00000
0.96727 0.29094 0.00000
1.00000 0.29002 0.00000
1.00000 0.28909 0.00000
1.00000 0.28817 0.00000
1.00000 0.28724 0.00000
0.00000 0.35151 0.00000
0.00000 0.35058 0.00000
0.00000 0.34966 0.00000
0.03543 0.34874 0.00000
0.07263 0.34781 0.00000
0.10982 0.34689 0.00000
0.14701 0.34596 0.00000
0.18420 0.34504 0.00000
0.22139 0.34411 0.00000
0.25858 0.34319 0.00000
0.29577 0.34227 0.00000
0.33297 0.34134 0.00000
0.37016 0.34042 0.00000
0.40735 0.33949 0.00000
0.44454 0.33857 0.00000
0.48173 0.33764 0.00000
0.51892 0.33672 0.00000
0.55612 0.33580 0.00000
0.59331 0.33487 0.00000
0.63050 0.33395 0.00000
0.66769 0.33302 0.00000
0.70488 0.33210 0.00000
0.74207 0.33118 0.00000
0.77926 0.33025 0.00000
0.81646 0.32933 0.00000
0.85365 0.32840 0.00000
0.89084 0.32748 0.00000
0.92803 0.32655 0.00000
0.96522 0.32563 0.00000
1.00000 0.32471 0.00000
1.00000 0.32378 0.00000
1.00000 0.32286 0.00000
1.00000 0.32193 0.00000
0.00000 0.38620 0.00000
0.00000 0.38527 0.00000
0.00000 0.38435 0.00000
0.03339 0.38343 0.00000
0.07058 0.38250 0.00000
0.10777 0.38158 0.00000
0.14496 0.38065 0.00000
0.18215 0.37973 0.00000
0.21934 0.37881 0.00000
0.25654 0.37788 0.00000
0.29373 0.37696 0.00000
0.33092 0.37603 0.00000
0.36811 0.37511 0.00000
0.40530 0.37418 0.00000
0.44249 0.37326 0.00000
0.47969 0.37234 0.00000
0.51688 0.37141 0.00000
0.55407 0.37049 0.00000
0.59126 0.36956 0.00000
0.62845 0.36864 0.00000
0.66564 0.36772 0.00000
0.70283 0.36679 0.00000
0.74003 0.36587 0.00000
0.77722 0.36494 0.00000
0.81441 0.36402 0.00000
0.85160 0.36309 0.00000
0.88879 0.36217 0.00000
0.92598 0.36125 0.00000
0.96318 0.36032 0.00000
1.00000 0.35940 0.00000
1.00000 0.35847 0.00000
1.00000 0.35755 0.00000
1.00000 0.35663 0.00000
0.00000 0.42089 0.00000
0.00000 0.41997 0.00000
0.00000 0.41904 0.00000
0.03134 0.41812 0.00000
0.06853 0.41719 0.00000
0.10572 0.41627 0.00000
0.14291 0.41534 0.00000
0.18011 0.41442 0.00000
0.21730 0.41350 0.00000
0.25449 0.41257 0.00000
0.29168 0.41165 0.00000
0.32887 0.41072 0.00000
0.36606 0.40980 0.00000
0.40326 0.40888 0.00000
0.44045 0.40795 0.00000
0.47764 0.40703 0.00000
0.51483 0.40610 0.00000
0.55202 0.40518 0.00000
0.58921 0.40425 0.00000
0.62640 0.40333 0.00000
0.66360 0.40241 0.00000
0.70079 0.40148 0.00000
0.73798 0.40056 0.00000
0.77517 0.39963 0.00000
0.81236 0.39871 0.00000
0.84955 0.39779 0.00000
0.88675 0.39686 0.00000
0.92394 0.39594 0.00000
0.96113 0.39501 0.00000
0.99832 0.39409 0.00000
1.00000 0.39316 0.00000
1.00000 0.39227 0.00000
1.00000 0.39147 0.00000
0.00000 0.45558 0.00000
0.00000 0.45466 0.00000
0.00000 0.45373 0.00000
0.02929 0.45281 0.00000
0.06648 0.45188 0.00000
0.10368 0.45096 0.00000
0.14087 0.45004 0.00000
0.17806 0.44911 0.00000
0.21525 0.44819 0.00000
0.25244 0.44726 0.00000
0.28963 0.44634 0.00000
0.32683 0.44541 0.00000
0.36402 0.44449 0.00000
0.40121 0.44357 0.00000
0.43840 0.44264 0.00000
0.47559 0.44172 0.00000
0.51278 0.44079 0.00000
0.54997 0.43987 0.00000
0.58717 0.43895 0.00000
0.62436 0.43802 0.00000
0.66155 0.43710 0.00000
0.69874 0.43617 0.00000
0.73593 0.43525 0.00000
0.77312 0.43432 0.00000
0.81032 0.43340 0.00000
0.84751 0.43248 0.00000
0.88470 0.43155 0.00000
0.92189 0.43063 0.00000
0.95908 0.42977 0.00000
0.99627 0.42898 0.00000
1.00000 0.42818 0.00000
1.00000 0.42738 0.00000
1.00000 0.42658 0.00000
0.00000 0.49027 0.00000
0.00000 0.48935 0.00000
0.00000 0.48842 0.00000
0.02725 0.48750 0.00000
0.06444 0.48657 0.00000
0.10163 0.48565 0.00000
0.13882 0.48473 0.00000
0.17601 0.48380 0.00000
0.21320 0.48288 0.00000
0.25040 0.48195 0.00000
0.28759 0.48103 0.00000
0.32478 0.48011 0.00000
0.36197 0.47918 0.00000
0.39916 0.47826 0.00000
0.43635 0.47733 0.00000
0.47354 0.47641 0.00000
0.51074 0.47548 0.00000
0.54793 0.47456 0.00000
0.58512 0.47364 0.00000
0.62231 0.47271 0.00000
0.65950 0.47179 0.00000
0.69669 0.47086 0.00000
0.73389 0.46994 0.00000
0.77108 0.46902 0.00000
0.80827 0.46809 0.00000
0.84546 0.46728 0.00000
0.88265 0.46649 0.00000
0.91984 0.46569 0.00000
0.95703 0.46489 0.00000
0.99423 0.46409 0.00000
1.00000 0.46329 0.00000
1.00000 0.46250 0.00000
1.00000 0.46170 0.00000
0.00000 0.52496 0.00000
0.00000 0.52404 0.00000
0.00000 0.52311 0.00000
0.02520 0.52219 0.00000
0.06239 0.52127 0.00000
0.09958 0.52034 0.00000
0.13677 0.51942 0.00000
0.17397 0.51849 0.00000
0.21116 0.51757 0.00000
0.24835 0.51665 0.00000
0.28554 0.51572 0.00000
0.32273 0.51480 0.00000
0.35992 0.51387 0.00000
0.39711 0.51295 0.00000
0.43431 0.51202 0.00000
0.47150 0.51110 0.00000
0.50869 0.51018 0.00000
0.54588 0.50925 0.00000
0.58307 0.50833 0.00000
0.62026 0.50740 0.00000
0.65746 0.50648 0.00000
0.69465 0.50559 0.00000
0.73184 0.50479 0.00000
0.76903 0.50400 0.00000
0.80622 0.50320 0.00000
0.84341 0.50240 0.00000
0.88060 0.50160 0.00000
0.91780 0.50080 0.00000
0.95499 0.50001 0.00000
0.99218 0.49921 0.00000
1.00000 0.49841 0.00000
1.00000 0.49761 0.00000
1.00000 0.49682 0.00000
0.00000 0.55965 0.00000
0.00000 0.55873 0.00000
0.00000 0.55781 0.00000
0.02315 0.55688 0.00000
0.06034 0.55596 0.00000
0.09754 0.55503 0.00000
0.13473 0.55411 0.00000
0.17192 0.55318 0.00000
0.20911 0.55226 0.00000
0.24630 0.55134 0.00000
0.28349 0.55041 0.00000
0.32068 0.54949 0.00000
0.35788 0.54856 0.00000
0.39507 0.54764 0.00000
0.43226 0.54672 0.00000
0.46945 0.54579 0.00000
0.50664 0.54487 0.00000
0.54383 0.54394 0.00000
0.58103 0.54310 0.00000
0.61822 0.54230 0.00000
0.65541 0.54151 0.00000
0.69260 0.54071 0.00000
0.72979 0.53991 0.00000
0.76698 0.53911 0.00000
0.80417 0.53831 0.00000
0.84137 0.53752 0.00000
0.87856 0.53672 0.00000
0.91575 0.53592 0.00000
0.95294 0.53512 0.00000
0.99013 0.53432 0.00000
1.00000 0.53353 0.00000
1.00000 0.53273 0.00000
1.00000 0.53193 0.00000
0.00000 0.59434 0.00000
0.00000 0.59342 0.00000
0.00000 0.59250 0.00000
0.02111 0.59157 0.00000
0.05830 0.59065 0.00000
0.09549 0.58972 0.00000
0.13268 0.58880 0.00000
0.16987 0.58788 0.00000
0.20706 0.58695 0.00000
0.24425 0.58603 0.00000
0.28145 0.58510 0.00000
0.31864 0.58418 0.00000
0.35583 0.58325 0.00000
0.39302 0.58233 0.00000
0.43021 0.58141 0.00000
0.46740 0.58061 0.00000
0.50460 0.57981 0.00000
0.54179 0.57902 0.00000
0.57898 0.57822 0.00000
0.61617 0.57742 0.00000
0.65336 0.57662 0.00000
0.69055 0.57582 0.00000
0.72774 0.57503 0.00000
0.76494 0.57423 0.00000
0.80213 0.57343 0.00000
0.83932 0.57263 0.00000
0.87651 0.57183 0.00000
0.91370 0.57104 0.00000
0.95089 0.57024 0.00000
0.98809 0.56944 0.00000
1.00000 0.56864 0.00000
1.00000 0.56784 0.00000
1.00000 0.56705 0.00000
0.00000 0.62904 0.00000
0.00000 0.62811 0.00000
0.00000 0.62719 0.00000
0.01906 0.62626 0.00000
0.05625 0.62534 0.00000
0.09344 0.62441 0.00000
0.13063 0.62349 0.00000
0.16782 0.62257 0.00000
0.20502 0.62164 0.00000
0.24221 0.62072 0.00000
0.27940 0.61979 0.00000
0.31659 0.61892 0.00000
0.35378 0.61812 0.00000
0.39097 0.61732 0.00000
0.42817 0.61652 0.00000
0.46536 0.61573 0.00000
0.50255 0.61493 0.00000
0.53974 0.61413 0.00000
0.57693 0.61333 0.00000
0.61412 0.61254 0.00000
0.65131 0.61174 0.00000
0.68851 0.61094 0.00000
0.72570 0.61014 0.00000
0.76289 0.60934 0.00000
0.80008 0.60855 0.00000
0.83727 0.60775 0.00000
0.87446 0.60695 0.00000
0.91166 0.60615 0.00000
0.94885 0.60535 0.00000
0.98604 0.60456 0.00000
1.00000 0.60376 0.00000
1.00000 0.60296 0.00000
1.00000 0.60216 0.00000
0.00000 0.66373 0.00000
0.00000 0.66280 0.00000
0.00000 0.66188 0.00000
0.01701 0.66095 0.00000
0.05420 0.66003 0.00000
0.09139 0.65911 0.00000
0.12859 0.65818 0.00000
0.16578 0.65726 0.00000
0.20297 0.65643 0.00000
0.24016 0.65563 0.00000
0.27735 0.65483 0.00000
0.31454 0.65403 0.00000
0.35174 0.65324 0.00000
0.38893 0.65244 0.00000
0.42612 0.65164 0.00000
0.46331 0.65084 0.00000
0.50050 0.65004 0.00000
0.53769 0.64925 0.00000
0.57488 0.64845 0.00000
0.61208 0.64765 0.00000
0.64927 0.64685 0.00000
0.68646 0.64606 0.00000
0.72365 0.64526 0.00000
0.76084 0.64446 0.00000
0.79803 0.64366 0.00000
0.83523 0.64286 0.00000
0.87242 0.64207 0.00000
0.90961 0.64127 0.00000
0.94680 0.64047 0.00000
0.98399 0.63967 0.00000
1.00000 0.63887 0.00000
1.00000 0.63808 0.00000
1.00000 0.63728 0.00000
0.00000 0.69842 0.00000
0.00000 0.69749 0.00000
0.00000 0.69657 0.00000
0.01496 0.69565 0.00000
0.05216 0.69474 0.00000
0.08935 0.69394 0.00000
0.12654 0.69314 0.00000
0.16373 0.69234 0.00000
0.20092 0.69154 0.00000
0.23811 0.69075 0.00000
0.27531 0.68995 0.00000
0.31250 0.68915 0.00000
0.34969 0.68835 0.00000
0.38688 0.68755 0.00000
0.42407 0.68676 0.00000
0.46126 0.68596 0.00000
0.49845 0.68516 0.00000
0.53565 0.68436 0.00000
0.57284 0.68356 0.00000
0.61003 0.68277 0.00000
0.64722 0.68197 0.00000
0.68441 0.68117 0.00000
0.72160 0.68037 0.00000
0.75880 0.67958 0.00000
0.79599 0.67878 0.00000
0.83318 0.67798 0.00000
0.87037 0.67718 0.00000
0.90756 0.67638 0.00000
0.94475 0.67559 0.00000
0.98194 0.67479 0.00000
1.00000 0.67399 0.00000
1.00000 0.67319 0.00000
1.00000 0.67239 0.00000
0.00000 0.73311 0.00000
0.00000 0.73224 0.00000
0.00000 0.73145 0.00000
0.01292 0.73065 0.00000
0.05011 0.72985 0.00000
0.08730 0.72905 0.00000
0.12449 0.72826 0.00000
0.16168 0.72746 0.00000
0.19888 0.72666 0.00000
0.23607 0.72586 0.00000
0.27326 0.72506 0.00000
0.31045 0.72427 0.00000
0.34764 0.72347 0.00000
0.38483 0.72267 0.00000
0.42202 0.72187 0.00000
0.45922 0.72107 0.00000
0.49641 0.72028 0.00000
0.53360 0.71948 0.00000
0.57079 0.71868 0.00000
0.60798 0.71788 0.00000
0.64517 0.71708 0.00000
0.68237 0.71629 0.00000
0.71956 0.71549 0.00000
0.75675 0.71469 0.00000
0.79394 0.71389 0.00000
0.83113 0.71310 0.00000
0.86832 0.71230 0.00000
0.90551 0.71150 0.00000
0.94271 0.71070 0.00000
0.97990 0.70990 0.00000
1.00000 0.70911 0.00000
1.00000 0.70831 0.00000
1.00000 0.70751 0.00000
0.00000 0.76816 0.00000
0.00000 0.76736 0.00000
0.00000 0.76656 0.00000
0.01087 0.76576 0.00000
0.04806 0.76497 0.00000
0.08525 0.76417 0.00000
0.12245 0.76337 0.00000
0.15964 0.76257 0.00000
0.19683 0.76178 0.00000
0.23402 0.76098 0.00000
0.27121 0.76018 0.00000
0.30840 0.75938 0.00000
0.34559 0.75858 0.00000
0.38279 0.75779 0.00000
0.41998 0.75699 0.00000
0.45717 0.75619 0.00000
0.49436 0.75539 0.00000
0.53155 0.75459 0.00000
0.56874 0.75380 0.00000
0.60594 0.75300 0.00000
0.64313 0.75220 0.00000
0.68032 0.75140 0.00000
0.71751 0.75060 0.00000
0.75470 0.74981 0.00000
0.79189 0.74901 0.00000
0.82908 0.74821 0.00000
0.86628 0.74741 0.00000
0.90347 0.74662 0.00000
0.94066 0.74582 0.00000
0.97785 0.74502 0.00000
1.00000 0.74422 0.00000
1.00000 0.74342 0.00000
1.00000 0.74263 0.00000
0.00000 0.80327 0.00000
0.00000 0.80248 0.00000
0.00000 0.80168 0.00000
0.00882 0.80088 0.00000
0.04602 0.80008 0.00000
0.08321 0.79928 0.00000
0.12040 0.79849 0.00000
0.15759 0.79769 0.00000
0.19478 0.79689 0.00000
0.23197 0.79609 0.00000
0.26916 0.79530 0.00000
0.30636 0.79450 0.00000
0.34355 0.79370 0.00000
0.38074 0.79290 0.00000
0.41793 0.79210 0.00000
0.45512 0.79131 0.00000
0.49231 0.79051 0.00000
0.52951 0.78971 0.00000
0.56670 0.78891 0.00000
0.60389 0.78811 0.00000
0.64108 0.78732 0.00000
0.67827 0.78652 0.00000
0.71546 0.78572 0.00000
0.75265 0.78492 0.00000
0.78985 0.78412 0.00000
0.82704 0.78333 0.00000
0.86423 0.78253 0.00000
0.90142 0.78173 0.00000
0.93861 0.78093 0.00000
0.97580 0.78014 0.00000
1.00000 0.77934 0.00000
1.00000 0.77854 0.00000
1.00000 0.77774 0.00000
0.00000 0.83839 0.00000
0.00000 0.83759 0.00000
0.00000 0.83679 0.00000
0.00678 0.83600 0.00000
0.04397 0.83520 0.00000
0.08116 0.83440 0.00000
0.11835 0.83360 0.00000
0.15554 0.83280 0.00000
0.19273 0.83201 0.00000
0.22993 0.83121 0.00000
0.26712 0.83041 0.00000
0.30431 0.82961 0.00000
0.34150 0.82882 0.00000
0.37869 0.82802 0.00000
0.41588 0.82722 0.00000
0.45308 0.82642 0.00000
0.49027 0.82562 0.00000
0.52746 0.82483 0.00000
0.56465 0.82403 0.00000
0.60184 0.82323 0.00000
0.63903 0.82243 0.00000
0.67622 0.82163 0.00000
0.71342 0.82084 0.00000
0.75061 0.82004 0.00000
0.78780 0.81924 0.00000
0.82499 0.81844 0.00000
0.86218 0.81765 0.00000
0.89937 0.81685 0.00000
0.93657 0.81605 0.00000
0.97376 0.81525 0.00000
1.00000 0.81445 0.00000
1.00000 0.81366 0.00000
1.00000 0.81286 0.00000
0.00000 0.87351 0.00000
0.00000 0.87271 0.00000
0.00000 0.87191 0.00000
0.00473 0.87111 0.00000
0.04192 0.87031 0.00000
0.07911 0.86952 0.00000
0.11630 0.86872 0.00000
0.15350 0.86792 0.00000
0.19069 0.86712 0.00000
0.22788 0.86632 0.00000
0.26507 0.86553 0.00000
0.30226 0.86473 0.00000
0.33945 0.86393 0.00000
0.37665 0.86313 0.00000
0.41384 0.86234 0.00000
0.45103 0.86154 0.00000
0.48822 0.86074 0.00000
0.52541 0.85994 0.00000
0.56260 0.85914 0.00000
0.59979 0.85835 0.00000
0.63699 0.85755 0.00000
0.67418 0.85675 0.00000
0.71137 0.85595 0.00000
0.74856 0.85515 0.00000
0.78575 0.85436 0.00000
0.82294 0.85356 0.00000
0.86014 0.85276 0.00000
0.89733 0.85196 0.00000
0.93452 0.85117 0.00000
0.97171 0.85037 0.00000
1.00000 0.84957 0.00000
1.00000 0.84877 0.00000
1.00000 0.84797 0.00000
0.00000 0.90862 0.00000
0.00000 0.90782 0.00000
0.00000 0.90703 0.00000
0.00268 0.90623 0.00000
0.03987 0.90543 0.00000
0.07707 0.90463 0.00000
0.11426 0.90383 0.00000
0.15145 0.90304 0.00000
0.18864 0.90224 0.00000
