boundlessjs/public/luts/teal_orange.cube
TITLE "teal_orange"
LUT_3D_SIZE 5
0.00000 0.00000 0.00000
0.24391 0.00000 0.00000
0.54144 0.00000 0.00000
0.83897 0.00000 0.00000
1.00000 0.00000 0.00000
0.00000 0.24743 0.00000
0.22753 0.24004 0.00000
0.52506 0.23265 0.00000
0.82260 0.22525 0.00000
1.00000 0.21786 0.00000
0.00000 0.52496 0.00000
0.21116 0.51757 0.00000
0.50869 0.51018 0.00000
0.80622 0.50320 0.00000
1.00000 0.49682 0.00000
0.00000 0.80327 0.00000
0.19478 0.79689 0.00000
0.49231 0.79051 0.00000
0.78985 0.78412 0.00000
1.00000 0.77774 0.00000
0.00000 1.00000 0.00000
0.17841 1.00000 0.00000
0.47594 1.00000 0.00000
0.77347 1.00000 0.00000
1.00000 1.00000 0.00000
0.00000 0.00000 0.27846
0.24225 0.00000 0.27046
0.53979 0.00000 0.26206
0.83732 0.00000 0.25365
1.00000 0.00000 0.24525
0.00000 0.24492 0.25059
0.22588 0.23753 0.24219
0.52341 0.23014 0.23379
0.82094 0.22274 0.22538
1.00000 0.21535 0.21698
0.00000 0.52245 0.22232
0.20950 0.51506 0.21392
0.50704 0.50767 0.20552
0.80457 0.50103 0.19711
1.00000 0.49465 0.18871
0.00000 0.80111 0.19405
0.19313 0.79472 0.18565
0.49066 0.78834 0.17725
0.78819 0.78196 0.16884
1.00000 0.77557 0.16044
0.00000 1.00000 0.16578
0.17675 1.00000 0.15738
0.47429 1.00000 0.14898
0.77182 1.00000 0.14057
1.00000 1.00000 0.13217
0.00000 0.00000 0.57841
0.24060 0.00000 0.57001
0.53813 0.00000 0.56160
0.83567 0.00000 0.55320
1.00000 0.00000 0.54480
0.00000 0.24241 0.55014
0.22423 0.23502 0.54174
0.52176 0.22763 0.53333
0.81929 0.22023 0.52493
1.00000 0.21284 0.51653
0.00000 0.51994 0.52187
0.20785 0.51255 0.51347
0.50538 0.50525 0.50506
0.80292 0.49886 0.49666
1.00000 0.49248 0.48826
0.00000 0.79894 0.49360
0.19148 0.79256 0.48520
0.48901 0.78617 0.47679
0.78654 0.77979 0.46839
1.00000 0.77341 0.45998
0.00000 1.00000 0.46533
0.17510 1.00000 0.45693
0.47263 1.00000 0.44852
0.77016 1.00000 0.44012
1.00000 1.00000 0.43188
0.00000 0.00000 0.87796
0.23895 0.00000 0.86955
0.53648 0.00000 0.86115
0.83401 0.00000 0.85275
1.00000 0.00000 0.84434
0.00000 0.23990 0.84969
0.22257 0.23251 0.84128
0.52011 0.22512 0.83288
0.81764 0.21772 0.82448
1.00000 0.21033 0.81607
0.00000 0.51743 0.82142
0.20620 0.51004 0.81301
0.50373 0.50308 0.80461
0.80126 0.49669 0.79621
1.00000 0.49031 0.78780
0.00000 0.79677 0.79315
0.18982 0.79039 0.78474
0.48735 0.78400 0.77634
0.78489 0.77762 0.76793
1.00000 0.77124 0.75953
0.00000 1.00000 0.76488
0.17345 1.00000 0.75647
0.47098 1.00000 0.74807
0.76851 1.00000 0.73966
1.00000 1.00000 0.73194
0.00000 0.00000 1.00000
0.23729 0.00000 1.00000
0.53483 0.00000 1.00000
0.83236 0.00000 1.00000
1.00000 0.00000 1.00000
0.00000 0.23739 1.00000
0.22092 0.23000 1.00000
0.51845 0.22260 1.00000
0.81598 0.21521 1.00000
1.00000 0.20782 1.00000
0.00000 0.51492 1.00000
0.20454 0.50753 1.00000
0.50208 0.50091 1.00000
0.79961 0.49453 1.00000
1.00000 0.48814 1.00000
0.00000 0.79460 1.00000
0.18817 0.78822 1.00000
0.48570 0.78184 1.00000
0.78323 0.77545 1.00000
1.00000 0.76907 1.00000
0.00000 1.00000 1.00000
0.17179 1.00000 1.00000
0.46933 1.00000 1.00000
0.76686 1.00000 1.00000
1.00000 1.00000 1.00000
