boundlessjs/public/luts/vibrant.cube
TITLE "vibrant"
LUT_3D_SIZE 9
0.00000 0.00000 0.00000
0.12431 0.00000 0.00000
0.29213 0.00000 0.00000
0.45994 0.00000 0.00000
0.62776 0.00000 0.00000
0.79557 0.00000 0.00000
0.96339 0.00000 0.00000
1.00000 0.00000 0.00000
1.00000 0.00000 0.00000
0.00000 0.10496 0.00000
0.09678 0.09678 0.00000
0.26459 0.08859 0.00000
0.43241 0.08041 0.00000
0.60022 0.07222 0.00000
0.76804 0.06404 0.00000
0.93585 0.05585 0.00000
1.00000 0.04767 0.00000
1.00000 0.03948 0.00000
0.00000 0.25343 0.00000
0.06924 0.24524 0.00000
0.23706 0.23706 0.00000
0.40487 0.22887 0.00000
0.57269 0.22069 0.00000
0.74050 0.21250 0.00000
0.90832 0.20432 0.00000
1.00000 0.19613 0.00000
1.00000 0.18795 0.00000
0.00000 0.40189 0.00000
0.04171 0.39371 0.00000
0.20952 0.38552 0.00000
0.37734 0.37734 0.00000
0.54515 0.36915 0.00000
0.71297 0.36097 0.00000
0.88078 0.35278 0.00000
1.00000 0.34460 0.00000
1.00000 0.33641 0.00000
0.00000 0.55036 0.00000
0.01417 0.54217 0.00000
0.18199 0.53399 0.00000
0.34980 0.52580 0.00000
0.51762 0.51762 0.00000
0.68543 0.50943 0.00000
0.85325 0.50125 0.00000
1.00000 0.49306 0.00000
1.00000 0.48488 0.00000
0.00000 0.69882 0.00000
0.00000 0.69064 0.00000
0.15445 0.68245 0.00000
0.32227 0.67427 0.00000
0.49008 0.66608 0.00000
0.65790 0.65790 0.00000
0.82571 0.64971 0.00000
0.99353 0.64153 0.00000
1.00000 0.63334 0.00000
0.00000 0.84729 0.00000
0.00000 0.83910 0.00000
0.12692 0.83092 0.00000
0.29473 0.82273 0.00000
0.46255 0.81455 0.00000
0.63036 0.80636 0.00000
0.79818 0.79818 0.00000
0.96599 0.78999 0.00000
1.00000 0.78181 0.00000
0.00000 0.99575 0.00000
0.00000 0.98757 0.00000
0.09938 0.97938 0.00000
0.26720 0.97120 0.00000
0.43501 0.96301 0.00000
0.60283 0.95483 0.00000
0.77064 0.94664 0.00000
0.93846 0.93846 0.00000
1.00000 0.93027 0.00000
0.00000 1.00000 0.00000
0.00000 1.00000 0.00000
0.07185 1.00000 0.00000
0.23966 1.00000 0.00000
0.40748 1.00000 0.00000
0.57529 1.00000 0.00000
0.74311 1.00000 0.00000
0.91092 1.00000 0.00000
1.00000 1.00000 0.00000
0.00000 0.00000 0.12972
0.12154 0.00000 0.12154
0.28935 0.00000 0.11335
0.45716 0.00000 0.10516
0.62498 0.00000 0.09698
0.79279 0.00000 0.08879
0.96061 0.00000 0.08061
1.00000 0.00000 0.07242
1.00000 0.00000 0.06424
0.00000 0.10219 0.10219
0.09400 0.09400 0.09400
0.26181 0.08581 0.08581
0.42963 0.07763 0.07763
0.59744 0.06944 0.06944
0.76526 0.06126 0.06126
0.93307 0.05307 0.05307
1.00000 0.04489 0.04489
1.00000 0.03670 0.03670
0.00000 0.25065 0.07465
0.06646 0.24246 0.06646
0.23428 0.23428 0.05828
0.40209 0.22609 0.05009
0.56991 0.21791 0.04191
0.73772 0.20972 0.03372
0.90554 0.20154 0.02554
1.00000 0.19335 0.01735
1.00000 0.18517 0.00917
0.00000 0.39911 0.04711
0.03893 0.39093 0.03893
0.20674 0.38274 0.03074
0.37456 0.37456 0.02256
0.54237 0.36637 0.01437
0.71019 0.35819 0.00619
0.87800 0.35000 0.00000
1.00000 0.34182 0.00000
1.00000 0.33363 0.00000
0.00000 0.54758 0.01958
0.01139 0.53939 0.01139
0.17921 0.53121 0.00321
0.34702 0.52302 0.00000
0.51484 0.51484 0.00000
0.68265 0.50665 0.00000
0.85047 0.49847 0.00000
1.00000 0.49028 0.00000
1.00000 0.48210 0.00000
0.00000 0.69604 0.00000
0.00000 0.68786 0.00000
0.15167 0.67967 0.00000
0.31949 0.67149 0.00000
0.48730 0.66330 0.00000
0.65512 0.65512 0.00000
0.82293 0.64693 0.00000
0.99075 0.63875 0.00000
1.00000 0.63056 0.00000
0.00000 0.84451 0.00000
0.00000 0.83632 0.00000
0.12414 0.82814 0.00000
0.29195 0.81995 0.00000
0.45977 0.81177 0.00000
0.62758 0.80358 0.00000
0.79540 0.79540 0.00000
0.96321 0.78721 0.00000
1.00000 0.77903 0.00000
0.00000 0.99297 0.00000
0.00000 0.98479 0.00000
0.09660 0.97660 0.00000
0.26442 0.96842 0.00000
0.43223 0.96023 0.00000
0.60005 0.95205 0.00000
0.76786 0.94386 0.00000
0.93568 0.93568 0.00000
1.00000 0.92749 0.00000
0.00000 1.00000 0.00000
0.00000 1.00000 0.00000
0.06907 1.00000 0.00000
0.23688 1.00000 0.00000
0.40470 1.00000 0.00000
0.57251 1.00000 0.00000
0.74033 1.00000 0.00000
0.90814 1.00000 0.00000
1.00000 1.00000 0.00000
0.00000 0.00000 0.30294
0.11876 0.00000 0.29476
0.28657 0.00000 0.28657
0.45439 0.00000 0.27839
0.62220 0.00000 0.27020
0.79002 0.00000 0.26202
0.95783 0.00000 0.25383
1.00000 0.00000 0.24564
1.00000 0.00000 0.23746
0.00000 0.09941 0.27541
0.09122 0.09122 0.26722
0.25904 0.08304 0.25904
0.42685 0.07485 0.25085
0.59466 0.06666 0.24266
0.76248 0.05848 0.23448
0.93029 0.05029 0.22629
1.00000 0.04211 0.21811
1.00000 0.03392 0.20992
0.00000 0.24787 0.24787
0.06369 0.23969 0.23969
0.23150 0.23150 0.23150
0.39931 0.22331 0.22331
0.56713 0.21513 0.21513
0.73494 0.20694 0.20694
0.90276 0.19876 0.19876
1.00000 0.19057 0.19057
1.00000 0.18239 0.18239
0.00000 0.39633 0.22034
0.03615 0.38815 0.21215
0.20396 0.37996 0.20396
0.37178 0.37178 0.19578
0.53959 0.36359 0.18759
0.70741 0.35541 0.17941
0.87522 0.34722 0.17122
1.00000 0.33904 0.16304
1.00000 0.33085 0.15485
0.00000 0.54480 0.19280
0.00861 0.53661 0.18461
0.17643 0.52843 0.17643
0.34424 0.52024 0.16824
0.51206 0.51206 0.16006
0.67987 0.50387 0.15187
0.84769 0.49569 0.14369
1.00000 0.48750 0.13550
1.00000 0.47932 0.12732
0.00000 0.69326 0.16526
0.00000 0.68508 0.15708
0.14889 0.67689 0.14889
0.31671 0.66871 0.14071
0.48452 0.66052 0.13252
0.65234 0.65234 0.12434
0.82015 0.64415 0.11615
0.98797 0.63597 0.10797
1.00000 0.62778 0.09978
0.00000 0.84173 0.13773
0.00000 0.83354 0.12954
0.12136 0.82536 0.12136
0.28917 0.81717 0.11317
0.45699 0.80899 0.10499
0.62480 0.80080 0.09680
0.79262 0.79262 0.08862
0.96043 0.78443 0.08043
1.00000 0.77625 0.07225
0.00000 0.99019 0.11019
0.00000 0.98201 0.10201
0.09382 0.97382 0.09382
0.26164 0.96564 0.08564
0.42945 0.95745 0.07745
0.59727 0.94927 0.06927
0.76508 0.94108 0.06108
0.93290 0.93290 0.05290
1.00000 0.92471 0.04471
0.00000 1.00000 0.08266
0.00000 1.00000 0.07447
0.06629 1.00000 0.06629
0.23410 1.00000 0.05810
0.40192 1.00000 0.04992
0.56973 1.00000 0.04173
0.73755 1.00000 0.03355
0.90536 1.00000 0.02536
1.00000 1.00000 0.01718
0.00000 0.00000 0.47616
0.11598 0.00000 0.46798
0.28379 0.00000 0.45979
0.45161 0.00000 0.45161
0.61942 0.00000 0.44342
0.78724 0.00000 0.43524
0.95505 0.00000 0.42705
1.00000 0.00000 0.41887
1.00000 0.00000 0.41068
0.00000 0.09663 0.44863
0.08844 0.08844 0.44044
0.25626 0.08026 0.43226
0.42407 0.07207 0.42407
0.59189 0.06389 0.41589
0.75970 0.05570 0.40770
0.92752 0.04752 0.39952
1.00000 0.03933 0.39133
1.00000 0.03114 0.38314
0.00000 0.24509 0.42109
0.06091 0.23691 0.41291
0.22872 0.22872 0.40472
0.39654 0.22054 0.39654
0.56435 0.21235 0.38835
0.73216 0.20416 0.38016
0.89998 0.19598 0.37198
1.00000 0.18779 0.36379
1.00000 0.17961 0.35561
0.00000 0.39356 0.39356
0.03337 0.38537 0.38537
0.20119 0.37719 0.37719
0.36900 0.36900 0.36900
0.53681 0.36081 0.36081
0.70463 0.35263 0.35263
0.87244 0.34444 0.34444
1.00000 0.33626 0.33626
1.00000 0.32807 0.32807
0.00000 0.54202 0.36602
0.00583 0.53384 0.35784
0.17365 0.52565 0.34965
0.34146 0.51746 0.34146
0.50928 0.50928 0.33328
0.67709 0.50109 0.32509
0.84491 0.49291 0.31691
1.00000 0.48472 0.30872
1.00000 0.47654 0.30054
0.00000 0.69048 0.33848
0.00000 0.68230 0.33030
0.14611 0.67411 0.32211
0.31393 0.66593 0.31393
0.48174 0.65774 0.30574
0.64956 0.64956 0.29756
0.81737 0.64137 0.28937
0.98519 0.63319 0.28119
1.00000 0.62500 0.27300
0.00000 0.83895 0.31095
0.00000 0.83076 0.30276
0.11858 0.82258 0.29458
0.28639 0.81439 0.28639
0.45421 0.80621 0.27821
0.62202 0.79802 0.27002
0.78984 0.78984 0.26184
0.95765 0.78165 0.25365
1.00000 0.77347 0.24547
0.00000 0.98741 0.28341
0.00000 0.97923 0.27523
0.09104 0.97104 0.26704
0.25886 0.96286 0.25886
0.42667 0.95467 0.25067
0.59449 0.94649 0.24249
0.76230 0.93830 0.23430
0.93012 0.93012 0.22612
1.00000 0.92193 0.21793
0.00000 1.00000 0.25588
0.00000 1.00000 0.24769
0.06351 1.00000 0.23951
0.23132 1.00000 0.23132
0.39914 1.00000 0.22314
0.56695 1.00000 0.21495
0.73477 1.00000 0.20677
0.90258 1.00000 0.19858
1.00000 1.00000 0.19040
0.00000 0.00000 0.64938
0.11320 0.00000 0.64120
0.28101 0.00000 0.63301
0.44883 0.00000 0.62483
0.61664 0.00000 0.61664
0.78446 0.00000 0.60846
0.95227 0.00000 0.60027
1.00000 0.00000 0.59209
1.00000 0.00000 0.58390
0.00000 0.09385 0.62185
0.08566 0.08566 0.61366
0.25348 0.07748 0.60548
0.42129 0.06929 0.59729
0.58911 0.06111 0.58911
0.75692 0.05292 0.58092
0.92474 0.04474 0.57274
1.00000 0.03655 0.56455
1.00000 0.02837 0.55637
0.00000 0.24231 0.59431
0.05813 0.23413 0.58613
0.22594 0.22594 0.57794
0.39376 0.21776 0.56976
0.56157 0.20957 0.56157
0.72939 0.20139 0.55339
0.89720 0.19320 0.54520
1.00000 0.18502 0.53702
1.00000 0.17683 0.52883
0.00000 0.39078 0.56678
0.03059 0.38259 0.55859
0.19841 0.37441 0.55041
0.36622 0.36622 0.54222
0.53404 0.35804 0.53404
0.70185 0.34985 0.52585
0.86966 0.34166 0.51767
1.00000 0.33348 0.50948
1.00000 0.32529 0.50129
0.00000 0.53924 0.53924
0.00306 0.53106 0.53106
0.17087 0.52287 0.52287
0.33869 0.51469 0.51469
0.50650 0.50650 0.50650
0.67431 0.49831 0.49831
0.84213 0.49013 0.49013
1.00000 0.48194 0.48194
1.00000 0.47376 0.47376
0.00000 0.68771 0.51171
0.00000 0.67952 0.50352
0.14333 0.67134 0.49534
0.31115 0.66315 0.48715
0.47896 0.65496 0.47896
0.64678 0.64678 0.47078
0.81459 0.63859 0.46259
0.98241 0.63041 0.45441
1.00000 0.62222 0.44622
0.00000 0.83617 0.48417
0.00000 0.82798 0.47598
0.11580 0.81980 0.46780
0.28361 0.81161 0.45961
0.45143 0.80343 0.45143
0.61924 0.79524 0.44324
0.78706 0.78706 0.43506
0.95487 0.77887 0.42687
1.00000 0.77069 0.41869
0.00000 0.98463 0.45663
0.00000 0.97645 0.44845
0.08826 0.96826 0.44026
0.25608 0.96008 0.43208
0.42389 0.95189 0.42389
0.59171 0.94371 0.41571
0.75952 0.93552 0.40752
0.92734 0.92734 0.39934
1.00000 0.91915 0.39115
0.00000 1.00000 0.42910
0.00000 1.00000 0.42091
0.06073 1.00000 0.41273
0.22854 1.00000 0.40454
0.39636 1.00000 0.39636
0.56417 1.00000 0.38817
0.73199 1.00000 0.37999
0.89980 1.00000 0.37180
1.00000 1.00000 0.36362
0.00000 0.00000 0.82260
0.11042 0.00000 0.81442
0.27823 0.00000 0.80623
0.44605 0.00000 0.79805
0.61386 0.00000 0.78986
0.78168 0.00000 0.78168
0.94949 0.00000 0.77349
1.00000 0.00000 0.76531
1.00000 0.00000 0.75712
0.00000 0.09107 0.79507
0.08288 0.08288 0.78688
0.25070 0.07470 0.77870
0.41851 0.06651 0.77051
0.58633 0.05833 0.76233
0.75414 0.05014 0.75414
0.92196 0.04196 0.74596
1.00000 0.03377 0.73777
1.00000 0.02559 0.72959
0.00000 0.23953 0.76753
0.05535 0.23135 0.75935
0.22316 0.22316 0.75116
0.39098 0.21498 0.74298
0.55879 0.20679 0.73479
0.72661 0.19861 0.72661
0.89442 0.19042 0.71842
1.00000 0.18224 0.71024
1.00000 0.17405 0.70205
0.00000 0.38800 0.74000
0.02781 0.37981 0.73181
0.19563 0.37163 0.72363
0.36344 0.36344 0.71544
0.53126 0.35526 0.70726
0.69907 0.34707 0.69907
0.86689 0.33889 0.69089
1.00000 0.33070 0.68270
1.00000 0.32252 0.67452
0.00000 0.53646 0.71246
0.00028 0.52828 0.70428
0.16809 0.52009 0.69609
0.33591 0.51191 0.68791
0.50372 0.50372 0.67972
0.67154 0.49554 0.67154
0.83935 0.48735 0.66335
1.00000 0.47917 0.65516
1.00000 0.47098 0.64698
0.00000 0.68493 0.68493
0.00000 0.67674 0.67674
0.14056 0.66856 0.66856
0.30837 0.66037 0.66037
0.47619 0.65219 0.65219
0.64400 0.64400 0.64400
0.81181 0.63581 0.63581
0.97963 0.62763 0.62763
1.00000 0.61944 0.61944
0.00000 0.83339 0.65739
0.00000 0.82521 0.64921
0.11302 0.81702 0.64102
0.28084 0.80884 0.63284
0.44865 0.80065 0.62465
0.61646 0.79246 0.61646
0.78428 0.78428 0.60828
0.95209 0.77609 0.60009
1.00000 0.76791 0.59191
0.00000 0.98186 0.62986
0.00000 0.97367 0.62167
0.08548 0.96548 0.61348
0.25330 0.95730 0.60530
0.42111 0.94911 0.59711
0.58893 0.94093 0.58893
0.75674 0.93274 0.58074
0.92456 0.92456 0.57256
1.00000 0.91637 0.56437
0.00000 1.00000 0.60232
0.00000 1.00000 0.59413
0.05795 1.00000 0.58595
0.22576 1.00000 0.57776
0.39358 1.00000 0.56958
0.56139 1.00000 0.56139
0.72921 1.00000 0.55321
0.89702 1.00000 0.54502
1.00000 1.00000 0.53684
0.00000 0.00000 0.99582
0.10764 0.00000 0.98764
0.27545 0.00000 0.97945
0.44327 0.00000 0.97127
0.61108 0.00000 0.96308
0.77890 0.00000 0.95490
0.94671 0.00000 0.94671
1.00000 0.00000 0.93853
1.00000 0.00000 0.93034
0.00000 0.08829 0.96829
0.08010 0.08010 0.96010
0.24792 0.07192 0.95192
0.41573 0.06373 0.94373
0.58355 0.05555 0.93555
0.75136 0.04736 0.92736
0.91918 0.03918 0.91918
1.00000 0.03099 0.91099
1.00000 0.02281 0.90281
0.00000 0.23675 0.94075
0.05257 0.22857 0.93257
0.22038 0.22038 0.92438
0.38820 0.21220 0.91620
0.55601 0.20401 0.90801
0.72383 0.19583 0.89983
0.89164 0.18764 0.89164
1.00000 0.17946 0.88346
1.00000 0.17127 0.87527
0.00000 0.38522 0.91322
0.02503 0.37703 0.90503
0.19285 0.36885 0.89685
0.36066 0.36066 0.88866
0.52848 0.35248 0.88048
0.69629 0.34429 0.87229
0.86411 0.33611 0.86411
1.00000 0.32792 0.85592
1.00000 0.31974 0.84774
0.00000 0.53368 0.88568
0.00000 0.52550 0.87750
0.16531 0.51731 0.86931
0.33313 0.50913 0.86113
0.50094 0.50094 0.85294
0.66876 0.49276 0.84476
0.83657 0.48457 0.83657
1.00000 0.47639 0.82839
1.00000 0.46820 0.82020
0.00000 0.68215 0.85815
0.00000 0.67396 0.84996
0.13778 0.66578 0.84178
0.30559 0.65759 0.83359
0.47341 0.64941 0.82541
0.64122 0.64122 0.81722
0.80904 0.63304 0.80904
0.97685 0.62485 0.80085
1.00000 0.61667 0.79266
0.00000 0.83061 0.83061
0.00000 0.82243 0.82243
0.11024 0.81424 0.81424
0.27806 0.80606 0.80606
0.44587 0.79787 0.79787
0.61369 0.78969 0.78969
0.78150 0.78150 0.78150
0.94931 0.77331 0.77331
1.00000 0.76513 0.76513
0.00000 0.97908 0.80308
0.00000 0.97089 0.79489
0.08271 0.96271 0.78671
0.25052 0.95452 0.77852
0.41834 0.94634 0.77033
0.58615 0.93815 0.76215
0.75396 0.92996 0.75396
0.92178 0.92178 0.74578
1.00000 0.91359 0.73759
0.00000 1.00000 0.77554
0.00000 1.00000 0.76736
0.05517 1.00000 0.75917
0.22298 1.00000 0.75098
0.39080 1.00000 0.74280
0.55861 1.00000 0.73461
0.72643 1.00000 0.72643
0.89424 1.00000 0.71824
1.00000 1.00000 0.71006
0.00000 0.00000 1.00000
0.10486 0.00000 1.00000
0.27267 0.00000 1.00000
0.44049 0.00000 1.00000
0.60830 0.00000 1.00000
0.77612 0.00000 1.00000
0.94393 0.00000 1.00000
1.00000 0.00000 1.00000
1.00000 0.00000 1.00000
0.00000 0.08551 1.00000
0.07732 0.07732 1.00000
0.24514 0.06914 1.00000
0.41295 0.06095 1.00000
0.58077 0.05277 1.00000
0.74858 0.04458 1.00000
0.91640 0.03640 1.00000
1.00000 0.02821 1.00000
1.00000 0.02003 1.00000
0.00000 0.23397 1.00000
0.04979 0.22579 1.00000
0.21760 0.21760 1.00000
0.38542 0.20942 1.00000
0.55323 0.20123 1.00000
0.72105 0.19305 1.00000
0.88886 0.18486 1.00000
1.00000 0.17668 1.00000
1.00000 0.16849 1.00000
0.00000 0.38244 1.00000
0.02225 0.37425 1.00000
0.19007 0.36607 1.00000
0.35788 0.35788 1.00000
0.52570 0.34970 1.00000
0.69351 0.34151 1.00000
0.86133 0.33333 1.00000
1.00000 0.32514 1.00000
1.00000 0.31696 1.00000
0.00000 0.53090 1.00000
0.00000 0.52272 1.00000
0.16253 0.51453 1.00000
0.33035 0.50635 1.00000
0.49816 0.49816 1.00000
0.66598 0.48998 1.00000
0.83379 0.48179 1.00000
1.00000 0.47361 1.00000
1.00000 0.46542 0.99342
0.00000 0.67937 1.00000
0.00000 0.67118 1.00000
0.13500 0.66300 1.00000
0.30281 0.65481 1.00000
0.47063 0.64663 0.99863
0.63844 0.63844 0.99044
0.80626 0.63026 0.98226
0.97407 0.62207 0.97407
1.00000 0.61389 0.96589
0.00000 0.82783 1.00000
0.00000 0.81965 0.99565
0.10746 0.81146 0.98746
0.27528 0.80328 0.97928
0.44309 0.79509 0.97109
0.61091 0.78691 0.96291
0.77872 0.77872 0.95472
0.94654 0.77054 0.94654
1.00000 0.76235 0.93835
0.00000 0.97630 0.97630
0.00000 0.96811 0.96811
0.07993 0.95993 0.95993
0.24774 0.95174 0.95174
0.41556 0.94356 0.94356
0.58337 0.93537 0.93537
0.75119 0.92719 0.92719
0.91900 0.91900 0.91900
1.00000 0.91081 0.91081
0.00000 1.00000 0.94876
0.00000 1.00000 0.94058
0.05239 1.00000 0.93239
0.22021 1.00000 0.92421
0.38802 1.00000 0.91602
0.55584 1.00000 0.90784
0.72365 1.00000 0.89965
0.89146 1.00000 0.89146
1.00000 1.00000 0.88328
0.00000 0.00000 1.00000
0.10208 0.00000 1.00000
0.26989 0.00000 1.00000
0.43771 0.00000 1.00000
0.60552 0.00000 1.00000
0.77334 0.00000 1.00000
0.94115 0.00000 1.00000
1.00000 0.00000 1.00000
1.00000 0.00000 1.00000
0.00000 0.08273 1.00000
0.07454 0.07454 1.00000
0.24236 0.06636 1.00000
0.41017 0.05817 1.00000
0.57799 0.04999 1.00000
0.74580 0.04180 1.00000
0.91362 0.03362 1.00000
1.00000 0.02543 1.00000
1.00000 0.01725 1.00000
0.00000 0.23119 1.00000
0.04701 0.22301 1.00000
0.21482 0.21482 1.00000
0.38264 0.20664 1.00000
0.55045 0.19845 1.00000
0.71827 0.19027 1.00000
0.88608 0.18208 1.00000
1.00000 0.17390 1.00000
1.00000 0.16571 1.00000
0.00000 0.37966 1.00000
0.01947 0.37147 1.00000
0.18729 0.36329 1.00000
0.35510 0.35510 1.00000
0.52292 0.34692 1.00000
0.69073 0.33873 1.00000
0.85855 0.33055 1.00000
1.00000 0.32236 1.00000
1.00000 0.31418 1.00000
0.00000 0.52812 1.00000
0.00000 0.51994 1.00000
0.15975 0.51175 1.00000
0.32757 0.50357 1.00000
0.49538 0.49538 1.00000
0.66320 0.48720 1.00000
0.83101 0.47901 1.00000
0.99883 0.47083 1.00000
1.00000 0.46264 1.00000
0.00000 0.67659 1.00000
0.00000 0.66840 1.00000
0.13222 0.66022 1.00000
0.30003 0.65203 1.00000
0.46785 0.64385 1.00000
0.63566 0.63566 1.00000
0.80348 0.62748 1.00000
0.97129 0.61929 1.00000
1.00000 0.61111 1.00000
0.00000 0.82505 1.00000
0.00000 0.81687 1.00000
0.10468 0.80868 1.00000
0.27250 0.80050 1.00000
0.44031 0.79231 1.00000
0.60813 0.78413 1.00000
0.77594 0.77594 1.00000
0.94376 0.76776 1.00000
1.00000 0.75957 1.00000
0.00000 0.97352 1.00000
0.00000 0.96533 1.00000
0.07715 0.95715 1.00000
0.24496 0.94896 1.00000
0.41278 0.94078 1.00000
0.58059 0.93259 1.00000
0.74841 0.92441 1.00000
0.91622 0.91622 1.00000
1.00000 0.90804 1.00000
0.00000 1.00000 1.00000
0.00000 1.00000 1.00000
0.04961 1.00000 1.00000
0.21743 1.00000 1.00000
0.38524 1.00000 1.00000
0.55306 1.00000 1.00000
0.72087 1.00000 1.00000
0.88869 1.00000 1.00000
1.00000 1.00000 1.00000
