boundlessjs/public/luts/vibrant.cube
TITLE "vibrant"
LUT_3D_SIZE 33
0.00000 0.00000 0.00000
0.00000 0.00000 0.00000
0.04041 0.00000 0.00000
0.08236 0.00000 0.00000
0.12431 0.00000 0.00000
0.16627 0.00000 0.00000
0.20822 0.00000 0.00000
0.25018 0.00000 0.00000
0.29213 0.00000 0.00000
0.33408 0.00000 0.00000
0.37604 0.00000 0.00000
0.41799 0.00000 0.00000
0.45994 0.00000 0.00000
0.50190 0.00000 0.00000
0.54385 0.00000 0.00000
0.58581 0.00000 0.00000
0.62776 0.00000 0.00000
0.66971 0.00000 0.00000
0.71167 0.00000 0.00000
0.75362 0.00000 0.00000
0.79557 0.00000 0.00000
0.83753 0.00000 0.00000
0.87948 0.00000 0.00000
0.92144 0.00000 0.00000
0.96339 0.00000 0.00000
1.00000 0.00000 0.00000
1.00000 0.00000 0.00000
1.00000 0.00000 0.00000
1.00000 0.00000 0.00000
1.00000 0.00000 0.00000
1.00000 0.00000 0.00000
1.00000 0.00000 0.00000
1.00000 0.00000 0.00000
0.00000 0.00000 0.00000
0.00000 0.00000 0.00000
0.03352 0.00000 0.00000
0.07548 0.00000 0.00000
0.11743 0.00000 0.00000
0.15938 0.00000 0.00000
0.20134 0.00000 0.00000
0.24329 0.00000 0.00000
0.28525 0.00000 0.00000
0.32720 0.00000 0.00000
0.36915 0.00000 0.00000
0.41111 0.00000 0.00000
0.45306 0.00000 0.00000
0.49501 0.00000 0.00000
0.53697 0.00000 0.00000
0.57892 0.00000 0.00000
0.62088 0.00000 0.00000
0.66283 0.00000 0.00000
0.70478 0.00000 0.00000
0.74674 0.00000 0.00000
0.78869 0.00000 0.00000
0.83064 0.00000 0.00000
0.87260 0.00000 0.00000
0.91455 0.00000 0.00000
0.95651 0.00000 0.00000
0.99846 0.00000 0.00000
1.00000 0.00000 0.00000
1.00000 0.00000 0.00000
1.00000 0.00000 0.00000
1.00000 0.00000 0.00000
1.00000 0.00000 0.00000
1.00000 0.00000 0.00000
1.00000 0.00000 0.00000
0.00000 0.03073 0.00000
0.00000 0.02869 0.00000
0.02664 0.02664 0.00000
0.06859 0.02459 0.00000
0.11055 0.02255 0.00000
0.15250 0.02050 0.00000
0.19445 0.01845 0.00000
0.23641 0.01641 0.00000
0.27836 0.01436 0.00000
0.32032 0.01232 0.00000
0.36227 0.01027 0.00000
0.40422 0.00822 0.00000
0.44618 0.00618 0.00000
0.48813 0.00413 0.00000
0.53008 0.00208 0.00000
0.57204 0.00004 0.00000
0.61399 0.00000 0.00000
0.65595 0.00000 0.00000
0.69790 0.00000 0.00000
0.73985 0.00000 0.00000
0.78181 0.00000 0.00000
0.82376 0.00000 0.00000
0.86571 0.00000 0.00000
0.90767 0.00000 0.00000
0.94962 0.00000 0.00000
0.99158 0.00000 0.00000
1.00000 0.00000 0.00000
1.00000 0.00000 0.00000
1.00000 0.00000 0.00000
1.00000 0.00000 0.00000
1.00000 0.00000 0.00000
1.00000 0.00000 0.00000
1.00000 0.00000 0.00000
0.00000 0.06785 0.00000
0.00000 0.06580 0.00000
0.01976 0.06376 0.00000
0.06171 0.06171 0.00000
0.10366 0.05966 0.00000
0.14562 0.05762 0.00000
0.18757 0.05557 0.00000
0.22952 0.05352 0.00000
0.27148 0.05148 0.00000
0.31343 0.04943 0.00000
0.35539 0.04739 0.00000
0.39734 0.04534 0.00000
0.43929 0.04329 0.00000
0.48125 0.04125 0.00000
0.52320 0.03920 0.00000
0.56515 0.03715 0.00000
0.60711 0.03511 0.00000
0.64906 0.03306 0.00000
0.69102 0.03102 0.00000
0.73297 0.02897 0.00000
0.77492 0.02692 0.00000
0.81688 0.02488 0.00000
0.85883 0.02283 0.00000
0.90078 0.02078 0.00000
0.94274 0.01874 0.00000
0.98469 0.01669 0.00000
1.00000 0.01465 0.00000
1.00000 0.01260 0.00000
1.00000 0.01055 0.00000
1.00000 0.00851 0.00000
1.00000 0.00646 0.00000
1.00000 0.00441 0.00000
1.00000 0.00237 0.00000
0.00000 0.10496 0.00000
0.00000 0.10292 0.00000
0.01287 0.10087 0.00000
0.05483 0.09883 0.00000
0.09678 0.09678 0.00000
0.13873 0.09473 0.00000
0.18069 0.09269 0.00000
0.22264 0.09064 0.00000
0.26459 0.08859 0.00000
0.30655 0.08655 0.00000
0.34850 0.08450 0.00000
0.39046 0.08246 0.00000
0.43241 0.08041 0.00000
0.47436 0.07836 0.00000
0.51632 0.07632 0.00000
0.55827 0.07427 0.00000
0.60022 0.07222 0.00000
0.64218 0.07018 0.00000
0.68413 0.06813 0.00000
0.72609 0.06609 0.00000
0.76804 0.06404 0.00000
0.80999 0.06199 0.00000
0.85195 0.05995 0.00000
0.89390 0.05790 0.00000
0.93585 0.05585 0.00000
0.97781 0.05381 0.00000
1.00000 0.05176 0.00000
1.00000 0.04972 0.00000
1.00000 0.04767 0.00000
1.00000 0.04562 0.00000
1.00000 0.04358 0.00000
1.00000 0.04153 0.00000
1.00000 0.03948 0.00000
0.00000 0.14208 0.00000
0.00000 0.14003 0.00000
0.00599 0.13799 0.00000
0.04794 0.13594 0.00000
0.08990 0.13390 0.00000
0.13185 0.13185 0.00000
0.17380 0.12980 0.00000
0.21576 0.12776 0.00000
0.25771 0.12571 0.00000
0.29966 0.12366 0.00000
0.34162 0.12162 0.00000
0.38357 0.11957 0.00000
0.42553 0.11753 0.00000
0.46748 0.11548 0.00000
0.50943 0.11343 0.00000
0.55139 0.11139 0.00000
0.59334 0.10934 0.00000
0.63529 0.10729 0.00000
0.67725 0.10525 0.00000
0.71920 0.10320 0.00000
0.76116 0.10116 0.00000
0.80311 0.09911 0.00000
0.84506 0.09706 0.00000
0.88702 0.09502 0.00000
0.92897 0.09297 0.00000
0.97092 0.09092 0.00000
1.00000 0.08888 0.00000
1.00000 0.08683 0.00000
1.00000 0.08479 0.00000
1.00000 0.08274 0.00000
1.00000 0.08069 0.00000
1.00000 0.07865 0.00000
1.00000 0.07660 0.00000
0.00000 0.17920 0.00000
0.00000 0.17715 0.00000
0.00000 0.17510 0.00000
0.04106 0.17306 0.00000
0.08301 0.17101 0.00000
0.12497 0.16897 0.00000
0.16692 0.16692 0.00000
0.20887 0.16487 0.00000
0.25083 0.16283 0.00000
0.29278 0.16078 0.00000
0.33473 0.15873 0.00000
0.37669 0.15669 0.00000
0.41864 0.15464 0.00000
0.46060 0.15260 0.00000
0.50255 0.15055 0.00000
0.54450 0.14850 0.00000
0.58646 0.14646 0.00000
0.62841 0.14441 0.00000
0.67036 0.14236 0.00000
0.71232 0.14032 0.00000
0.75427 0.13827 0.00000
0.79623 0.13623 0.00000
0.83818 0.13418 0.00000
0.88013 0.13213 0.00000
0.92209 0.13009 0.00000
0.96404 0.12804 0.00000
1.00000 0.12599 0.00000
1.00000 0.12395 0.00000
1.00000 0.12190 0.00000
1.00000 0.11986 0.00000
1.00000 0.11781 0.00000
1.00000 0.11576 0.00000
1.00000 0.11372 0.00000
0.00000 0.21631 0.00000
0.00000 0.21427 0.00000
0.00000 0.21222 0.00000
0.03417 0.21017 0.00000
0.07613 0.20813 0.00000
0.11808 0.20608 0.00000
0.16004 0.20404 0.00000
0.20199 0.20199 0.00000
0.24394 0.19994 0.00000
0.28590 0.19790 0.00000
0.32785 0.19585 0.00000
0.36980 0.19380 0.00000
0.41176 0.19176 0.00000
0.45371 0.18971 0.00000
0.49567 0.18767 0.00000
0.53762 0.18562 0.00000
0.57957 0.18357 0.00000
0.62153 0.18153 0.00000
0.66348 0.17948 0.00000
0.70543 0.17743 0.00000
0.74739 0.17539 0.00000
0.78934 0.17334 0.00000
0.83130 0.17130 0.00000
0.87325 0.16925 0.00000
0.91520 0.16720 0.00000
0.95716 0.16516 0.00000
0.99911 0.16311 0.00000
1.00000 0.16106 0.00000
1.00000 0.15902 0.00000
1.00000 0.15697 0.00000
1.00000 0.15493 0.00000
1.00000 0.15288 0.00000
1.00000 0.15083 0.00000
0.00000 0.25343 0.00000
0.00000 0.25138 0.00000
0.00000 0.24934 0.00000
0.02729 0.24729 0.00000
0.06924 0.24524 0.00000
0.11120 0.24320 0.00000
0.15315 0.24115 0.00000
0.19511 0.23911 0.00000
0.23706 0.23706 0.00000
0.27901 0.23501 0.00000
0.32097 0.23297 0.00000
0.36292 0.23092 0.00000
0.40487 0.22887 0.00000
0.44683 0.22683 0.00000
0.48878 0.22478 0.00000
0.53074 0.22274 0.00000
0.57269 0.22069 0.00000
0.61464 0.21864 0.00000
0.65660 0.21660 0.00000
0.69855 0.21455 0.00000
0.74050 0.21250 0.00000
0.78246 0.21046 0.00000
0.82441 0.20841 0.00000
0.86637 0.20637 0.00000
0.90832 0.20432 0.00000
0.95027 0.20227 0.00000
0.99223 0.20023 0.00000
1.00000 0.19818 0.00000
1.00000 0.19613 0.00000
1.00000 0.19409 0.00000
1.00000 0.19204 0.00000
1.00000 0.19000 0.00000
1.00000 0.18795 0.00000
0.00000 0.29055 0.00000
0.00000 0.28850 0.00000
0.00000 0.28645 0.00000
0.02041 0.28441 0.00000
0.06236 0.28236 0.00000
0.10431 0.28031 0.00000
0.14627 0.27827 0.00000
0.18822 0.27622 0.00000
0.23018 0.27418 0.00000
0.27213 0.27213 0.00000
0.31408 0.27008 0.00000
0.35604 0.26804 0.00000
0.39799 0.26599 0.00000
0.43994 0.26394 0.00000
0.48190 0.26190 0.00000
0.52385 0.25985 0.00000
0.56581 0.25781 0.00000
0.60776 0.25576 0.00000
0.64971 0.25371 0.00000
0.69167 0.25167 0.00000
0.73362 0.24962 0.00000
0.77557 0.24757 0.00000
0.81753 0.24553 0.00000
0.85948 0.24348 0.00000
0.90144 0.24144 0.00000
0.94339 0.23939 0.00000
0.98534 0.23734 0.00000
1.00000 0.23530 0.00000
1.00000 0.23325 0.00000
1.00000 0.23120 0.00000
1.00000 0.22916 0.00000
1.00000 0.22711 0.00000
1.00000 0.22506 0.00000
0.00000 0.32766 0.00000
0.00000 0.32562 0.00000
0.00000 0.32357 0.00000
0.01352 0.32152 0.00000
0.05548 0.31948 0.00000
0.09743 0.31743 0.00000
0.13938 0.31538 0.00000
0.18134 0.31334 0.00000
0.22329 0.31129 0.00000
0.26525 0.30925 0.00000
0.30720 0.30720 0.00000
0.34915 0.30515 0.00000
0.39111 0.30311 0.00000
0.43306 0.30106 0.00000
0.47501 0.29901 0.00000
0.51697 0.29697 0.00000
0.55892 0.29492 0.00000
0.60088 0.29288 0.00000
0.64283 0.29083 0.00000
0.68478 0.28878 0.00000
0.72674 0.28674 0.00000
0.76869 0.28469 0.00000
0.81064 0.28264 0.00000
0.85260 0.28060 0.00000
0.89455 0.27855 0.00000
0.93651 0.27651 0.00000
0.97846 0.27446 0.00000
1.00000 0.27241 0.00000
1.00000 0.27037 0.00000
1.00000 0.26832 0.00000
1.00000 0.26627 0.00000
1.00000 0.26423 0.00000
1.00000 0.26218 0.00000
0.00000 0.36478 0.00000
0.00000 0.36273 0.00000
0.00000 0.36069 0.00000
0.00664 0.35864 0.00000
0.04859 0.35659 0.00000
0.09055 0.35455 0.00000
0.13250 0.35250 0.00000
0.17445 0.35045 0.00000
0.21641 0.34841 0.00000
0.25836 0.34636 0.00000
0.30032 0.34432 0.00000
0.34227 0.34227 0.00000
0.38422 0.34022 0.00000
0.42618 0.33818 0.00000
0.46813 0.33613 0.00000
0.51008 0.33408 0.00000
0.55204 0.33204 0.00000
0.59399 0.32999 0.00000
0.63595 0.32795 0.00000
0.67790 0.32590 0.00000
0.71985 0.32385 0.00000
0.76181 0.32181 0.00000
0.80376 0.31976 0.00000
0.84571 0.31771 0.00000
0.88767 0.31567 0.00000
0.92962 0.31362 0.00000
0.97158 0.31158 0.00000
1.00000 0.30953 0.00000
1.00000 0.30748 0.00000
1.00000 0.30544 0.00000
1.00000 0.30339 0.00000
1.00000 0.30134 0.00000
1.00000 0.29930 0.00000
0.00000 0.40189 0.00000
0.00000 0.39985 0.00000
0.00000 0.39780 0.00000
0.00000 0.39576 0.00000
0.04171 0.39371 0.00000
0.08366 0.39166 0.00000
0.12562 0.38962 0.00000
0.16757 0.38757 0.00000
0.20952 0.38552 0.00000
0.25148 0.38348 0.00000
0.29343 0.38143 0.00000
0.33539 0.37939 0.00000
0.37734 0.37734 0.00000
0.41929 0.37529 0.00000
0.46125 0.37325 0.00000
0.50320 0.37120 0.00000
0.54515 0.36915 0.00000
0.58711 0.36711 0.00000
0.62906 0.36506 0.00000
0.67102 0.36302 0.00000
0.71297 0.36097 0.00000
0.75492 0.35892 0.00000
0.79688 0.35688 0.00000
0.83883 0.35483 0.00000
0.88078 0.35278 0.00000
0.92274 0.35074 0.00000
0.96469 0.34869 0.00000
1.00000 0.34664 0.00000
1.00000 0.34460 0.00000
1.00000 0.34255 0.00000
1.00000 0.34051 0.00000
1.00000 0.33846 0.00000
1.00000 0.33641 0.00000
0.00000 0.43901 0.00000
0.00000 0.43696 0.00000
0.00000 0.43492 0.00000
0.00000 0.43287 0.00000
0.03483 0.43083 0.00000
0.07678 0.42878 0.00000
0.11873 0.42673 0.00000
0.16069 0.42469 0.00000
0.20264 0.42264 0.00000
0.24459 0.42059 0.00000
0.28655 0.41855 0.00000
0.32850 0.41650 0.00000
0.37046 0.41446 0.00000
0.41241 0.41241 0.00000
0.45436 0.41036 0.00000
0.49632 0.40832 0.00000
0.53827 0.40627 0.00000
0.58022 0.40422 0.00000
0.62218 0.40218 0.00000
0.66413 0.40013 0.00000
0.70609 0.39809 0.00000
0.74804 0.39604 0.00000
0.78999 0.39399 0.00000
0.83195 0.39195 0.00000
0.87390 0.38990 0.00000
0.91585 0.38785 0.00000
0.95781 0.38581 0.00000
0.99976 0.38376 0.00000
1.00000 0.38171 0.00000
1.00000 0.37967 0.00000
1.00000 0.37762 0.00000
1.00000 0.37558 0.00000
1.00000 0.37353 0.00000
0.00000 0.47613 0.00000
0.00000 0.47408 0.00000
0.00000 0.47203 0.00000
0.00000 0.46999 0.00000
0.02794 0.46794 0.00000
0.06990 0.46590 0.00000
0.11185 0.46385 0.00000
0.15380 0.46180 0.00000
0.19576 0.45976 0.00000
0.23771 0.45771 0.00000
0.27966 0.45566 0.00000
0.32162 0.45362 0.00000
0.36357 0.45157 0.00000
0.40553 0.44953 0.00000
0.44748 0.44748 0.00000
0.48943 0.44543 0.00000
0.53139 0.44339 0.00000
0.57334 0.44134 0.00000
0.61529 0.43929 0.00000
0.65725 0.43725 0.00000
0.69920 0.43520 0.00000
0.74116 0.43316 0.00000
0.78311 0.43111 0.00000
0.82506 0.42906 0.00000
0.86702 0.42702 0.00000
0.90897 0.42497 0.00000
0.95092 0.42292 0.00000
0.99288 0.42088 0.00000
1.00000 0.41883 0.00000
1.00000 0.41678 0.00000
1.00000 0.41474 0.00000
1.00000 0.41269 0.00000
1.00000 0.41065 0.00000
0.00000 0.51324 0.00000
0.00000 0.51120 0.00000
0.00000 0.50915 0.00000
0.00000 0.50710 0.00000
0.02106 0.50506 0.00000
0.06301 0.50301 0.00000
0.10497 0.50097 0.00000
0.14692 0.49892 0.00000
0.18887 0.49687 0.00000
0.23083 0.49483 0.00000
0.27278 0.49278 0.00000
0.31473 0.49073 0.00000
0.35669 0.48869 0.00000
0.39864 0.48664 0.00000
0.44060 0.48460 0.00000
0.48255 0.48255 0.00000
0.52450 0.48050 0.00000
0.56646 0.47846 0.00000
0.60841 0.47641 0.00000
0.65036 0.47436 0.00000
0.69232 0.47232 0.00000
0.73427 0.47027 0.00000
0.77622 0.46822 0.00000
0.81818 0.46618 0.00000
0.86013 0.46413 0.00000
0.90209 0.46209 0.00000
0.94404 0.46004 0.00000
0.98599 0.45799 0.00000
1.00000 0.45595 0.00000
1.00000 0.45390 0.00000
1.00000 0.45185 0.00000
1.00000 0.44981 0.00000
1.00000 0.44776 0.00000
0.00000 0.55036 0.00000
0.00000 0.54831 0.00000
0.00000 0.54627 0.00000
0.00000 0.54422 0.00000
0.01417 0.54217 0.00000
0.05613 0.54013 0.00000
0.09808 0.53808 0.00000
0.14004 0.53604 0.00000
0.18199 0.53399 0.00000
0.22394 0.53194 0.00000
0.26590 0.52990 0.00000
0.30785 0.52785 0.00000
0.34980 0.52580 0.00000
0.39176 0.52376 0.00000
0.43371 0.52171 0.00000
0.47567 0.51967 0.00000
0.51762 0.51762 0.00000
0.55957 0.51557 0.00000
0.60153 0.51353 0.00000
0.64348 0.51148 0.00000
0.68543 0.50943 0.00000
0.72739 0.50739 0.00000
0.76934 0.50534 0.00000
0.81129 0.50329 0.00000
0.85325 0.50125 0.00000
0.89520 0.49920 0.00000
0.93716 0.49716 0.00000
0.97911 0.49511 0.00000
1.00000 0.49306 0.00000
1.00000 0.49102 0.00000
1.00000 0.48897 0.00000
1.00000 0.48692 0.00000
1.00000 0.48488 0.00000
0.00000 0.58748 0.00000
0.00000 0.58543 0.00000
0.00000 0.58338 0.00000
0.00000 0.58134 0.00000
0.00729 0.57929 0.00000
0.04924 0.57724 0.00000
0.09120 0.57520 0.00000
0.13315 0.57315 0.00000
0.17511 0.57111 0.00000
0.21706 0.56906 0.00000
0.25901 0.56701 0.00000
0.30097 0.56497 0.00000
0.34292 0.56292 0.00000
0.38487 0.56087 0.00000
0.42683 0.55883 0.00000
0.46878 0.55678 0.00000
0.51074 0.55474 0.00000
0.55269 0.55269 0.00000
0.59464 0.55064 0.00000
0.63660 0.54860 0.00000
0.67855 0.54655 0.00000
0.72050 0.54450 0.00000
0.76246 0.54246 0.00000
0.80441 0.54041 0.00000
0.84636 0.53836 0.00000
0.88832 0.53632 0.00000
0.93027 0.53427 0.00000
0.97223 0.53223 0.00000
1.00000 0.53018 0.00000
1.00000 0.52813 0.00000
1.00000 0.52609 0.00000
1.00000 0.52404 0.00000
1.00000 0.52199 0.00000
0.00000 0.62459 0.00000
0.00000 0.62255 0.00000
0.00000 0.62050 0.00000
0.00000 0.61845 0.00000
0.00041 0.61641 0.00000
0.04236 0.61436 0.00000
0.08431 0.61231 0.00000
0.12627 0.61027 0.00000
0.16822 0.60822 0.00000
0.21018 0.60618 0.00000
0.25213 0.60413 0.00000
0.29408 0.60208 0.00000
0.33604 0.60004 0.00000
0.37799 0.59799 0.00000
0.41994 0.59594 0.00000
0.46190 0.59390 0.00000
0.50385 0.59185 0.00000
0.54580 0.58980 0.00000
0.58776 0.58776 0.00000
0.62971 0.58571 0.00000
0.67167 0.58367 0.00000
0.71362 0.58162 0.00000
0.75557 0.57957 0.00000
0.79753 0.57753 0.00000
0.83948 0.57548 0.00000
0.88143 0.57343 0.00000
0.92339 0.57139 0.00000
0.96534 0.56934 0.00000
1.00000 0.56730 0.00000
1.00000 0.56525 0.00000
1.00000 0.56320 0.00000
1.00000 0.56116 0.00000
1.00000 0.55911 0.00000
0.00000 0.66171 0.00000
0.00000 0.65966 0.00000
0.00000 0.65762 0.00000
0.00000 0.65557 0.00000
0.00000 0.65352 0.00000
0.03548 0.65148 0.00000
0.07743 0.64943 0.00000
0.11938 0.64738 0.00000
0.16134 0.64534 0.00000
0.20329 0.64329 0.00000
0.24525 0.64125 0.00000
0.28720 0.63920 0.00000
0.32915 0.63715 0.00000
0.37111 0.63511 0.00000
0.41306 0.63306 0.00000
0.45501 0.63101 0.00000
0.49697 0.62897 0.00000
0.53892 0.62692 0.00000
0.58087 0.62487 0.00000
0.62283 0.62283 0.00000
0.66478 0.62078 0.00000
0.70674 0.61874 0.00000
0.74869 0.61669 0.00000
0.79064 0.61464 0.00000
0.83260 0.61260 0.00000
0.87455 0.61055 0.00000
0.91650 0.60850 0.00000
0.95846 0.60646 0.00000
1.00000 0.60441 0.00000
1.00000 0.60237 0.00000
1.00000 0.60032 0.00000
1.00000 0.59827 0.00000
1.00000 0.59623 0.00000
0.00000 0.69882 0.00000
0.00000 0.69678 0.00000
0.00000 0.69473 0.00000
0.00000 0.69269 0.00000
0.00000 0.69064 0.00000
0.02859 0.68859 0.00000
0.07055 0.68655 0.00000
0.11250 0.68450 0.00000
0.15445 0.68245 0.00000
0.19641 0.68041 0.00000
0.23836 0.67836 0.00000
0.28031 0.67631 0.00000
0.32227 0.67427 0.00000
0.36422 0.67222 0.00000
0.40618 0.67018 0.00000
0.44813 0.66813 0.00000
0.49008 0.66608 0.00000
0.53204 0.66404 0.00000
0.57399 0.66199 0.00000
0.61594 0.65994 0.00000
0.65790 0.65790 0.00000
0.69985 0.65585 0.00000
0.74181 0.65381 0.00000
0.78376 0.65176 0.00000
0.82571 0.64971 0.00000
0.86767 0.64767 0.00000
0.90962 0.64562 0.00000
0.95157 0.64357 0.00000
0.99353 0.64153 0.00000
1.00000 0.63948 0.00000
1.00000 0.63744 0.00000
1.00000 0.63539 0.00000
1.00000 0.63334 0.00000
0.00000 0.73594 0.00000
0.00000 0.73389 0.00000
0.00000 0.73185 0.00000
0.00000 0.72980 0.00000
0.00000 0.72776 0.00000
0.02171 0.72571 0.00000
0.06366 0.72366 0.00000
0.10562 0.72162 0.00000
0.14757 0.71957 0.00000
0.18952 0.71752 0.00000
0.23148 0.71548 0.00000
0.27343 0.71343 0.00000
0.31538 0.71138 0.00000
0.35734 0.70934 0.00000
0.39929 0.70729 0.00000
0.44125 0.70525 0.00000
0.48320 0.70320 0.00000
0.52515 0.70115 0.00000
0.56711 0.69911 0.00000
0.60906 0.69706 0.00000
0.65101 0.69501 0.00000
0.69297 0.69297 0.00000
0.73492 0.69092 0.00000
0.77688 0.68888 0.00000
0.81883 0.68683 0.00000
0.86078 0.68478 0.00000
0.90274 0.68274 0.00000
0.94469 0.68069 0.00000
0.98664 0.67864 0.00000
1.00000 0.67660 0.00000
1.00000 0.67455 0.00000
1.00000 0.67251 0.00000
1.00000 0.67046 0.00000
0.00000 0.77306 0.00000
0.00000 0.77101 0.00000
0.00000 0.76896 0.00000
0.00000 0.76692 0.00000
0.00000 0.76487 0.00000
0.01483 0.76283 0.00000
0.05678 0.76078 0.00000
0.09873 0.75873 0.00000
0.14069 0.75669 0.00000
0.18264 0.75464 0.00000
0.22459 0.75259 0.00000
0.26655 0.75055 0.00000
0.30850 0.74850 0.00000
0.35045 0.74645 0.00000
0.39241 0.74441 0.00000
0.43436 0.74236 0.00000
0.47632 0.74032 0.00000
0.51827 0.73827 0.00000
0.56022 0.73622 0.00000
0.60218 0.73418 0.00000
0.64413 0.73213 0.00000
0.68608 0.73008 0.00000
0.72804 0.72804 0.00000
0.76999 0.72599 0.00000
0.81195 0.72395 0.00000
0.85390 0.72190 0.00000
0.89585 0.71985 0.00000
0.93781 0.71781 0.00000
0.97976 0.71576 0.00000
1.00000 0.71371 0.00000
1.00000 0.71167 0.00000
1.00000 0.70962 0.00000
1.00000 0.70758 0.00000
0.00000 0.81017 0.00000
0.00000 0.80813 0.00000
0.00000 0.80608 0.00000
0.00000 0.80403 0.00000
0.00000 0.80199 0.00000
0.00794 0.79994 0.00000
0.04989 0.79789 0.00000
0.09185 0.79585 0.00000
0.13380 0.79380 0.00000
0.17576 0.79176 0.00000
0.21771 0.78971 0.00000
0.25966 0.78766 0.00000
0.30162 0.78562 0.00000
0.34357 0.78357 0.00000
0.38552 0.78152 0.00000
0.42748 0.77948 0.00000
0.46943 0.77743 0.00000
0.51139 0.77539 0.00000
0.55334 0.77334 0.00000
0.59529 0.77129 0.00000
0.63725 0.76925 0.00000
0.67920 0.76720 0.00000
0.72115 0.76515 0.00000
0.76311 0.76311 0.00000
0.80506 0.76106 0.00000
0.84702 0.75902 0.00000
0.88897 0.75697 0.00000
0.93092 0.75492 0.00000
0.97288 0.75288 0.00000
1.00000 0.75083 0.00000
1.00000 0.74878 0.00000
1.00000 0.74674 0.00000
1.00000 0.74469 0.00000
0.00000 0.84729 0.00000
0.00000 0.84524 0.00000
0.00000 0.84320 0.00000
0.00000 0.84115 0.00000
0.00000 0.83910 0.00000
0.00106 0.83706 0.00000
0.04301 0.83501 0.00000
0.08496 0.83296 0.00000
0.12692 0.83092 0.00000
0.16887 0.82887 0.00000
0.21083 0.82683 0.00000
0.25278 0.82478 0.00000
0.29473 0.82273 0.00000
0.33669 0.82069 0.00000
0.37864 0.81864 0.00000
0.42059 0.81659 0.00000
0.46255 0.81455 0.00000
0.50450 0.81250 0.00000
0.54646 0.81046 0.00000
0.58841 0.80841 0.00000
0.63036 0.80636 0.00000
0.67232 0.80432 0.00000
0.71427 0.80227 0.00000
0.75622 0.80022 0.00000
0.79818 0.79818 0.00000
0.84013 0.79613 0.00000
0.88209 0.79409 0.00000
0.92404 0.79204 0.00000
0.96599 0.78999 0.00000
1.00000 0.78795 0.00000
1.00000 0.78590 0.00000
1.00000 0.78385 0.00000
1.00000 0.78181 0.00000
0.00000 0.88441 0.00000
0.00000 0.88236 0.00000
0.00000 0.88031 0.00000
0.00000 0.87827 0.00000
0.00000 0.87622 0.00000
0.00000 0.87417 0.00000
0.03613 0.87213 0.00000
0.07808 0.87008 0.00000
0.12003 0.86803 0.00000
0.16199 0.86599 0.00000
0.20394 0.86394 0.00000
0.24590 0.86190 0.00000
0.28785 0.85985 0.00000
0.32980 0.85780 0.00000
0.37176 0.85576 0.00000
0.41371 0.85371 0.00000
0.45566 0.85166 0.00000
0.49762 0.84962 0.00000
0.53957 0.84757 0.00000
0.58153 0.84553 0.00000
0.62348 0.84348 0.00000
0.66543 0.84143 0.00000
0.70739 0.83939 0.00000
0.74934 0.83734 0.00000
0.79129 0.83529 0.00000
0.83325 0.83325 0.00000
0.87520 0.83120 0.00000
0.91716 0.82916 0.00000
0.95911 0.82711 0.00000
1.00000 0.82506 0.00000
1.00000 0.82302 0.00000
1.00000 0.82097 0.00000
1.00000 0.81892 0.00000
0.00000 0.92152 0.00000
0.00000 0.91947 0.00000
0.00000 0.91743 0.00000
0.00000 0.91538 0.00000
0.00000 0.91334 0.00000
0.00000 0.91129 0.00000
0.02924 0.90924 0.00000
0.07120 0.90720 0.00000
0.11315 0.90515 0.00000
0.15510 0.90310 0.00000
0.19706 0.90106 0.00000
0.23901 0.89901 0.00000
0.28097 0.89697 0.00000
0.32292 0.89492 0.00000
0.36487 0.89287 0.00000
0.40683 0.89083 0.00000
0.44878 0.88878 0.00000
0.49073 0.88673 0.00000
0.53269 0.88469 0.00000
0.57464 0.88264 0.00000
0.61660 0.88060 0.00000
0.65855 0.87855 0.00000
0.70050 0.87650 0.00000
0.74246 0.87446 0.00000
0.78441 0.87241 0.00000
0.82636 0.87036 0.00000
0.86832 0.86832 0.00000
0.91027 0.86627 0.00000
0.95223 0.86423 0.00000
0.99418 0.86218 0.00000
1.00000 0.86013 0.00000
1.00000 0.85809 0.00000
1.00000 0.85604 0.00000
0.00000 0.95864 0.00000
0.00000 0.95659 0.00000
0.00000 0.95454 0.00000
0.00000 0.95250 0.00000
0.00000 0.95045 0.00000
0.00000 0.94841 0.00000
0.02236 0.94636 0.00000
0.06431 0.94431 0.00000
0.10627 0.94227 0.00000
