boundlessjs/public/luts/vibrant.cube
TITLE "vibrant"
LUT_3D_SIZE 5
0.00000 0.00000 0.00000
0.29213 0.00000 0.00000
0.62776 0.00000 0.00000
0.96339 0.00000 0.00000
1.00000 0.00000 0.00000
0.00000 0.25343 0.00000
0.23706 0.23706 0.00000
0.57269 0.22069 0.00000
0.90832 0.20432 0.00000
1.00000 0.18795 0.00000
0.00000 0.55036 0.00000
0.18199 0.53399 0.00000
0.51762 0.51762 0.00000
0.85325 0.50125 0.00000
1.00000 0.48488 0.00000
0.00000 0.84729 0.00000
0.12692 0.83092 0.00000
0.46255 0.81455 0.00000
0.79818 0.79818 0.00000
1.00000 0.78181 0.00000
0.00000 1.00000 0.00000
0.07185 1.00000 0.00000
0.40748 1.00000 0.00000
0.74311 1.00000 0.00000
1.00000 1.00000 0.00000
0.00000 0.00000 0.30294
0.28657 0.00000 0.28657
0.62220 0.00000 0.27020
0.95783 0.00000 0.25383
1.00000 0.00000 0.23746
0.00000 0.24787 0.24787
0.23150 0.23150 0.23150
0.56713 0.21513 0.21513
0.90276 0.19876 0.19876
1.00000 0.18239 0.18239
0.00000 0.54480 0.19280
0.17643 0.52843 0.17643
0.51206 0.51206 0.16006
0.84769 0.49569 0.14369
1.00000 0.47932 0.12732
0.00000 0.84173 0.13773
0.12136 0.82536 0.12136
0.45699 0.80899 0.10499
0.79262 0.79262 0.08862
1.00000 0.77625 0.07225
0.00000 1.00000 0.08266
0.06629 1.00000 0.06629
0.40192 1.00000 0.04992
0.73755 1.00000 0.03355
1.00000 1.00000 0.01718
0.00000 0.00000 0.64938
0.28101 0.00000 0.63301
0.61664 0.00000 0.61664
0.95227 0.00000 0.60027
1.00000 0.00000 0.58390
0.00000 0.24231 0.59431
0.22594 0.22594 0.57794
0.56157 0.20957 0.56157
0.89720 0.19320 0.54520
1.00000 0.17683 0.52883
0.00000 0.53924 0.53924
0.17087 0.52287 0.52287
0.50650 0.50650 0.50650
0.84213 0.49013 0.49013
1.00000 0.47376 0.47376
0.00000 0.83617 0.48417
0.11580 0.81980 0.46780
0.45143 0.80343 0.45143
0.78706 0.78706 0.43506
1.00000 0.77069 0.41869
0.00000 1.00000 0.42910
0.06073 1.00000 0.41273
0.39636 1.00000 0.39636
0.73199 1.00000 0.37999
1.00000 1.00000 0.36362
0.00000 0.00000 0.99582
0.27545 0.00000 0.97945
0.61108 0.00000 0.96308
0.94671 0.00000 0.94671
1.00000 0.00000 0.93034
0.00000 0.23675 0.94075
0.22038 0.22038 0.92438
0.55601 0.20401 0.90801
0.89164 0.18764 0.89164
1.00000 0.17127 0.87527
0.00000 0.53368 0.88568
0.16531 0.51731 0.86931
0.50094 0.50094 0.85294
0.83657 0.48457 0.83657
1.00000 0.46820 0.82020
0.00000 0.83061 0.83061
0.11024 0.81424 0.81424
0.44587 0.79787 0.79787
0.78150 0.78150 0.78150
1.00000 0.76513 0.76513
0.00000 1.00000 0.77554
0.05517 1.00000 0.75917
0.39080 1.00000 0.74280
0.72643 1.00000 0.72643
1.00000 1.00000 0.71006
0.00000 0.00000 1.00000
0.26989 0.00000 1.00000
0.60552 0.00000 1.00000
0.94115 0.00000 1.00000
1.00000 0.00000 1.00000
0.00000 0.23119 1.00000
0.21482 0.21482 1.00000
0.55045 0.19845 1.00000
0.88608 0.18208 1.00000
1.00000 0.16571 1.00000
0.00000 0.52812 1.00000
0.15975 0.51175 1.00000
0.49538 0.49538 1.00000
0.83101 0.47901 1.00000
1.00000 0.46264 1.00000
0.00000 0.82505 1.00000
0.10468 0.80868 1.00000
0.44031 0.79231 1.00000
0.77594 0.77594 1.00000
1.00000 0.75957 1.00000
0.00000 1.00000 1.00000
0.04961 1.00000 1.00000
0.38524 1.00000 1.00000
0.72087 1.00000 1.00000
1.00000 1.00000 1.00000
