boundlessjs/public/luts/vintage_fade.cube
TITLE "vintage_fade"
LUT_3D_SIZE 5
0.05936 0.05795 0.04943
0.25337 0.06467 0.05660
0.44739 0.07138 0.06376
0.64140 0.07810 0.07093
0.83542 0.08481 0.07810
0.08282 0.26635 0.07340
0.27684 0.27307 0.08057
0.47085 0.27979 0.08773
0.66487 0.28650 0.09490
0.85889 0.29322 0.10206
0.10629 0.47476 0.09737
0.30031 0.48147 0.10454
0.49432 0.48819 0.11170
0.68848 0.49502 0.11875
0.88324 0.50233 0.12532
0.13016 0.68348 0.12102
0.32492 0.69080 0.12758
0.51969 0.69811 0.13415
0.71445 0.70543 0.14072
0.90922 0.71274 0.14728
0.15613 0.89389 0.14298
0.35089 0.90120 0.14955
0.54566 0.90852 0.15612
0.74042 0.91583 0.16268
0.93519 0.92315 0.16925
0.06166 0.06015 0.23241
0.25567 0.06687 0.23957
0.44969 0.07358 0.24674
0.64370 0.08030 0.25391
0.83772 0.08702 0.26107
0.08512 0.26856 0.25638
0.27914 0.27527 0.26354
0.47316 0.28199 0.27071
0.66717 0.28871 0.27787
0.86119 0.29542 0.28504
0.10859 0.47696 0.28035
0.30261 0.48368 0.28751
0.49662 0.49039 0.29468
0.69103 0.49742 0.30153
0.88579 0.50473 0.30810
0.13271 0.68588 0.30380
0.32747 0.69320 0.31036
0.52223 0.70051 0.31693
0.71700 0.70783 0.32350
0.91176 0.71514 0.33006
0.15868 0.89629 0.32576
0.35344 0.90360 0.33233
0.54820 0.91092 0.33890
0.74297 0.91823 0.34546
0.93773 0.92555 0.35203
0.06396 0.06236 0.41538
0.25797 0.06907 0.42255
0.45199 0.07579 0.42972
0.64601 0.08250 0.43688
0.84002 0.08922 0.44405
0.08743 0.27076 0.43935
0.28144 0.27748 0.44652
0.47546 0.28419 0.45368
0.66947 0.29091 0.46085
0.86349 0.29762 0.46801
0.11089 0.47916 0.46332
0.30491 0.48588 0.47049
0.49892 0.49260 0.47765
0.69357 0.49982 0.48431
0.88834 0.50713 0.49088
0.13525 0.68828 0.48658
0.33002 0.69559 0.49314
0.52478 0.70291 0.49971
0.71954 0.71023 0.50628
0.91431 0.71754 0.51284
0.16122 0.89869 0.50854
0.35599 0.90600 0.51511
0.55075 0.91332 0.52167
0.74552 0.92063 0.52824
0.94028 0.92795 0.53481
0.06626 0.06456 0.59836
0.26028 0.07127 0.60553
0.45429 0.07799 0.61269
0.64831 0.08471 0.61986
0.84232 0.09142 0.62702
0.08973 0.27296 0.62233
0.28374 0.27968 0.62949
0.47776 0.28639 0.63666
0.67177 0.29311 0.64382
0.86579 0.29983 0.65099
0.11319 0.48137 0.64630
0.30721 0.48808 0.65346
0.50136 0.49490 0.66052
0.69612 0.50222 0.66709
0.89089 0.50953 0.67366
0.13780 0.69068 0.66935
0.33256 0.69799 0.67592
0.52733 0.70531 0.68249
0.72209 0.71262 0.68905
0.91686 0.71994 0.69562
0.16377 0.90109 0.69132
0.35853 0.90840 0.69789
0.55330 0.91572 0.70445
0.74806 0.92303 0.71102
0.94283 0.93035 0.71759
0.06856 0.06676 0.78134
0.26258 0.07348 0.78850
0.45659 0.08019 0.79567
0.65061 0.08691 0.80283
0.84462 0.09363 0.81000
0.09203 0.27517 0.80530
0.28604 0.28188 0.81247
0.48006 0.28860 0.81963
0.67408 0.29531 0.82680
0.86809 0.30203 0.83397
0.11550 0.48357 0.82927
0.30951 0.49029 0.83644
0.50390 0.49730 0.84330
0.69867 0.50462 0.84987
0.89343 0.51193 0.85644
0.14035 0.69308 0.85213
0.33511 0.70039 0.85870
0.52987 0.70771 0.86527
0.72464 0.71502 0.87183
0.91940 0.72234 0.87840
0.16632 0.90349 0.87410
0.36108 0.91080 0.88067
0.55585 0.91812 0.88723
0.75061 0.92543 0.89380
0.94537 0.93275 0.90037
