boundlessjs/public/luts/vintage_fade.cube
TITLE "vintage_fade"
LUT_3D_SIZE 9
0.05936 0.05795 0.04943
0.15636 0.06131 0.05302
0.25337 0.06467 0.05660
0.35038 0.06802 0.06018
0.44739 0.07138 0.06376
0.54439 0.07474 0.06735
0.64140 0.07810 0.07093
0.73841 0.08146 0.07451
0.83542 0.08481 0.07810
0.07109 0.16215 0.06142
0.16810 0.16551 0.06500
0.26510 0.16887 0.06858
0.36211 0.17223 0.07217
0.45912 0.17558 0.07575
0.55613 0.17894 0.07933
0.65314 0.18230 0.08291
0.75014 0.18566 0.08650
0.84715 0.18902 0.09008
0.08282 0.26635 0.07340
0.17983 0.26971 0.07698
0.27684 0.27307 0.08057
0.37385 0.27643 0.08415
0.47085 0.27979 0.08773
0.56786 0.28314 0.09132
0.66487 0.28650 0.09490
0.76188 0.28986 0.09848
0.85889 0.29322 0.10206
0.09456 0.37055 0.08539
0.19156 0.37391 0.08897
0.28857 0.37727 0.09255
0.38558 0.38063 0.09613
0.48259 0.38399 0.09972
0.57960 0.38735 0.10330
0.67660 0.39070 0.10688
0.77361 0.39406 0.11046
0.87062 0.39742 0.11405
0.10629 0.47476 0.09737
0.20330 0.47811 0.10095
0.30031 0.48147 0.10454
0.39731 0.48483 0.10812
0.49432 0.48819 0.11170
0.59133 0.49155 0.11528
0.68848 0.49502 0.11875
0.78586 0.49868 0.12204
0.88324 0.50233 0.12532
0.11802 0.57896 0.10935
0.21503 0.58232 0.11294
0.31204 0.58567 0.11652
0.40932 0.58925 0.11988
0.50670 0.59291 0.12317
0.60408 0.59657 0.12645
0.70147 0.60022 0.12973
0.79885 0.60388 0.13302
0.89623 0.60754 0.13630
0.13016 0.68348 0.12102
0.22754 0.68714 0.12430
0.32492 0.69080 0.12758
0.42230 0.69445 0.13087
0.51969 0.69811 0.13415
0.61707 0.70177 0.13743
0.71445 0.70543 0.14072
0.81183 0.70908 0.14400
0.90922 0.71274 0.14728
0.14314 0.78868 0.13200
0.24053 0.79234 0.13528
0.33791 0.79600 0.13857
0.43529 0.79966 0.14185
0.53267 0.80331 0.14513
0.63005 0.80697 0.14842
0.72744 0.81063 0.15170
0.82482 0.81429 0.15498
0.92220 0.81794 0.15827
0.15613 0.89389 0.14298
0.25351 0.89754 0.14627
0.35089 0.90120 0.14955
0.44828 0.90486 0.15283
0.54566 0.90852 0.15612
0.64304 0.91217 0.15940
0.74042 0.91583 0.16268
0.83780 0.91949 0.16597
0.93519 0.92315 0.16925
0.06051 0.05905 0.14092
0.15751 0.06241 0.14450
0.25452 0.06577 0.14809
0.35153 0.06913 0.15167
0.44854 0.07248 0.15525
0.54555 0.07584 0.15883
0.64255 0.07920 0.16242
0.73956 0.08256 0.16600
0.83657 0.08592 0.16958
0.07224 0.16325 0.15291
0.16925 0.16661 0.15649
0.26626 0.16997 0.16007
0.36326 0.17333 0.16365
0.46027 0.17669 0.16724
0.55728 0.18004 0.17082
0.65429 0.18340 0.17440
0.75130 0.18676 0.17798
0.84830 0.19012 0.18157
0.08397 0.26745 0.16489
0.18098 0.27081 0.16847
0.27799 0.27417 0.17205
0.37500 0.27753 0.17564
0.47201 0.28089 0.17922
0.56901 0.28425 0.18280
0.66602 0.28760 0.18639
0.76303 0.29096 0.18997
0.86004 0.29432 0.19355
0.09571 0.37166 0.17687
0.19272 0.37501 0.18046
0.28972 0.37837 0.18404
0.38673 0.38173 0.18762
0.48374 0.38509 0.19120
0.58075 0.38845 0.19479
0.67775 0.39181 0.19837
0.77476 0.39516 0.20195
0.87177 0.39852 0.20554
0.10744 0.47586 0.18886
0.20445 0.47922 0.19244
0.30146 0.48257 0.19602
0.39846 0.48593 0.19961
0.49547 0.48929 0.20319
0.59248 0.49265 0.20677
0.68975 0.49622 0.21014
0.78714 0.49988 0.21343
0.88452 0.50353 0.21671
0.11917 0.58006 0.20084
0.21618 0.58342 0.20442
0.31321 0.58679 0.20799
0.41059 0.59045 0.21127
0.50798 0.59411 0.21456
0.60536 0.59777 0.21784
0.70274 0.60142 0.22112
0.80012 0.60508 0.22441
0.89750 0.60874 0.22769
0.13143 0.68468 0.21241
0.22881 0.68834 0.21569
0.32620 0.69200 0.21897
0.42358 0.69565 0.22226
0.52096 0.69931 0.22554
0.61834 0.70297 0.22882
0.71572 0.70663 0.23211
0.81311 0.71028 0.23539
0.91049 0.71394 0.23867
0.14442 0.78988 0.22339
0.24180 0.79354 0.22667
0.33918 0.79720 0.22996
0.43656 0.80086 0.23324
0.53395 0.80451 0.23652
0.63133 0.80817 0.23981
0.72871 0.81183 0.24309
0.82609 0.81549 0.24637
0.92347 0.81914 0.24966
0.15740 0.89509 0.23437
0.25478 0.89874 0.23766
0.35217 0.90240 0.24094
0.44955 0.90606 0.24422
0.54693 0.90972 0.24751
0.64431 0.91337 0.25079
0.74170 0.91703 0.25407
0.83908 0.92069 0.25736
0.93646 0.92435 0.26064
0.06166 0.06015 0.23241
0.15866 0.06351 0.23599
0.25567 0.06687 0.23957
0.35268 0.07023 0.24316
0.44969 0.07358 0.24674
0.54670 0.07694 0.25032
0.64370 0.08030 0.25391
0.74071 0.08366 0.25749
0.83772 0.08702 0.26107
0.07339 0.16435 0.24439
0.17040 0.16771 0.24798
0.26741 0.17107 0.25156
0.36441 0.17443 0.25514
0.46142 0.17779 0.25872
0.55843 0.18114 0.26231
0.65544 0.18450 0.26589
0.75245 0.18786 0.26947
0.84945 0.19122 0.27305
0.08512 0.26856 0.25638
0.18213 0.27191 0.25996
0.27914 0.27527 0.26354
0.37615 0.27863 0.26713
0.47316 0.28199 0.27071
0.57016 0.28535 0.27429
0.66717 0.28871 0.27787
0.76418 0.29206 0.28146
0.86119 0.29542 0.28504
0.09686 0.37276 0.26836
0.19387 0.37612 0.27194
0.29087 0.37947 0.27553
0.38788 0.38283 0.27911
0.48489 0.38619 0.28269
0.58190 0.38955 0.28627
0.67891 0.39291 0.28986
0.77591 0.39627 0.29344
0.87292 0.39962 0.29702
0.10859 0.47696 0.28035
0.20560 0.48032 0.28393
0.30261 0.48368 0.28751
0.39962 0.48703 0.29109
0.49662 0.49039 0.29468
0.59365 0.49376 0.29825
0.69103 0.49742 0.30153
0.78841 0.50108 0.30481
0.88579 0.50473 0.30810
0.12033 0.58116 0.29233
0.21733 0.58452 0.29591
0.31448 0.58799 0.29938
0.41187 0.59165 0.30266
0.50925 0.59531 0.30595
0.60663 0.59896 0.30923
0.70401 0.60262 0.31251
0.80139 0.60628 0.31580
0.89878 0.60994 0.31908
0.13271 0.68588 0.30380
0.23009 0.68954 0.30708
0.32747 0.69320 0.31036
0.42485 0.69685 0.31365
0.52223 0.70051 0.31693
0.61962 0.70417 0.32021
0.71700 0.70783 0.32350
0.81438 0.71148 0.32678
0.91176 0.71514 0.33006
0.14569 0.79108 0.31478
0.24307 0.79474 0.31806
0.34045 0.79840 0.32135
0.43784 0.80206 0.32463
0.53522 0.80571 0.32791
0.63260 0.80937 0.33120
0.72998 0.81303 0.33448
0.82737 0.81669 0.33776
0.92475 0.82034 0.34105
0.15868 0.89629 0.32576
0.25606 0.89994 0.32905
0.35344 0.90360 0.33233
0.45082 0.90726 0.33561
0.54820 0.91092 0.33890
0.64559 0.91457 0.34218
0.74297 0.91823 0.34546
0.84035 0.92189 0.34875
0.93773 0.92555 0.35203
0.06281 0.06125 0.32390
0.15982 0.06461 0.32748
0.25682 0.06797 0.33106
0.35383 0.07133 0.33464
0.45084 0.07469 0.33823
0.54785 0.07804 0.34181
0.64485 0.08140 0.34539
0.74186 0.08476 0.34898
0.83887 0.08812 0.35256
0.07454 0.16546 0.33588
0.17155 0.16881 0.33946
0.26856 0.17217 0.34305
0.36556 0.17553 0.34663
0.46257 0.17889 0.35021
0.55958 0.18225 0.35379
0.65659 0.18560 0.35738
0.75360 0.18896 0.36096
0.85060 0.19232 0.36454
0.08627 0.26966 0.34786
0.18328 0.27302 0.35145
0.28029 0.27637 0.35503
0.37730 0.27973 0.35861
0.47431 0.28309 0.36220
0.57131 0.28645 0.36578
0.66832 0.28981 0.36936
0.76533 0.29316 0.37294
0.86234 0.29652 0.37653
0.09801 0.37386 0.35985
0.19502 0.37722 0.36343
0.29202 0.38058 0.36701
0.38903 0.38393 0.37060
0.48604 0.38729 0.37418
0.58305 0.39065 0.37776
0.68006 0.39401 0.38135
0.77706 0.39737 0.38493
0.87408 0.40073 0.38850
0.10974 0.47806 0.37183
0.20675 0.48142 0.37542
0.30376 0.48478 0.37900
0.40077 0.48814 0.38258
0.49777 0.49149 0.38616
0.59492 0.49496 0.38964
0.69230 0.49862 0.39292
0.78968 0.50228 0.39620
0.88706 0.50593 0.39949
0.12148 0.58226 0.38382
0.21848 0.58562 0.38740
0.31576 0.58919 0.39077
0.41314 0.59285 0.39405
0.51052 0.59651 0.39734
0.60790 0.60016 0.40062
0.70529 0.60382 0.40390
0.80267 0.60748 0.40719
0.90005 0.61114 0.41047
0.13398 0.68708 0.39519
0.23136 0.69074 0.39847
0.32874 0.69440 0.40175
0.42613 0.69805 0.40504
0.52351 0.70171 0.40832
0.62089 0.70537 0.41160
0.71827 0.70903 0.41489
0.81565 0.71268 0.41817
0.91304 0.71634 0.42145
0.14696 0.79228 0.40617
0.24435 0.79594 0.40945
0.34173 0.79960 0.41274
0.43911 0.80326 0.41602
0.53649 0.80691 0.41930
0.63387 0.81057 0.42259
0.73126 0.81423 0.42587
0.82864 0.81789 0.42915
0.92602 0.82154 0.43244
0.15995 0.89749 0.41715
0.25733 0.90114 0.42043
0.35471 0.90480 0.42372
0.45210 0.90846 0.42700
0.54948 0.91212 0.43029
0.64686 0.91577 0.43357
0.74424 0.91943 0.43685
0.84162 0.92309 0.44014
0.93901 0.92675 0.44342
0.06396 0.06236 0.41538
0.16097 0.06571 0.41897
0.25797 0.06907 0.42255
0.35498 0.07243 0.42613
0.45199 0.07579 0.42972
0.54900 0.07915 0.43330
0.64601 0.08250 0.43688
0.74301 0.08586 0.44046
0.84002 0.08922 0.44405
0.07569 0.16656 0.42737
0.17270 0.16992 0.43095
0.26971 0.17327 0.43453
0.36672 0.17663 0.43812
0.46372 0.17999 0.44170
0.56073 0.18335 0.44528
0.65774 0.18671 0.44886
0.75475 0.19006 0.45245
0.85175 0.19342 0.45603
0.08743 0.27076 0.43935
0.18443 0.27412 0.44294
0.28144 0.27748 0.44652
0.37845 0.28083 0.45010
0.47546 0.28419 0.45368
0.57247 0.28755 0.45727
0.66947 0.29091 0.46085
0.76648 0.29427 0.46443
0.86349 0.29762 0.46801
0.09916 0.37496 0.45134
0.19617 0.37832 0.45492
0.29318 0.38168 0.45850
0.39018 0.38504 0.46208
0.48719 0.38839 0.46567
0.58420 0.39175 0.46925
0.68121 0.39511 0.47283
0.77821 0.39847 0.47642
0.87535 0.40193 0.47989
0.11089 0.47916 0.46332
0.20790 0.48252 0.46690
0.30491 0.48588 0.47049
0.40192 0.48924 0.47407
0.49892 0.49260 0.47765
0.59619 0.49616 0.48103
0.69357 0.49982 0.48431
0.79096 0.50348 0.48759
0.88834 0.50713 0.49088
0.12263 0.58336 0.47530
0.21965 0.58673 0.47888
0.31703 0.59039 0.48216
0.41441 0.59405 0.48544
0.51180 0.59771 0.48873
0.60918 0.60136 0.49201
0.70656 0.60502 0.49529
0.80394 0.60868 0.49858
0.90132 0.61234 0.50186
0.13525 0.68828 0.48658
0.23263 0.69194 0.48986
0.33002 0.69559 0.49314
0.42740 0.69925 0.49643
0.52478 0.70291 0.49971
0.62216 0.70657 0.50299
0.71954 0.71023 0.50628
0.81693 0.71388 0.50956
0.91431 0.71754 0.51284
0.14824 0.79348 0.49756
0.24562 0.79714 0.50084
0.34300 0.80080 0.50413
0.44038 0.80446 0.50741
0.53777 0.80811 0.51069
0.63515 0.81177 0.51398
0.73253 0.81543 0.51726
0.82991 0.81909 0.52054
0.92729 0.82274 0.52383
0.16122 0.89869 0.50854
0.25861 0.90234 0.51182
0.35599 0.90600 0.51511
0.45337 0.90966 0.51839
0.55075 0.91332 0.52167
0.64813 0.91697 0.52496
0.74552 0.92063 0.52824
0.84290 0.92429 0.53152
0.94028 0.92795 0.53481
0.06511 0.06346 0.50687
0.16212 0.06681 0.51045
0.25912 0.07017 0.51404
0.35613 0.07353 0.51762
0.45314 0.07689 0.52120
0.55015 0.08025 0.52479
0.64716 0.08361 0.52837
0.74416 0.08696 0.53195
0.84117 0.09032 0.53553
0.07684 0.16766 0.51886
0.17385 0.17102 0.52244
0.27086 0.17438 0.52602
0.36787 0.17773 0.52960
0.46487 0.18109 0.53319
0.56188 0.18445 0.53677
0.65889 0.18781 0.54035
0.75590 0.19117 0.54394
0.85291 0.19452 0.54752
0.08858 0.27186 0.53084
0.18558 0.27522 0.53442
0.28259 0.27858 0.53801
0.37960 0.28194 0.54159
0.47661 0.28529 0.54517
0.57362 0.28865 0.54875
0.67062 0.29201 0.55234
0.76763 0.29537 0.55592
0.86464 0.29873 0.55950
0.10031 0.37606 0.54282
0.19732 0.37942 0.54641
0.29433 0.38278 0.54999
0.39133 0.38614 0.55357
0.48834 0.38950 0.55716
0.58535 0.39285 0.56074
0.68236 0.39621 0.56432
0.77937 0.39957 0.56790
0.87663 0.40313 0.57128
0.11204 0.48026 0.55481
0.20905 0.48362 0.55839
0.30606 0.48698 0.56197
0.40307 0.49034 0.56556
0.50008 0.49370 0.56913
0.59747 0.49736 0.57242
0.69485 0.50102 0.57570
0.79223 0.50468 0.57898
0.88961 0.50833 0.58227
0.12378 0.58447 0.56679
0.22092 0.58793 0.57027
0.31830 0.59159 0.57355
0.41569 0.59525 0.57683
0.51307 0.59891 0.58012
0.61045 0.60256 0.58340
0.70783 0.60622 0.58668
0.80521 0.60988 0.58997
0.90260 0.61354 0.59325
0.13653 0.68948 0.57797
0.23391 0.69314 0.58125
0.33129 0.69679 0.58453
0.42867 0.70045 0.58782
0.52605 0.70411 0.59110
0.62344 0.70777 0.59438
0.72082 0.71142 0.59767
0.81820 0.71508 0.60095
0.91558 0.71874 0.60423
0.14951 0.79468 0.58895
0.24689 0.79834 0.59223
0.34428 0.80200 0.59551
0.44166 0.80566 0.59880
0.53904 0.80931 0.60208
0.63642 0.81297 0.60536
0.73380 0.81663 0.60865
0.83119 0.82029 0.61193
0.92857 0.82394 0.61521
0.16250 0.89989 0.59993
0.25988 0.90354 0.60321
0.35726 0.90720 0.60650
0.45464 0.91086 0.60978
0.55202 0.91452 0.61306
0.64941 0.91817 0.61635
0.74679 0.92183 0.61963
0.84417 0.92549 0.62291
0.94155 0.92915 0.62620
0.06626 0.06456 0.59836
0.16327 0.06792 0.60194
0.26028 0.07127 0.60553
0.35728 0.07463 0.60911
0.45429 0.07799 0.61269
0.55130 0.08135 0.61627
0.64831 0.08471 0.61986
0.74531 0.08807 0.62344
0.84232 0.09142 0.62702
0.07799 0.16876 0.61034
0.17500 0.17212 0.61393
0.27201 0.17548 0.61751
0.36902 0.17883 0.62109
0.46602 0.18219 0.62467
0.56303 0.18555 0.62826
0.66004 0.18891 0.63184
0.75705 0.19227 0.63542
0.85406 0.19563 0.63901
0.08973 0.27296 0.62233
0.18673 0.27632 0.62591
0.28374 0.27968 0.62949
0.38075 0.28304 0.63308
0.47776 0.28639 0.63666
0.57477 0.28975 0.64024
0.67177 0.29311 0.64382
0.76878 0.29647 0.64741
0.86579 0.29983 0.65099
0.10146 0.37716 0.63431
0.19847 0.38052 0.63789
0.29548 0.38388 0.64148
0.39248 0.38724 0.64506
0.48949 0.39060 0.64864
0.58650 0.39396 0.65223
0.68351 0.39731 0.65581
0.78052 0.40067 0.65939
0.87790 0.40433 0.66267
0.11319 0.48137 0.64630
0.21020 0.48472 0.64988
0.30721 0.48808 0.65346
0.40422 0.49144 0.65704
0.50136 0.49490 0.66052
0.59874 0.49856 0.66381
0.69612 0.50222 0.66709
0.79350 0.50588 0.67037
0.89089 0.50953 0.67366
0.12493 0.58557 0.65828
0.22220 0.58913 0.66166
0.31958 0.59279 0.66494
0.41696 0.59645 0.66822
0.51434 0.60011 0.67151
0.61172 0.60376 0.67479
0.70911 0.60742 0.67807
0.80649 0.61108 0.68136
0.90387 0.61474 0.68464
0.13780 0.69068 0.66935
0.23518 0.69434 0.67264
0.33256 0.69799 0.67592
0.42995 0.70165 0.67920
0.52733 0.70531 0.68249
0.62471 0.70897 0.68577
0.72209 0.71262 0.68905
0.81947 0.71628 0.69234
0.91686 0.71994 0.69562
0.15078 0.79588 0.68034
0.24817 0.79954 0.68362
0.34555 0.80320 0.68690
0.44293 0.80686 0.69019
0.54031 0.81051 0.69347
0.63769 0.81417 0.69675
0.73508 0.81783 0.70004
0.83246 0.82149 0.70332
0.92984 0.82514 0.70660
0.16377 0.90109 0.69132
0.26115 0.90474 0.69460
0.35853 0.90840 0.69789
0.45592 0.91206 0.70117
0.55330 0.91572 0.70445
0.65068 0.91937 0.70774
0.74806 0.92303 0.71102
0.84544 0.92669 0.71430
0.94283 0.93035 0.71759
0.06741 0.06566 0.68985
0.16442 0.06902 0.69343
0.26143 0.07238 0.69701
0.35843 0.07573 0.70060
0.45544 0.07909 0.70418
0.55245 0.08245 0.70776
0.64946 0.08581 0.71134
0.74647 0.08917 0.71493
0.84347 0.09253 0.71851
0.07914 0.16986 0.70183
0.17615 0.17322 0.70541
0.27316 0.17658 0.70900
0.37017 0.17994 0.71258
0.46718 0.18329 0.71616
0.56418 0.18665 0.71975
0.66119 0.19001 0.72333
0.75820 0.19337 0.72691
0.85521 0.19673 0.73049
0.09088 0.27406 0.71382
0.18789 0.27742 0.71740
0.28489 0.28078 0.72098
0.38190 0.28414 0.72456
0.47891 0.28750 0.72815
0.57592 0.29085 0.73173
0.67293 0.29421 0.73531
0.76993 0.29757 0.73889
0.86694 0.30093 0.74248
0.10261 0.37827 0.72580
0.19962 0.38162 0.72938
0.29663 0.38498 0.73297
0.39364 0.38834 0.73655
0.49064 0.39170 0.74013
0.58765 0.39506 0.74371
0.68466 0.39841 0.74730
0.78179 0.40187 0.75078
0.87917 0.40553 0.75406
0.11435 0.48247 0.73778
0.21135 0.48583 0.74137
0.30836 0.48918 0.74495
0.40537 0.49254 0.74853
0.50263 0.49610 0.75191
0.60001 0.49976 0.75520
0.69739 0.50342 0.75848
0.79478 0.50708 0.76176
0.89216 0.51073 0.76505
0.12609 0.58668 0.74976
0.22347 0.59033 0.75304
0.32085 0.59399 0.75633
0.41823 0.59765 0.75961
0.51562 0.60131 0.76289
0.61300 0.60496 0.76618
0.71038 0.60862 0.76946
0.80776 0.61228 0.77275
0.90514 0.61594 0.77603
0.13907 0.69188 0.76074
0.23645 0.69554 0.76403
0.33384 0.69919 0.76731
0.43122 0.70285 0.77059
0.52860 0.70651 0.77388
0.62598 0.71017 0.77716
0.72337 0.71382 0.78044
0.82075 0.71748 0.78373
0.91813 0.72114 0.78701
0.15206 0.79708 0.77173
0.24944 0.80074 0.77501
0.34682 0.80440 0.77829
0.44420 0.80805 0.78158
0.54159 0.81171 0.78486
0.63897 0.81537 0.78814
0.73635 0.81903 0.79143
0.83373 0.82269 0.79471
0.93111 0.82634 0.79799
0.16504 0.90229 0.78271
0.26243 0.90594 0.78599
0.35981 0.90960 0.78928
0.45719 0.91326 0.79256
0.55457 0.91692 0.79584
0.65195 0.92057 0.79913
0.74934 0.92423 0.80241
0.84672 0.92789 0.80569
0.94410 0.93155 0.80898
0.06856 0.06676 0.78134
0.16557 0.07012 0.78492
0.26258 0.07348 0.78850
0.35958 0.07684 0.79208
0.45659 0.08019 0.79567
0.55360 0.08355 0.79925
0.65061 0.08691 0.80283
0.74762 0.09027 0.80641
0.84462 0.09363 0.81000
0.08029 0.17096 0.79332
0.17730 0.17432 0.79690
0.27431 0.17768 0.80048
0.37132 0.18104 0.80407
0.46833 0.18440 0.80765
0.56533 0.18775 0.81123
0.66234 0.19111 0.81482
0.75935 0.19447 0.81840
0.85636 0.19783 0.82198
0.09203 0.27517 0.80530
0.18904 0.27852 0.80889
0.28604 0.28188 0.81247
0.38305 0.28524 0.81605
0.48006 0.28860 0.81963
0.57707 0.29196 0.82322
0.67408 0.29531 0.82680
0.77108 0.29867 0.83038
0.86809 0.30203 0.83397
0.10376 0.37937 0.81729
0.20077 0.38273 0.82087
0.29778 0.38608 0.82445
0.39479 0.38944 0.82804
0.49179 0.39280 0.83162
0.58880 0.39616 0.83520
0.68581 0.39952 0.83878
0.78306 0.40307 0.84217
0.88045 0.40673 0.84545
0.11550 0.48357 0.82927
0.21250 0.48693 0.83285
0.30951 0.49029 0.83644
0.40652 0.49365 0.84002
0.50390 0.49730 0.84330
0.60129 0.50096 0.84659
0.69867 0.50462 0.84987
0.79605 0.50828 0.85315
0.89343 0.51193 0.85644
0.12736 0.58788 0.84115
0.22474 0.59153 0.84443
0.32212 0.59519 0.84772
0.41951 0.59885 0.85100
0.51689 0.60251 0.85428
0.61427 0.60616 0.85757
0.71165 0.60982 0.86085
0.80904 0.61348 0.86413
0.90642 0.61714 0.86742
0.14035 0.69308 0.85213
0.23773 0.69674 0.85542
0.33511 0.70039 0.85870
0.43249 0.70405 0.86198
0.52987 0.70771 0.86527
0.62726 0.71137 0.86855
0.72464 0.71502 0.87183
0.82202 0.71868 0.87512
0.91940 0.72234 0.87840
0.15333 0.79828 0.86312
0.25071 0.80194 0.86640
0.34810 0.80560 0.86968
0.44548 0.80925 0.87297
0.54286 0.81291 0.87625
0.64024 0.81657 0.87953
0.73762 0.82023 0.88282
0.83501 0.82389 0.88610
0.93239 0.82754 0.88938
0.16632 0.90349 0.87410
0.26370 0.90714 0.87738
0.36108 0.91080 0.88067
0.45846 0.91446 0.88395
0.55585 0.91812 0.88723
0.65323 0.92177 0.89052
0.75061 0.92543 0.89380
0.84799 0.92909 0.89708
0.94537 0.93275 0.90037
