boundlessjs/public/luts/vintage_fade.cube
TITLE "vintage_fade"
LUT_3D_SIZE 33
0.05936 0.05795 0.04943
0.08361 0.05879 0.05033
0.10786 0.05963 0.05122
0.13211 0.06047 0.05212
0.15636 0.06131 0.05302
0.18062 0.06215 0.05391
0.20487 0.06299 0.05481
0.22912 0.06383 0.05570
0.25337 0.06467 0.05660
0.27762 0.06550 0.05749
0.30188 0.06634 0.05839
0.32613 0.06718 0.05929
0.35038 0.06802 0.06018
0.37463 0.06886 0.06108
0.39888 0.06970 0.06197
0.42313 0.07054 0.06287
0.44739 0.07138 0.06376
0.47164 0.07222 0.06466
0.49589 0.07306 0.06556
0.52014 0.07390 0.06645
0.54439 0.07474 0.06735
0.56865 0.07558 0.06824
0.59290 0.07642 0.06914
0.61715 0.07726 0.07003
0.64140 0.07810 0.07093
0.66565 0.07894 0.07183
0.68991 0.07978 0.07272
0.71416 0.08062 0.07362
0.73841 0.08146 0.07451
0.76266 0.08230 0.07541
0.78691 0.08314 0.07630
0.81117 0.08398 0.07720
0.83542 0.08481 0.07810
0.06229 0.08400 0.05243
0.08654 0.08484 0.05333
0.11079 0.08568 0.05422
0.13504 0.08652 0.05512
0.15930 0.08736 0.05601
0.18355 0.08820 0.05691
0.20780 0.08904 0.05780
0.23205 0.08988 0.05870
0.25630 0.09072 0.05960
0.28056 0.09156 0.06049
0.30481 0.09239 0.06139
0.32906 0.09323 0.06228
0.35331 0.09407 0.06318
0.37756 0.09491 0.06407
0.40182 0.09575 0.06497
0.42607 0.09659 0.06586
0.45032 0.09743 0.06676
0.47457 0.09827 0.06766
0.49882 0.09911 0.06855
0.52308 0.09995 0.06945
0.54733 0.10079 0.07034
0.57158 0.10163 0.07124
0.59583 0.10247 0.07213
0.62008 0.10331 0.07303
0.64434 0.10415 0.07393
0.66859 0.10499 0.07482
0.69284 0.10583 0.07572
0.71709 0.10667 0.07661
0.74134 0.10751 0.07751
0.76560 0.10835 0.07840
0.78985 0.10919 0.07930
0.81410 0.11003 0.08020
0.83835 0.11087 0.08109
0.06522 0.11005 0.05543
0.08947 0.11089 0.05632
0.11373 0.11173 0.05722
0.13798 0.11257 0.05811
0.16223 0.11341 0.05901
0.18648 0.11425 0.05990
0.21073 0.11509 0.06080
0.23499 0.11593 0.06170
0.25924 0.11677 0.06259
0.28349 0.11761 0.06349
0.30774 0.11845 0.06438
0.33199 0.11928 0.06528
0.35625 0.12012 0.06617
0.38050 0.12096 0.06707
0.40475 0.12180 0.06797
0.42900 0.12264 0.06886
0.45325 0.12348 0.06976
0.47751 0.12432 0.07065
0.50176 0.12516 0.07155
0.52601 0.12600 0.07244
0.55026 0.12684 0.07334
0.57451 0.12768 0.07423
0.59877 0.12852 0.07513
0.62302 0.12936 0.07603
0.64727 0.13020 0.07692
0.67152 0.13104 0.07782
0.69577 0.13188 0.07871
0.72003 0.13272 0.07961
0.74428 0.13356 0.08050
0.76853 0.13440 0.08140
0.79278 0.13524 0.08230
0.81703 0.13608 0.08319
0.84129 0.13692 0.08409
0.06816 0.13610 0.05842
0.09241 0.13694 0.05932
0.11666 0.13778 0.06021
0.14091 0.13862 0.06111
0.16516 0.13946 0.06200
0.18942 0.14030 0.06290
0.21367 0.14114 0.06380
0.23792 0.14198 0.06469
0.26217 0.14282 0.06559
0.28642 0.14366 0.06648
0.31068 0.14450 0.06738
0.33493 0.14534 0.06827
0.35918 0.14617 0.06917
0.38343 0.14701 0.07007
0.40768 0.14785 0.07096
0.43194 0.14869 0.07186
0.45619 0.14953 0.07275
0.48044 0.15037 0.07365
0.50469 0.15121 0.07454
0.52894 0.15205 0.07544
0.55320 0.15289 0.07634
0.57745 0.15373 0.07723
0.60170 0.15457 0.07813
0.62595 0.15541 0.07902
0.65020 0.15625 0.07992
0.67445 0.15709 0.08081
0.69871 0.15793 0.08171
0.72296 0.15877 0.08261
0.74721 0.15961 0.08350
0.77146 0.16045 0.08440
0.79571 0.16129 0.08529
0.81997 0.16213 0.08619
0.84422 0.16297 0.08708
0.07109 0.16215 0.06142
0.09534 0.16299 0.06231
0.11959 0.16383 0.06321
0.14384 0.16467 0.06410
0.16810 0.16551 0.06500
0.19235 0.16635 0.06590
0.21660 0.16719 0.06679
0.24085 0.16803 0.06769
0.26510 0.16887 0.06858
0.28936 0.16971 0.06948
0.31361 0.17055 0.07037
0.33786 0.17139 0.07127
0.36211 0.17223 0.07217
0.38636 0.17306 0.07306
0.41062 0.17390 0.07396
0.43487 0.17474 0.07485
0.45912 0.17558 0.07575
0.48337 0.17642 0.07664
0.50762 0.17726 0.07754
0.53188 0.17810 0.07844
0.55613 0.17894 0.07933
0.58038 0.17978 0.08023
0.60463 0.18062 0.08112
0.62888 0.18146 0.08202
0.65314 0.18230 0.08291
0.67739 0.18314 0.08381
0.70164 0.18398 0.08471
0.72589 0.18482 0.08560
0.75014 0.18566 0.08650
0.77440 0.18650 0.08739
0.79865 0.18734 0.08829
0.82290 0.18818 0.08918
0.84715 0.18902 0.09008
0.07402 0.18820 0.06441
0.09827 0.18904 0.06531
0.12253 0.18988 0.06621
0.14678 0.19072 0.06710
0.17103 0.19156 0.06800
0.19528 0.19240 0.06889
0.21953 0.19324 0.06979
0.24379 0.19408 0.07068
0.26804 0.19492 0.07158
0.29229 0.19576 0.07247
0.31654 0.19660 0.07337
0.34079 0.19744 0.07427
0.36505 0.19828 0.07516
0.38930 0.19912 0.07606
0.41355 0.19995 0.07695
0.43780 0.20079 0.07785
0.46205 0.20163 0.07874
0.48631 0.20247 0.07964
0.51056 0.20331 0.08054
0.53481 0.20415 0.08143
0.55906 0.20499 0.08233
0.58331 0.20583 0.08322
0.60757 0.20667 0.08412
0.63182 0.20751 0.08501
0.65607 0.20835 0.08591
0.68032 0.20919 0.08681
0.70457 0.21003 0.08770
0.72883 0.21087 0.08860
0.75308 0.21171 0.08949
0.77733 0.21255 0.09039
0.80158 0.21339 0.09128
0.82583 0.21423 0.09218
0.85009 0.21507 0.09308
0.07696 0.21425 0.06741
0.10121 0.21509 0.06831
0.12546 0.21593 0.06920
0.14971 0.21677 0.07010
0.17396 0.21761 0.07099
0.19822 0.21845 0.07189
0.22247 0.21929 0.07278
0.24672 0.22013 0.07368
0.27097 0.22097 0.07458
0.29522 0.22181 0.07547
0.31948 0.22265 0.07637
0.34373 0.22349 0.07726
0.36798 0.22433 0.07816
0.39223 0.22517 0.07905
0.41648 0.22601 0.07995
0.44074 0.22684 0.08084
0.46499 0.22768 0.08174
0.48924 0.22852 0.08264
0.51349 0.22936 0.08353
0.53774 0.23020 0.08443
0.56200 0.23104 0.08532
0.58625 0.23188 0.08622
0.61050 0.23272 0.08711
0.63475 0.23356 0.08801
0.65900 0.23440 0.08891
0.68326 0.23524 0.08980
0.70751 0.23608 0.09070
0.73176 0.23692 0.09159
0.75601 0.23776 0.09249
0.78026 0.23860 0.09338
0.80452 0.23944 0.09428
0.82877 0.24028 0.09518
0.85302 0.24112 0.09607
0.07989 0.24030 0.07041
0.10414 0.24114 0.07130
0.12839 0.24198 0.07220
0.15265 0.24282 0.07309
0.17690 0.24366 0.07399
0.20115 0.24450 0.07488
0.22540 0.24534 0.07578
0.24965 0.24618 0.07668
0.27391 0.24702 0.07757
0.29816 0.24786 0.07847
0.32241 0.24870 0.07936
0.34666 0.24954 0.08026
0.37091 0.25038 0.08115
0.39517 0.25122 0.08205
0.41942 0.25206 0.08295
0.44367 0.25290 0.08384
0.46792 0.25373 0.08474
0.49217 0.25457 0.08563
0.51642 0.25541 0.08653
0.54068 0.25625 0.08742
0.56493 0.25709 0.08832
0.58918 0.25793 0.08922
0.61343 0.25877 0.09011
0.63768 0.25961 0.09101
0.66194 0.26045 0.09190
0.68619 0.26129 0.09280
0.71044 0.26213 0.09369
0.73469 0.26297 0.09459
0.75894 0.26381 0.09548
0.78320 0.26465 0.09638
0.80745 0.26549 0.09728
0.83170 0.26633 0.09817
0.85595 0.26717 0.09907
0.08282 0.26635 0.07340
0.10707 0.26719 0.07430
0.13133 0.26803 0.07519
0.15558 0.26887 0.07609
0.17983 0.26971 0.07698
0.20408 0.27055 0.07788
0.22833 0.27139 0.07878
0.25259 0.27223 0.07967
0.27684 0.27307 0.08057
0.30109 0.27391 0.08146
0.32534 0.27475 0.08236
0.34959 0.27559 0.08325
0.37385 0.27643 0.08415
0.39810 0.27727 0.08505
0.42235 0.27811 0.08594
0.44660 0.27895 0.08684
0.47085 0.27979 0.08773
0.49511 0.28063 0.08863
0.51936 0.28146 0.08952
0.54361 0.28230 0.09042
0.56786 0.28314 0.09132
0.59211 0.28398 0.09221
0.61637 0.28482 0.09311
0.64062 0.28566 0.09400
0.66487 0.28650 0.09490
0.68912 0.28734 0.09579
0.71337 0.28818 0.09669
0.73763 0.28902 0.09759
0.76188 0.28986 0.09848
0.78613 0.29070 0.09938
0.81038 0.29154 0.10027
0.83463 0.29238 0.10117
0.85889 0.29322 0.10206
0.08576 0.29240 0.07640
0.11001 0.29324 0.07729
0.13426 0.29408 0.07819
0.15851 0.29492 0.07908
0.18276 0.29576 0.07998
0.20702 0.29660 0.08088
0.23127 0.29744 0.08177
0.25552 0.29828 0.08267
0.27977 0.29912 0.08356
0.30402 0.29996 0.08446
0.32828 0.30080 0.08535
0.35253 0.30164 0.08625
0.37678 0.30248 0.08715
0.40103 0.30332 0.08804
0.42528 0.30416 0.08894
0.44954 0.30500 0.08983
0.47379 0.30584 0.09073
0.49804 0.30668 0.09162
0.52229 0.30752 0.09252
0.54654 0.30835 0.09342
0.57080 0.30919 0.09431
0.59505 0.31003 0.09521
0.61930 0.31087 0.09610
0.64355 0.31171 0.09700
0.66780 0.31255 0.09789
0.69206 0.31339 0.09879
0.71631 0.31423 0.09969
0.74056 0.31507 0.10058
0.76481 0.31591 0.10148
0.78906 0.31675 0.10237
0.81332 0.31759 0.10327
0.83757 0.31843 0.10416
0.86182 0.31927 0.10506
0.08869 0.31845 0.07939
0.11294 0.31929 0.08029
0.13719 0.32013 0.08119
0.16145 0.32097 0.08208
0.18570 0.32181 0.08298
0.20995 0.32265 0.08387
0.23420 0.32349 0.08477
0.25845 0.32433 0.08566
0.28271 0.32517 0.08656
0.30696 0.32601 0.08745
0.33121 0.32685 0.08835
0.35546 0.32769 0.08925
0.37971 0.32853 0.09014
0.40397 0.32937 0.09104
0.42822 0.33021 0.09193
0.45247 0.33105 0.09283
0.47672 0.33189 0.09372
0.50097 0.33273 0.09462
0.52523 0.33357 0.09552
0.54948 0.33441 0.09641
0.57373 0.33524 0.09731
0.59798 0.33608 0.09820
0.62223 0.33692 0.09910
0.64649 0.33776 0.09999
0.67074 0.33860 0.10089
0.69499 0.33944 0.10179
0.71924 0.34028 0.10268
0.74349 0.34112 0.10358
0.76774 0.34196 0.10447
0.79200 0.34280 0.10537
0.81625 0.34364 0.10626
0.84050 0.34448 0.10716
0.86475 0.34532 0.10806
0.09162 0.34450 0.08239
0.11588 0.34534 0.08329
0.14013 0.34618 0.08418
0.16438 0.34702 0.08508
0.18863 0.34786 0.08597
0.21288 0.34870 0.08687
0.23713 0.34954 0.08776
0.26139 0.35038 0.08866
0.28564 0.35122 0.08956
0.30989 0.35206 0.09045
0.33414 0.35290 0.09135
0.35839 0.35374 0.09224
0.38265 0.35458 0.09314
0.40690 0.35542 0.09403
0.43115 0.35626 0.09493
0.45540 0.35710 0.09582
0.47965 0.35794 0.09672
0.50391 0.35878 0.09762
0.52816 0.35962 0.09851
0.55241 0.36046 0.09941
0.57666 0.36130 0.10030
0.60091 0.36213 0.10120
0.62517 0.36297 0.10209
0.64942 0.36381 0.10299
0.67367 0.36465 0.10389
0.69792 0.36549 0.10478
0.72217 0.36633 0.10568
0.74643 0.36717 0.10657
0.77068 0.36801 0.10747
0.79493 0.36885 0.10836
0.81918 0.36969 0.10926
0.84343 0.37053 0.11016
0.86769 0.37137 0.11105
0.09456 0.37055 0.08539
0.11881 0.37139 0.08628
0.14306 0.37223 0.08718
0.16731 0.37307 0.08807
0.19156 0.37391 0.08897
0.21582 0.37475 0.08986
0.24007 0.37559 0.09076
0.26432 0.37643 0.09166
0.28857 0.37727 0.09255
0.31282 0.37811 0.09345
0.33708 0.37895 0.09434
0.36133 0.37979 0.09524
0.38558 0.38063 0.09613
0.40983 0.38147 0.09703
0.43408 0.38231 0.09793
0.45834 0.38315 0.09882
0.48259 0.38399 0.09972
0.50684 0.38483 0.10061
0.53109 0.38567 0.10151
0.55534 0.38651 0.10240
0.57960 0.38735 0.10330
0.60385 0.38819 0.10420
0.62810 0.38902 0.10509
0.65235 0.38986 0.10599
0.67660 0.39070 0.10688
0.70086 0.39154 0.10778
0.72511 0.39238 0.10867
0.74936 0.39322 0.10957
0.77361 0.39406 0.11046
0.79786 0.39490 0.11136
0.82212 0.39574 0.11226
0.84637 0.39658 0.11315
0.87062 0.39742 0.11405
0.09749 0.39660 0.08838
0.12174 0.39744 0.08928
0.14599 0.39828 0.09017
0.17025 0.39912 0.09107
0.19450 0.39996 0.09196
0.21875 0.40080 0.09286
0.24300 0.40164 0.09376
0.26725 0.40248 0.09465
0.29151 0.40332 0.09555
0.31576 0.40416 0.09644
0.34001 0.40500 0.09734
0.36426 0.40584 0.09823
0.38851 0.40668 0.09913
0.41277 0.40752 0.10003
0.43702 0.40836 0.10092
0.46127 0.40920 0.10182
0.48552 0.41004 0.10271
0.50977 0.41088 0.10361
0.53403 0.41172 0.10450
0.55828 0.41256 0.10540
0.58253 0.41340 0.10630
0.60678 0.41424 0.10719
0.63103 0.41508 0.10809
0.65529 0.41591 0.10898
0.67954 0.41675 0.10988
0.70379 0.41759 0.11077
0.72804 0.41843 0.11167
0.75229 0.41927 0.11257
0.77655 0.42011 0.11346
0.80080 0.42095 0.11436
0.82505 0.42179 0.11525
0.84930 0.42263 0.11615
0.87355 0.42347 0.11704
0.10042 0.42266 0.09138
0.12468 0.42349 0.09227
0.14893 0.42433 0.09317
0.17318 0.42517 0.09406
0.19743 0.42601 0.09496
0.22168 0.42685 0.09586
0.24594 0.42769 0.09675
0.27019 0.42853 0.09765
0.29444 0.42937 0.09854
0.31869 0.43021 0.09944
0.34294 0.43105 0.10033
0.36720 0.43189 0.10123
0.39145 0.43273 0.10213
0.41570 0.43357 0.10302
0.43995 0.43441 0.10392
0.46420 0.43525 0.10481
0.48846 0.43609 0.10571
0.51271 0.43693 0.10660
0.53696 0.43777 0.10750
0.56121 0.43861 0.10840
0.58546 0.43945 0.10929
0.60971 0.44029 0.11019
0.63397 0.44113 0.11108
0.65822 0.44197 0.11198
0.68247 0.44280 0.11287
0.70672 0.44364 0.11377
0.73097 0.44448 0.11467
0.75523 0.44532 0.11556
0.77948 0.44616 0.11646
0.80373 0.44700 0.11735
0.82806 0.44790 0.11819
0.85241 0.44882 0.11901
0.87675 0.44973 0.11983
0.10336 0.44871 0.09437
0.12761 0.44955 0.09527
0.15186 0.45038 0.09617
0.17611 0.45122 0.09706
0.20036 0.45206 0.09796
0.22462 0.45290 0.09885
0.24887 0.45374 0.09975
0.27312 0.45458 0.10064
0.29737 0.45542 0.10154
0.32162 0.45626 0.10243
0.34588 0.45710 0.10333
0.37013 0.45794 0.10423
0.39438 0.45878 0.10512
0.41863 0.45962 0.10602
0.44288 0.46046 0.10691
0.46714 0.46130 0.10781
0.49139 0.46214 0.10870
0.51564 0.46298 0.10960
0.53989 0.46382 0.11050
0.56414 0.46466 0.11139
0.58840 0.46550 0.11229
0.61265 0.46634 0.11318
0.63690 0.46718 0.11408
0.66115 0.46802 0.11497
0.68540 0.46886 0.11587
0.70966 0.46969 0.11677
0.73393 0.47055 0.11765
0.75827 0.47146 0.11847
0.78262 0.47238 0.11929
0.80696 0.47329 0.12011
0.83131 0.47421 0.12093
0.85565 0.47512 0.12175
0.88000 0.47603 0.12257
0.10629 0.47476 0.09737
0.13054 0.47560 0.09827
0.15479 0.47644 0.09916
0.17905 0.47727 0.10006
0.20330 0.47811 0.10095
0.22755 0.47895 0.10185
0.25180 0.47979 0.10274
0.27605 0.48063 0.10364
0.30031 0.48147 0.10454
0.32456 0.48231 0.10543
0.34881 0.48315 0.10633
0.37306 0.48399 0.10722
0.39731 0.48483 0.10812
0.42157 0.48567 0.10901
0.44582 0.48651 0.10991
0.47007 0.48735 0.11081
0.49432 0.48819 0.11170
0.51857 0.48903 0.11260
0.54283 0.48987 0.11349
0.56708 0.49071 0.11439
0.59133 0.49155 0.11528
0.61558 0.49239 0.11618
0.63983 0.49323 0.11707
0.66413 0.49411 0.11793
0.68848 0.49502 0.11875
0.71283 0.49593 0.11957
0.73717 0.49685 0.12039
0.76152 0.49776 0.12121
0.78586 0.49868 0.12204
0.81021 0.49959 0.12286
0.83455 0.50051 0.12368
0.85890 0.50142 0.12450
0.88324 0.50233 0.12532
0.10922 0.50081 0.10037
0.13348 0.50165 0.10126
0.15773 0.50249 0.10216
0.18198 0.50333 0.10305
0.20623 0.50416 0.10395
0.23048 0.50500 0.10484
0.25474 0.50584 0.10574
0.27899 0.50668 0.10664
0.30324 0.50752 0.10753
0.32749 0.50836 0.10843
0.35174 0.50920 0.10932
0.37600 0.51004 0.11022
0.40025 0.51088 0.11111
0.42450 0.51172 0.11201
0.44875 0.51256 0.11291
0.47300 0.51340 0.11380
0.49726 0.51424 0.11470
0.52151 0.51508 0.11559
0.54576 0.51592 0.11649
0.57001 0.51676 0.11738
0.59434 0.51766 0.11821
0.61869 0.51858 0.11904
0.64304 0.51949 0.11986
0.66738 0.52041 0.12068
0.69173 0.52132 0.12150
0.71607 0.52223 0.12232
0.74042 0.52315 0.12314
0.76476 0.52406 0.12396
0.78911 0.52498 0.12478
0.81345 0.52589 0.12560
0.83780 0.52681 0.12642
0.86215 0.52772 0.12724
0.88649 0.52864 0.12806
0.11216 0.52686 0.10336
0.13641 0.52770 0.10426
0.16066 0.52854 0.10515
0.18491 0.52938 0.10605
0.20917 0.53022 0.10694
0.23342 0.53105 0.10784
0.25767 0.53189 0.10874
0.28192 0.53273 0.10963
0.30617 0.53357 0.11053
0.33042 0.53441 0.11142
0.35468 0.53525 0.11232
0.37893 0.53609 0.11321
0.40318 0.53693 0.11411
0.42743 0.53777 0.11501
0.45168 0.53861 0.11590
0.47594 0.53945 0.11680
0.50021 0.54031 0.11768
0.52455 0.54122 0.11850
0.54890 0.54213 0.11932
0.57325 0.54305 0.12014
0.59759 0.54396 0.12096
0.62194 0.54488 0.12178
0.64628 0.54579 0.12260
0.67063 0.54671 0.12342
0.69497 0.54762 0.12424
0.71932 0.54854 0.12506
0.74366 0.54945 0.12589
0.76801 0.55036 0.12671
0.79236 0.55128 0.12753
0.81670 0.55219 0.12835
0.84105 0.55311 0.12917
0.86539 0.55402 0.12999
0.88974 0.55494 0.13081
0.11509 0.55291 0.10636
0.13934 0.55375 0.10725
0.16359 0.55459 0.10815
0.18785 0.55543 0.10904
0.21210 0.55627 0.10994
0.23635 0.55711 0.11084
0.26060 0.55794 0.11173
0.28485 0.55878 0.11263
0.30911 0.55962 0.11352
0.33336 0.56046 0.11442
0.35761 0.56130 0.11531
0.38186 0.56214 0.11621
0.40611 0.56298 0.11711
0.43042 0.56386 0.11796
0.45476 0.56478 0.11878
0.47911 0.56569 0.11960
0.50346 0.56661 0.12042
0.52780 0.56752 0.12124
0.55215 0.56844 0.12206
0.57649 0.56935 0.12288
0.60084 0.57026 0.12371
0.62518 0.57118 0.12453
0.64953 0.57209 0.12535
0.67387 0.57301 0.12617
0.69822 0.57392 0.12699
0.72256 0.57484 0.12781
0.74691 0.57575 0.12863
0.77126 0.57667 0.12945
0.79560 0.57758 0.13027
0.81995 0.57849 0.13109
0.84429 0.57941 0.13191
0.86864 0.58032 0.13274
0.89298 0.58124 0.13356
0.11802 0.57896 0.10935
0.14228 0.57980 0.11025
0.16653 0.58064 0.11115
0.19078 0.58148 0.11204
0.21503 0.58232 0.11294
0.23928 0.58316 0.11383
0.26354 0.58400 0.11473
0.28779 0.58484 0.11562
0.31204 0.58567 0.11652
0.33629 0.58651 0.11742
0.36063 0.58742 0.11824
0.38497 0.58834 0.11906
0.40932 0.58925 0.11988
0.43367 0.59016 0.12071
0.45801 0.59108 0.12153
0.48236 0.59199 0.12235
0.50670 0.59291 0.12317
0.53105 0.59382 0.12399
0.55539 0.59474 0.12481
0.57974 0.59565 0.12563
0.60408 0.59657 0.12645
0.62843 0.59748 0.12727
0.65277 0.59839 0.12809
0.67712 0.59931 0.12891
0.70147 0.60022 0.12973
0.72581 0.60114 0.13056
0.75016 0.60205 0.13138
0.77450 0.60297 0.13220
0.79885 0.60388 0.13302
0.82319 0.60479 0.13384
0.84754 0.60571 0.13466
0.87188 0.60662 0.13548
0.89623 0.60754 0.13630
0.12096 0.60501 0.11235
0.14521 0.60585 0.11325
0.16946 0.60669 0.11414
0.19371 0.60753 0.11504
0.21797 0.60837 0.11593
0.24222 0.60921 0.11683
0.26649 0.61006 0.11771
0.29084 0.61098 0.11853
0.31518 0.61189 0.11935
0.33953 0.61281 0.12017
0.36387 0.61372 0.12099
0.38822 0.61464 0.12181
0.41257 0.61555 0.12263
0.43691 0.61647 0.12345
0.46126 0.61738 0.12427
0.48560 0.61829 0.12509
0.50995 0.61921 0.12591
0.53429 0.62012 0.12673
0.55864 0.62104 0.12756
0.58298 0.62195 0.12838
0.60733 0.62287 0.12920
0.63168 0.62378 0.13002
0.65602 0.62469 0.13084
0.68037 0.62561 0.13166
0.70471 0.62652 0.13248
0.72906 0.62744 0.13330
0.75340 0.62835 0.13412
0.77775 0.62927 0.13494
0.80209 0.63018 0.13576
0.82644 0.63110 0.13658
0.85079 0.63201 0.13741
0.87513 0.63292 0.13823
0.89948 0.63384 0.13905
0.12389 0.63106 0.11535
0.14814 0.63190 0.11624
0.17239 0.63274 0.11714
0.19670 0.63362 0.11799
0.22105 0.63454 0.11881
0.24539 0.63545 0.11963
0.26974 0.63637 0.12045
0.29408 0.63728 0.12127
0.31843 0.63819 0.12209
0.34278 0.63911 0.12291
0.36712 0.64002 0.12373
0.39147 0.64094 0.12456
0.41581 0.64185 0.12538
0.44016 0.64277 0.12620
0.46450 0.64368 0.12702
0.48885 0.64459 0.12784
0.51319 0.64551 0.12866
0.53754 0.64642 0.12948
0.56189 0.64734 0.13030
0.58623 0.64825 0.13112
0.61058 0.64917 0.13194
0.63492 0.65008 0.13276
0.65927 0.65100 0.13358
0.68361 0.65191 0.13441
0.70796 0.65282 0.13523
0.73230 0.65374 0.13605
0.75665 0.65465 0.13687
0.78099 0.65557 0.13769
0.80534 0.65648 0.13851
0.82969 0.65740 0.13933
0.85403 0.65831 0.14015
0.87838 0.65923 0.14097
0.90272 0.66014 0.14179
0.12691 0.65718 0.11827
0.15126 0.65809 0.11909
0.17560 0.65901 0.11991
0.19995 0.65992 0.12073
0.22429 0.66084 0.12155
0.24864 0.66175 0.12238
0.27299 0.66267 0.12320
0.29733 0.66358 0.12402
0.32168 0.66449 0.12484
0.34602 0.66541 0.12566
0.37037 0.66632 0.12648
0.39471 0.66724 0.12730
0.41906 0.66815 0.12812
0.44340 0.66907 0.12894
0.46775 0.66998 0.12976
0.49210 0.67090 0.13058
0.51644 0.67181 0.13141
0.54079 0.67272 0.13223
0.56513 0.67364 0.13305
0.58948 0.67455 0.13387
0.61382 0.67547 0.13469
0.63817 0.67638 0.13551
0.66251 0.67730 0.13633
0.68686 0.67821 0.13715
0.71120 0.67913 0.13797
0.73555 0.68004 0.13879
0.75990 0.68095 0.13961
0.78424 0.68187 0.14043
0.80859 0.68278 0.14126
0.83293 0.68370 0.14208
0.85728 0.68461 0.14290
0.88162 0.68553 0.14372
0.90597 0.68644 0.14454
0.13016 0.68348 0.12102
0.15450 0.68440 0.12184
0.17885 0.68531 0.12266
0.20320 0.68622 0.12348
0.22754 0.68714 0.12430
0.25189 0.68805 0.12512
0.27623 0.68897 0.12594
0.30058 0.68988 0.12676
0.32492 0.69080 0.12758
0.34927 0.69171 0.12840
0.37361 0.69262 0.12923
0.39796 0.69354 0.13005
0.42230 0.69445 0.13087
0.44665 0.69537 0.13169
0.47100 0.69628 0.13251
0.49534 0.69720 0.13333
0.51969 0.69811 0.13415
0.54403 0.69903 0.13497
0.56838 0.69994 0.13579
0.59272 0.70085 0.13661
0.61707 0.70177 0.13743
0.64141 0.70268 0.13826
0.66576 0.70360 0.13908
0.69011 0.70451 0.13990
0.71445 0.70543 0.14072
0.73880 0.70634 0.14154
0.76314 0.70725 0.14236
0.78749 0.70817 0.14318
0.81183 0.70908 0.14400
0.83618 0.71000 0.14482
0.86052 0.71091 0.14564
0.88487 0.71183 0.14646
0.90922 0.71274 0.14728
0.13340 0.70978 0.12376
0.15775 0.71070 0.12458
0.18210 0.71161 0.12540
0.20644 0.71252 0.12623
0.23079 0.71344 0.12705
0.25513 0.71435 0.12787
0.27948 0.71527 0.12869
0.30382 0.71618 0.12951
0.32817 0.71710 0.13033
0.35251 0.71801 0.13115
0.37686 0.71893 0.13197
0.40121 0.71984 0.13279
0.42555 0.72075 0.13361
0.44990 0.72167 0.13443
0.47424 0.72258 0.13525
0.49859 0.72350 0.13608
0.52293 0.72441 0.13690
0.54728 0.72533 0.13772
0.57162 0.72624 0.13854
0.59597 0.72715 0.13936
0.62032 0.72807 0.14018
0.64466 0.72898 0.14100
0.66901 0.72990 0.14182
0.69335 0.73081 0.14264
0.71770 0.73173 0.14346
0.74204 0.73264 0.14428
0.76639 0.73356 0.14511
0.79073 0.73447 0.14593
0.81508 0.73538 0.14675
0.83943 0.73630 0.14757
0.86377 0.73721 0.14839
0.88812 0.73813 0.14921
0.91246 0.73904 0.15003
0.13665 0.73608 0.12651
0.16100 0.73700 0.12733
0.18534 0.73791 0.12815
0.20969 0.73883 0.12897
0.23403 0.73974 0.12979
0.25838 0.74065 0.13061
0.28272 0.74157 0.13143
0.30707 0.74248 0.13225
0.33142 0.74340 0.13308
0.35576 0.74431 0.13390
0.38011 0.74523 0.13472
0.40445 0.74614 0.13554
0.42880 0.74705 0.13636
0.45314 0.74797 0.13718
0.47749 0.74888 0.13800
0.50183 0.74980 0.13882
0.52618 0.75071 0.13964
0.55053 0.75163 0.14046
0.57487 0.75254 0.14128
0.59922 0.75346 0.14210
0.62356 0.75437 0.14293
0.64791 0.75528 0.14375
0.67225 0.75620 0.14457
0.69660 0.75711 0.14539
0.72094 0.75803 0.14621
0.74529 0.75894 0.14703
0.76963 0.75986 0.14785
0.79398 0.76077 0.14867
0.81833 0.76169 0.14949
0.84267 0.76260 0.15031
0.86702 0.76351 0.15113
0.89136 0.76443 0.15196
0.91571 0.76534 0.15278
0.13990 0.76238 0.12925
0.16424 0.76330 0.13008
0.18859 0.76421 0.13090
0.21293 0.76513 0.13172
0.23728 0.76604 0.13254
0.26163 0.76695 0.13336
0.28597 0.76787 0.13418
0.31032 0.76878 0.13500
0.33466 0.76970 0.13582
